src/LUT/LUTs/FreeLUTs-CaioBraga/crossprocess-greenish.CUBE
#Created by: Adobe Photoshop Export Color Lookup Plugin
#Copyright: (C) Copyright 2017 © Caio Braga
TITLE "Green Crossprocess"
#LUT size
LUT_3D_SIZE 32
#data domain
DOMAIN_MIN 0.0 0.0 0.0
DOMAIN_MAX 1.0 1.0 1.0
#LUT data points
0.000000 0.000000 0.078430
0.007996 0.000000 0.078430
0.016632 0.000000 0.078430
0.026489 0.000000 0.078430
0.038208 0.000000 0.078430
0.052368 0.000000 0.078430
0.069611 0.000000 0.078430
0.090515 0.000000 0.078430
0.115540 0.000000 0.078430
0.144470 0.000000 0.078430
0.177094 0.000000 0.078430
0.213226 0.000000 0.078430
0.252594 0.000000 0.078430
0.295013 0.000000 0.078430
0.340240 0.000000 0.078430
0.388092 0.000000 0.078430
0.438324 0.000000 0.078430
0.490662 0.000000 0.078430
0.544922 0.000000 0.078430
0.600891 0.000000 0.078430
0.658356 0.000000 0.078430
0.717041 0.000000 0.078430
0.776794 0.000000 0.078430
0.837341 0.000000 0.078430
0.898499 0.000000 0.078430
0.959991 0.000000 0.078430
1.000000 0.000000 0.078430
1.000000 0.000000 0.078430
1.000000 0.000000 0.078430
1.000000 0.000000 0.078430
1.000000 0.000000 0.078430
1.000000 0.000000 0.078430
0.000000 0.018677 0.078430
0.007996 0.018677 0.078430
0.016632 0.018677 0.078430
0.026489 0.018677 0.078430
0.038208 0.018677 0.078430
0.052368 0.018677 0.078430
0.069611 0.018677 0.078430
0.090515 0.018677 0.078430
0.115540 0.018677 0.078430
0.144470 0.018677 0.078430
0.177094 0.018677 0.078430
0.213226 0.018677 0.078430
0.252594 0.018677 0.078430
0.295013 0.018677 0.078430
0.340240 0.018677 0.078430
0.388092 0.018677 0.078430
0.438324 0.018677 0.078430
0.490662 0.018677 0.078430
0.544922 0.018677 0.078430
0.600891 0.018677 0.078430
0.658356 0.018677 0.078430
0.717041 0.018677 0.078430
0.776794 0.018677 0.078430
0.837341 0.018677 0.078430
0.898499 0.018677 0.078430
0.959991 0.018677 0.078430
1.000000 0.018677 0.078430
1.000000 0.018677 0.078430
1.000000 0.018677 0.078430
1.000000 0.018677 0.078430
1.000000 0.018677 0.078430
1.000000 0.018677 0.078430
0.000000 0.037811 0.078430
0.007996 0.037811 0.078430
0.016632 0.037811 0.078430
0.026489 0.037811 0.078430
0.038208 0.037811 0.078430
0.052368 0.037811 0.078430
0.069611 0.037811 0.078430
0.090515 0.037811 0.078430
0.115540 0.037811 0.078430
0.144470 0.037811 0.078430
0.177094 0.037811 0.078430
0.213226 0.037811 0.078430
0.252594 0.037811 0.078430
0.295013 0.037811 0.078430
0.340240 0.037811 0.078430
0.388092 0.037811 0.078430
0.438324 0.037811 0.078430
0.490662 0.037811 0.078430
0.544922 0.037811 0.078430
0.600891 0.037811 0.078430
0.658356 0.037811 0.078430
0.717041 0.037811 0.078430
0.776794 0.037811 0.078430
0.837341 0.037811 0.078430
0.898499 0.037811 0.078430
0.959991 0.037811 0.078430
1.000000 0.037811 0.078430
1.000000 0.037811 0.078430
1.000000 0.037811 0.078430
1.000000 0.037811 0.078430
1.000000 0.037811 0.078430
1.000000 0.037811 0.078430
0.000000 0.057983 0.078430
0.007996 0.057983 0.078430
0.016632 0.057983 0.078430
0.026489 0.057983 0.078430
0.038208 0.057983 0.078430
0.052368 0.057983 0.078430
0.069611 0.057983 0.078430
0.090515 0.057983 0.078430
0.115540 0.057983 0.078430
0.144470 0.057983 0.078430
0.177094 0.057983 0.078430
0.213226 0.057983 0.078430
0.252594 0.057983 0.078430
0.295013 0.057983 0.078430
0.340240 0.057983 0.078430
0.388092 0.057983 0.078430
0.438324 0.057983 0.078430
0.490662 0.057983 0.078430
0.544922 0.057983 0.078430
0.600891 0.057983 0.078430
0.658356 0.057983 0.078430
0.717041 0.057983 0.078430
0.776794 0.057983 0.078430
0.837341 0.057983 0.078430
0.898499 0.057983 0.078430
0.959991 0.057983 0.078430
1.000000 0.057983 0.078430
1.000000 0.057983 0.078430
1.000000 0.057983 0.078430
1.000000 0.057983 0.078430
1.000000 0.057983 0.078430
1.000000 0.057983 0.078430
0.000000 0.079651 0.078430
0.007996 0.079651 0.078430
0.016632 0.079651 0.078430
0.026489 0.079651 0.078430
0.038208 0.079651 0.078430
0.052368 0.079651 0.078430
0.069611 0.079651 0.078430
0.090515 0.079651 0.078430
0.115540 0.079651 0.078430
0.144470 0.079651 0.078430
0.177094 0.079651 0.078430
0.213226 0.079651 0.078430
0.252594 0.079651 0.078430
0.295013 0.079651 0.078430
0.340240 0.079651 0.078430
0.388092 0.079651 0.078430
0.438324 0.079651 0.078430
0.490662 0.079651 0.078430
0.544922 0.079651 0.078430
0.600891 0.079651 0.078430
0.658356 0.079651 0.078430
0.717041 0.079651 0.078430
0.776794 0.079651 0.078430
0.837341 0.079651 0.078430
0.898499 0.079651 0.078430
0.959991 0.079651 0.078430
1.000000 0.079651 0.078430
1.000000 0.079651 0.078430
1.000000 0.079651 0.078430
1.000000 0.079651 0.078430
1.000000 0.079651 0.078430
1.000000 0.079651 0.078430
0.000000 0.103333 0.078430
0.007996 0.103333 0.078430
0.016632 0.103333 0.078430
0.026489 0.103333 0.078430
0.038208 0.103333 0.078430
0.052368 0.103333 0.078430
0.069611 0.103333 0.078430
0.090515 0.103333 0.078430
0.115540 0.103333 0.078430
0.144470 0.103333 0.078430
0.177094 0.103333 0.078430
0.213226 0.103333 0.078430
0.252594 0.103333 0.078430
0.295013 0.103333 0.078430
0.340240 0.103333 0.078430
0.388092 0.103333 0.078430
0.438324 0.103333 0.078430
0.490662 0.103333 0.078430
0.544922 0.103333 0.078430
0.600891 0.103333 0.078430
0.658356 0.103333 0.078430
0.717041 0.103333 0.078430
0.776794 0.103333 0.078430
0.837341 0.103333 0.078430
0.898499 0.103333 0.078430
0.959991 0.103333 0.078430
1.000000 0.103333 0.078430
1.000000 0.103333 0.078430
1.000000 0.103333 0.078430
1.000000 0.103333 0.078430
1.000000 0.103333 0.078430
1.000000 0.103333 0.078430
0.000000 0.129517 0.078430
0.007996 0.129517 0.078430
0.016632 0.129517 0.078430
0.026489 0.129517 0.078430
0.038208 0.129517 0.078430
0.052368 0.129517 0.078430
0.069611 0.129517 0.078430
0.090515 0.129517 0.078430
0.115540 0.129517 0.078430
0.144470 0.129517 0.078430
0.177094 0.129517 0.078430
0.213226 0.129517 0.078430
0.252594 0.129517 0.078430
0.295013 0.129517 0.078430
0.340240 0.129517 0.078430
0.388092 0.129517 0.078430
0.438324 0.129517 0.078430
0.490662 0.129517 0.078430
0.544922 0.129517 0.078430
0.600891 0.129517 0.078430
0.658356 0.129517 0.078430
0.717041 0.129517 0.078430
0.776794 0.129517 0.078430
0.837341 0.129517 0.078430
0.898499 0.129517 0.078430
0.959991 0.129517 0.078430
1.000000 0.129517 0.078430
1.000000 0.129517 0.078430
1.000000 0.129517 0.078430
1.000000 0.129517 0.078430
1.000000 0.129517 0.078430
1.000000 0.129517 0.078430
0.000000 0.158691 0.078430
0.007996 0.158691 0.078430
0.016632 0.158691 0.078430
0.026489 0.158691 0.078430
0.038208 0.158691 0.078430
0.052368 0.158691 0.078430
0.069611 0.158691 0.078430
0.090515 0.158691 0.078430
0.115540 0.158691 0.078430
0.144470 0.158691 0.078430
0.177094 0.158691 0.078430
0.213226 0.158691 0.078430
0.252594 0.158691 0.078430
0.295013 0.158691 0.078430
0.340240 0.158691 0.078430
0.388092 0.158691 0.078430
0.438324 0.158691 0.078430
0.490662 0.158691 0.078430
0.544922 0.158691 0.078430
0.600891 0.158691 0.078430
0.658356 0.158691 0.078430
0.717041 0.158691 0.078430
0.776794 0.158691 0.078430
0.837341 0.158691 0.078430
0.898499 0.158691 0.078430
0.959991 0.158691 0.078430
1.000000 0.158691 0.078430
1.000000 0.158691 0.078430
1.000000 0.158691 0.078430
1.000000 0.158691 0.078430
1.000000 0.158691 0.078430
1.000000 0.158691 0.078430
0.000000 0.191162 0.078430
0.007996 0.191162 0.078430
0.016632 0.191162 0.078430
0.026489 0.191162 0.078430
0.038208 0.191162 0.078430
0.052368 0.191162 0.078430
0.069611 0.191162 0.078430
0.090515 0.191162 0.078430
0.115540 0.191162 0.078430
0.144470 0.191162 0.078430
0.177094 0.191162 0.078430
0.213226 0.191162 0.078430
0.252594 0.191162 0.078430
0.295013 0.191162 0.078430
0.340240 0.191162 0.078430
0.388092 0.191162 0.078430
0.438324 0.191162 0.078430
0.490662 0.191162 0.078430
0.544922 0.191162 0.078430
0.600891 0.191162 0.078430
0.658356 0.191162 0.078430
0.717041 0.191162 0.078430
0.776794 0.191162 0.078430
0.837341 0.191162 0.078430
0.898499 0.191162 0.078430
0.959991 0.191162 0.078430
1.000000 0.191162 0.078430
1.000000 0.191162 0.078430
1.000000 0.191162 0.078430
1.000000 0.191162 0.078430
1.000000 0.191162 0.078430
1.000000 0.191162 0.078430
0.000000 0.226562 0.078430
0.007996 0.226562 0.078430
0.016632 0.226562 0.078430
0.026489 0.226562 0.078430
0.038208 0.226562 0.078430
0.052368 0.226562 0.078430
0.069611 0.226562 0.078430
0.090515 0.226562 0.078430
0.115540 0.226562 0.078430
0.144470 0.226562 0.078430
0.177094 0.226562 0.078430
0.213226 0.226562 0.078430
0.252594 0.226562 0.078430
0.295013 0.226562 0.078430
0.340240 0.226562 0.078430
0.388092 0.226562 0.078430
0.438324 0.226562 0.078430
0.490662 0.226562 0.078430
0.544922 0.226562 0.078430
0.600891 0.226562 0.078430
0.658356 0.226562 0.078430
0.717041 0.226562 0.078430
0.776794 0.226562 0.078430
0.837341 0.226562 0.078430
0.898499 0.226562 0.078430
0.959991 0.226562 0.078430
1.000000 0.226562 0.078430
1.000000 0.226562 0.078430
1.000000 0.226562 0.078430
1.000000 0.226562 0.078430
1.000000 0.226562 0.078430
1.000000 0.226562 0.078430
0.000000 0.264587 0.078430
0.007996 0.264587 0.078430
0.016632 0.264587 0.078430
0.026489 0.264587 0.078430
0.038208 0.264587 0.078430
0.052368 0.264587 0.078430
0.069611 0.264587 0.078430
0.090515 0.264587 0.078430
0.115540 0.264587 0.078430
0.144470 0.264587 0.078430
0.177094 0.264587 0.078430
0.213226 0.264587 0.078430
0.252594 0.264587 0.078430
0.295013 0.264587 0.078430
0.340240 0.264587 0.078430
0.388092 0.264587 0.078430
0.438324 0.264587 0.078430
0.490662 0.264587 0.078430
0.544922 0.264587 0.078430
0.600891 0.264587 0.078430
0.658356 0.264587 0.078430
0.717041 0.264587 0.078430
0.776794 0.264587 0.078430
0.837341 0.264587 0.078430
0.898499 0.264587 0.078430
0.959991 0.264587 0.078430
1.000000 0.264587 0.078430
1.000000 0.264587 0.078430
1.000000 0.264587 0.078430
1.000000 0.264587 0.078430
1.000000 0.264587 0.078430
1.000000 0.264587 0.078430
0.000000 0.304749 0.078430
0.007996 0.304749 0.078430
0.016632 0.304749 0.078430
0.026489 0.304749 0.078430
0.038208 0.304749 0.078430
0.052368 0.304749 0.078430
0.069611 0.304749 0.078430
0.090515 0.304749 0.078430
0.115540 0.304749 0.078430
0.144470 0.304749 0.078430
0.177094 0.304749 0.078430
0.213226 0.304749 0.078430
0.252594 0.304749 0.078430
0.295013 0.304749 0.078430
0.340240 0.304749 0.078430
0.388092 0.304749 0.078430
0.438324 0.304749 0.078430
0.490662 0.304749 0.078430
0.544922 0.304749 0.078430
0.600891 0.304749 0.078430
0.658356 0.304749 0.078430
0.717041 0.304749 0.078430
0.776794 0.304749 0.078430
0.837341 0.304749 0.078430
0.898499 0.304749 0.078430
0.959991 0.304749 0.078430
1.000000 0.304749 0.078430
1.000000 0.304749 0.078430
1.000000 0.304749 0.078430
1.000000 0.304749 0.078430
1.000000 0.304749 0.078430
1.000000 0.304749 0.078430
0.000000 0.346710 0.078430
0.007996 0.346710 0.078430
0.016632 0.346710 0.078430
0.026489 0.346710 0.078430
0.038208 0.346710 0.078430
0.052368 0.346710 0.078430
0.069611 0.346710 0.078430
0.090515 0.346710 0.078430
0.115540 0.346710 0.078430
0.144470 0.346710 0.078430
0.177094 0.346710 0.078430
0.213226 0.346710 0.078430
0.252594 0.346710 0.078430
0.295013 0.346710 0.078430
0.340240 0.346710 0.078430
0.388092 0.346710 0.078430
0.438324 0.346710 0.078430
0.490662 0.346710 0.078430
0.544922 0.346710 0.078430
0.600891 0.346710 0.078430
0.658356 0.346710 0.078430
0.717041 0.346710 0.078430
0.776794 0.346710 0.078430
0.837341 0.346710 0.078430
0.898499 0.346710 0.078430
0.959991 0.346710 0.078430
1.000000 0.346710 0.078430
1.000000 0.346710 0.078430
1.000000 0.346710 0.078430
1.000000 0.346710 0.078430
1.000000 0.346710 0.078430
1.000000 0.346710 0.078430
0.000000 0.390045 0.078430
0.007996 0.390045 0.078430
0.016632 0.390045 0.078430
0.026489 0.390045 0.078430
0.038208 0.390045 0.078430
0.052368 0.390045 0.078430
0.069611 0.390045 0.078430
0.090515 0.390045 0.078430
0.115540 0.390045 0.078430
0.144470 0.390045 0.078430
0.177094 0.390045 0.078430
0.213226 0.390045 0.078430
0.252594 0.390045 0.078430
0.295013 0.390045 0.078430
0.340240 0.390045 0.078430
0.388092 0.390045 0.078430
0.438324 0.390045 0.078430
0.490662 0.390045 0.078430
0.544922 0.390045 0.078430
0.600891 0.390045 0.078430
0.658356 0.390045 0.078430
0.717041 0.390045 0.078430
0.776794 0.390045 0.078430
0.837341 0.390045 0.078430
0.898499 0.390045 0.078430
0.959991 0.390045 0.078430
1.000000 0.390045 0.078430
1.000000 0.390045 0.078430
1.000000 0.390045 0.078430
1.000000 0.390045 0.078430
1.000000 0.390045 0.078430
1.000000 0.390045 0.078430
0.000000 0.434418 0.078430
0.007996 0.434418 0.078430
0.016632 0.434418 0.078430
0.026489 0.434418 0.078430
0.038208 0.434418 0.078430
0.052368 0.434418 0.078430
0.069611 0.434418 0.078430
0.090515 0.434418 0.078430
0.115540 0.434418 0.078430
0.144470 0.434418 0.078430
0.177094 0.434418 0.078430
0.213226 0.434418 0.078430
0.252594 0.434418 0.078430
0.295013 0.434418 0.078430
0.340240 0.434418 0.078430
0.388092 0.434418 0.078430
0.438324 0.434418 0.078430
0.490662 0.434418 0.078430
0.544922 0.434418 0.078430
0.600891 0.434418 0.078430
0.658356 0.434418 0.078430
0.717041 0.434418 0.078430
0.776794 0.434418 0.078430
0.837341 0.434418 0.078430
0.898499 0.434418 0.078430
0.959991 0.434418 0.078430
1.000000 0.434418 0.078430
1.000000 0.434418 0.078430
1.000000 0.434418 0.078430
1.000000 0.434418 0.078430
1.000000 0.434418 0.078430
1.000000 0.434418 0.078430
0.000000 0.479431 0.078430
0.007996 0.479431 0.078430
0.016632 0.479431 0.078430
0.026489 0.479431 0.078430
0.038208 0.479431 0.078430
0.052368 0.479431 0.078430
0.069611 0.479431 0.078430
0.090515 0.479431 0.078430
0.115540 0.479431 0.078430
0.144470 0.479431 0.078430
0.177094 0.479431 0.078430
0.213226 0.479431 0.078430
0.252594 0.479431 0.078430
0.295013 0.479431 0.078430
0.340240 0.479431 0.078430
0.388092 0.479431 0.078430
0.438324 0.479431 0.078430
0.490662 0.479431 0.078430
0.544922 0.479431 0.078430
0.600891 0.479431 0.078430
0.658356 0.479431 0.078430
0.717041 0.479431 0.078430
0.776794 0.479431 0.078430
0.837341 0.479431 0.078430
0.898499 0.479431 0.078430
0.959991 0.479431 0.078430
1.000000 0.479431 0.078430
1.000000 0.479431 0.078430
1.000000 0.479431 0.078430
1.000000 0.479431 0.078430
1.000000 0.479431 0.078430
1.000000 0.479431 0.078430
0.000000 0.524689 0.078430
0.007996 0.524689 0.078430
0.016632 0.524689 0.078430
0.026489 0.524689 0.078430
0.038208 0.524689 0.078430
0.052368 0.524689 0.078430
0.069611 0.524689 0.078430
0.090515 0.524689 0.078430
0.115540 0.524689 0.078430
0.144470 0.524689 0.078430
0.177094 0.524689 0.078430
0.213226 0.524689 0.078430
0.252594 0.524689 0.078430
0.295013 0.524689 0.078430
0.340240 0.524689 0.078430
0.388092 0.524689 0.078430
0.438324 0.524689 0.078430
0.490662 0.524689 0.078430
0.544922 0.524689 0.078430
0.600891 0.524689 0.078430
0.658356 0.524689 0.078430
0.717041 0.524689 0.078430
0.776794 0.524689 0.078430
0.837341 0.524689 0.078430
0.898499 0.524689 0.078430
0.959991 0.524689 0.078430
1.000000 0.524689 0.078430
1.000000 0.524689 0.078430
1.000000 0.524689 0.078430
1.000000 0.524689 0.078430
1.000000 0.524689 0.078430
1.000000 0.524689 0.078430
0.000000 0.569794 0.078430
0.007996 0.569794 0.078430
0.016632 0.569794 0.078430
0.026489 0.569794 0.078430
0.038208 0.569794 0.078430
0.052368 0.569794 0.078430
0.069611 0.569794 0.078430
0.090515 0.569794 0.078430
0.115540 0.569794 0.078430
0.144470 0.569794 0.078430
0.177094 0.569794 0.078430
0.213226 0.569794 0.078430
0.252594 0.569794 0.078430
0.295013 0.569794 0.078430
0.340240 0.569794 0.078430
0.388092 0.569794 0.078430
0.438324 0.569794 0.078430
0.490662 0.569794 0.078430
0.544922 0.569794 0.078430
0.600891 0.569794 0.078430
0.658356 0.569794 0.078430
0.717041 0.569794 0.078430
0.776794 0.569794 0.078430
0.837341 0.569794 0.078430
0.898499 0.569794 0.078430
0.959991 0.569794 0.078430
1.000000 0.569794 0.078430
1.000000 0.569794 0.078430
1.000000 0.569794 0.078430
1.000000 0.569794 0.078430
1.000000 0.569794 0.078430
1.000000 0.569794 0.078430
0.000000 0.614319 0.078430
0.007996 0.614319 0.078430
0.016632 0.614319 0.078430
0.026489 0.614319 0.078430
0.038208 0.614319 0.078430
0.052368 0.614319 0.078430
0.069611 0.614319 0.078430
0.090515 0.614319 0.078430
0.115540 0.614319 0.078430
0.144470 0.614319 0.078430
0.177094 0.614319 0.078430
0.213226 0.614319 0.078430
0.252594 0.614319 0.078430
0.295013 0.614319 0.078430
0.340240 0.614319 0.078430
0.388092 0.614319 0.078430
0.438324 0.614319 0.078430
0.490662 0.614319 0.078430
0.544922 0.614319 0.078430
0.600891 0.614319 0.078430
0.658356 0.614319 0.078430
0.717041 0.614319 0.078430
0.776794 0.614319 0.078430
0.837341 0.614319 0.078430
0.898499 0.614319 0.078430
0.959991 0.614319 0.078430
1.000000 0.614319 0.078430
1.000000 0.614319 0.078430
1.000000 0.614319 0.078430
1.000000 0.614319 0.078430
1.000000 0.614319 0.078430
1.000000 0.614319 0.078430
0.000000 0.657959 0.078430
0.007996 0.657959 0.078430
0.016632 0.657959 0.078430
0.026489 0.657959 0.078430
0.038208 0.657959 0.078430
0.052368 0.657959 0.078430
0.069611 0.657959 0.078430
0.090515 0.657959 0.078430
0.115540 0.657959 0.078430
0.144470 0.657959 0.078430
0.177094 0.657959 0.078430
0.213226 0.657959 0.078430
0.252594 0.657959 0.078430
0.295013 0.657959 0.078430
0.340240 0.657959 0.078430
0.388092 0.657959 0.078430
0.438324 0.657959 0.078430
0.490662 0.657959 0.078430
0.544922 0.657959 0.078430
0.600891 0.657959 0.078430
0.658356 0.657959 0.078430
0.717041 0.657959 0.078430
0.776794 0.657959 0.078430
0.837341 0.657959 0.078430
0.898499 0.657959 0.078430
0.959991 0.657959 0.078430
1.000000 0.657959 0.078430
1.000000 0.657959 0.078430
1.000000 0.657959 0.078430
1.000000 0.657959 0.078430
1.000000 0.657959 0.078430
1.000000 0.657959 0.078430
0.000000 0.700226 0.078430
0.007996 0.700226 0.078430
0.016632 0.700226 0.078430
0.026489 0.700226 0.078430
0.038208 0.700226 0.078430
0.052368 0.700226 0.078430
0.069611 0.700226 0.078430
0.090515 0.700226 0.078430
0.115540 0.700226 0.078430
0.144470 0.700226 0.078430
0.177094 0.700226 0.078430
0.213226 0.700226 0.078430
0.252594 0.700226 0.078430
0.295013 0.700226 0.078430
0.340240 0.700226 0.078430
0.388092 0.700226 0.078430
0.438324 0.700226 0.078430
0.490662 0.700226 0.078430
0.544922 0.700226 0.078430
0.600891 0.700226 0.078430
0.658356 0.700226 0.078430
0.717041 0.700226 0.078430
0.776794 0.700226 0.078430
0.837341 0.700226 0.078430
0.898499 0.700226 0.078430
0.959991 0.700226 0.078430
1.000000 0.700226 0.078430
1.000000 0.700226 0.078430
1.000000 0.700226 0.078430
1.000000 0.700226 0.078430
1.000000 0.700226 0.078430
1.000000 0.700226 0.078430
0.000000 0.740845 0.078430
0.007996 0.740845 0.078430
0.016632 0.740845 0.078430
0.026489 0.740845 0.078430
0.038208 0.740845 0.078430
0.052368 0.740845 0.078430
0.069611 0.740845 0.078430
0.090515 0.740845 0.078430
0.115540 0.740845 0.078430
0.144470 0.740845 0.078430
0.177094 0.740845 0.078430
0.213226 0.740845 0.078430
0.252594 0.740845 0.078430
0.295013 0.740845 0.078430
0.340240 0.740845 0.078430
0.388092 0.740845 0.078430
0.438324 0.740845 0.078430
0.490662 0.740845 0.078430
0.544922 0.740845 0.078430
0.600891 0.740845 0.078430
0.658356 0.740845 0.078430
0.717041 0.740845 0.078430
0.776794 0.740845 0.078430
0.837341 0.740845 0.078430
0.898499 0.740845 0.078430
0.959991 0.740845 0.078430
1.000000 0.740845 0.078430
1.000000 0.740845 0.078430
1.000000 0.740845 0.078430
1.000000 0.740845 0.078430
1.000000 0.740845 0.078430
1.000000 0.740845 0.078430
0.000000 0.779327 0.078430
0.007996 0.779327 0.078430
0.016632 0.779327 0.078430
0.026489 0.779327 0.078430
0.038208 0.779327 0.078430
0.052368 0.779327 0.078430
0.069611 0.779327 0.078430
0.090515 0.779327 0.078430
0.115540 0.779327 0.078430
0.144470 0.779327 0.078430
0.177094 0.779327 0.078430
0.213226 0.779327 0.078430
0.252594 0.779327 0.078430
0.295013 0.779327 0.078430
0.340240 0.779327 0.078430
0.388092 0.779327 0.078430
0.438324 0.779327 0.078430
0.490662 0.779327 0.078430
0.544922 0.779327 0.078430
0.600891 0.779327 0.078430
0.658356 0.779327 0.078430
0.717041 0.779327 0.078430
0.776794 0.779327 0.078430
0.837341 0.779327 0.078430
0.898499 0.779327 0.078430
0.959991 0.779327 0.078430
1.000000 0.779327 0.078430
1.000000 0.779327 0.078430
1.000000 0.779327 0.078430
1.000000 0.779327 0.078430
1.000000 0.779327 0.078430
1.000000 0.779327 0.078430
0.000000 0.815338 0.078430
0.007996 0.815338 0.078430
0.016632 0.815338 0.078430
0.026489 0.815338 0.078430
0.038208 0.815338 0.078430
0.052368 0.815338 0.078430
0.069611 0.815338 0.078430
0.090515 0.815338 0.078430
0.115540 0.815338 0.078430
0.144470 0.815338 0.078430
0.177094 0.815338 0.078430
0.213226 0.815338 0.078430
0.252594 0.815338 0.078430
0.295013 0.815338 0.078430
0.340240 0.815338 0.078430
0.388092 0.815338 0.078430
0.438324 0.815338 0.078430
0.490662 0.815338 0.078430
0.544922 0.815338 0.078430
0.600891 0.815338 0.078430
0.658356 0.815338 0.078430
0.717041 0.815338 0.078430
0.776794 0.815338 0.078430
0.837341 0.815338 0.078430
0.898499 0.815338 0.078430
0.959991 0.815338 0.078430
1.000000 0.815338 0.078430
1.000000 0.815338 0.078430
1.000000 0.815338 0.078430
1.000000 0.815338 0.078430
1.000000 0.815338 0.078430
1.000000 0.815338 0.078430
0.000000 0.848480 0.078430
0.007996 0.848480 0.078430
0.016632 0.848480 0.078430
0.026489 0.848480 0.078430
0.038208 0.848480 0.078430
0.052368 0.848480 0.078430
0.069611 0.848480 0.078430
0.090515 0.848480 0.078430
0.115540 0.848480 0.078430
0.144470 0.848480 0.078430
0.177094 0.848480 0.078430
0.213226 0.848480 0.078430
0.252594 0.848480 0.078430
0.295013 0.848480 0.078430
0.340240 0.848480 0.078430
0.388092 0.848480 0.078430
0.438324 0.848480 0.078430
0.490662 0.848480 0.078430
0.544922 0.848480 0.078430
0.600891 0.848480 0.078430
0.658356 0.848480 0.078430
0.717041 0.848480 0.078430
0.776794 0.848480 0.078430
0.837341 0.848480 0.078430
0.898499 0.848480 0.078430
0.959991 0.848480 0.078430
1.000000 0.848480 0.078430
1.000000 0.848480 0.078430
1.000000 0.848480 0.078430
1.000000 0.848480 0.078430
1.000000 0.848480 0.078430
1.000000 0.848480 0.078430
0.000000 0.878387 0.078430
0.007996 0.878387 0.078430
0.016632 0.878387 0.078430
0.026489 0.878387 0.078430
0.038208 0.878387 0.078430
0.052368 0.878387 0.078430
0.069611 0.878387 0.078430
0.090515 0.878387 0.078430
0.115540 0.878387 0.078430
0.144470 0.878387 0.078430
0.177094 0.878387 0.078430
0.213226 0.878387 0.078430
0.252594 0.878387 0.078430
0.295013 0.878387 0.078430
0.340240 0.878387 0.078430
0.388092 0.878387 0.078430
0.438324 0.878387 0.078430
0.490662 0.878387 0.078430
0.544922 0.878387 0.078430
0.600891 0.878387 0.078430
0.658356 0.878387 0.078430
0.717041 0.878387 0.078430
0.776794 0.878387 0.078430
0.837341 0.878387 0.078430
0.898499 0.878387 0.078430
0.959991 0.878387 0.078430
1.000000 0.878387 0.078430
1.000000 0.878387 0.078430
1.000000 0.878387 0.078430
1.000000 0.878387 0.078430
1.000000 0.878387 0.078430
1.000000 0.878387 0.078430
0.000000 0.904663 0.078430
0.007996 0.904663 0.078430
0.016632 0.904663 0.078430
0.026489 0.904663 0.078430
0.038208 0.904663 0.078430
0.052368 0.904663 0.078430
0.069611 0.904663 0.078430
0.090515 0.904663 0.078430
0.115540 0.904663 0.078430
0.144470 0.904663 0.078430
0.177094 0.904663 0.078430
0.213226 0.904663 0.078430
0.252594 0.904663 0.078430
0.295013 0.904663 0.078430
0.340240 0.904663 0.078430
0.388092 0.904663 0.078430
0.438324 0.904663 0.078430
0.490662 0.904663 0.078430
0.544922 0.904663 0.078430
0.600891 0.904663 0.078430
0.658356 0.904663 0.078430
0.717041 0.904663 0.078430
0.776794 0.904663 0.078430
0.837341 0.904663 0.078430
0.898499 0.904663 0.078430
0.959991 0.904663 0.078430
1.000000 0.904663 0.078430
1.000000 0.904663 0.078430
1.000000 0.904663 0.078430
1.000000 0.904663 0.078430
1.000000 0.904663 0.078430
1.000000 0.904663 0.078430
0.000000 0.927704 0.078430
0.007996 0.927704 0.078430
0.016632 0.927704 0.078430
0.026489 0.927704 0.078430
0.038208 0.927704 0.078430
0.052368 0.927704 0.078430
0.069611 0.927704 0.078430
0.090515 0.927704 0.078430
0.115540 0.927704 0.078430
0.144470 0.927704 0.078430
0.177094 0.927704 0.078430
0.213226 0.927704 0.078430
0.252594 0.927704 0.078430
0.295013 0.927704 0.078430
0.340240 0.927704 0.078430
0.388092 0.927704 0.078430
