src/LUT/LUTs/FreeLUTs-CaioBraga/crossprocess-redish.CUBE
#Created by: Adobe Photoshop Export Color Lookup Plugin
#Copyright: (C) Copyright 2017 © Caio Braga
TITLE "Cassiano Crossprocess"
#LUT size
LUT_3D_SIZE 5
#data domain
#LUT data points
DOMAIN_MIN 0.000000 0.000000 0.000000
DOMAIN_MAX 0.903226 0.903226 0.903226
0.034698 0.023529 0.075623
0.263611 0.023529 0.075623
0.463806 0.023529 0.075623
0.673492 0.023529 0.075623
0.901794 0.023529 0.075623
0.034698 0.215698 0.075623
0.263611 0.215698 0.075623
0.463806 0.215698 0.075623
0.673492 0.215698 0.075623
0.901794 0.215698 0.075623
0.034698 0.447937 0.075623
0.263611 0.447937 0.075623
0.463806 0.447937 0.075623
0.673492 0.447937 0.075623
0.901794 0.447937 0.075623
0.034698 0.712738 0.075623
0.263611 0.712738 0.075623
0.463806 0.712738 0.075623
0.673492 0.712738 0.075623
0.901794 0.712738 0.075623
0.034698 0.923950 0.075623
0.263611 0.923950 0.075623
0.463806 0.923950 0.075623
0.673492 0.923950 0.075623
0.901794 0.923950 0.075623
0.034698 0.023529 0.255829
0.263611 0.023529 0.255829
0.463806 0.023529 0.255829
0.673492 0.023529 0.255829
0.901794 0.023529 0.255829
0.034698 0.215698 0.255829
0.263611 0.215698 0.255829
0.463806 0.215698 0.255829
0.673492 0.215698 0.255829
0.901794 0.215698 0.255829
0.034698 0.447937 0.255829
0.263611 0.447937 0.255829
0.463806 0.447937 0.255829
0.673492 0.447937 0.255829
0.901794 0.447937 0.255829
0.034698 0.712738 0.255829
0.263611 0.712738 0.255829
0.463806 0.712738 0.255829
0.673492 0.712738 0.255829
0.901794 0.712738 0.255829
0.034698 0.923950 0.255829
0.263611 0.923950 0.255829
0.463806 0.923950 0.255829
0.673492 0.923950 0.255829
0.901794 0.923950 0.255829
0.034698 0.023529 0.459290
0.263611 0.023529 0.459290
0.463806 0.023529 0.459290
0.673492 0.023529 0.459290
0.901794 0.023529 0.459290
0.034698 0.215698 0.459290
0.263611 0.215698 0.459290
0.463806 0.215698 0.459290
0.673492 0.215698 0.459290
0.901794 0.215698 0.459290
0.034698 0.447937 0.459290
0.263611 0.447937 0.459290
0.463806 0.447937 0.459290
0.673492 0.447937 0.459290
0.901794 0.447937 0.459290
0.034698 0.712738 0.459290
0.263611 0.712738 0.459290
0.463806 0.712738 0.459290
0.673492 0.712738 0.459290
0.901794 0.712738 0.459290
0.034698 0.923950 0.459290
0.263611 0.923950 0.459290
0.463806 0.923950 0.459290
0.673492 0.923950 0.459290
0.901794 0.923950 0.459290
0.034698 0.023529 0.667725
0.263611 0.023529 0.667725
0.463806 0.023529 0.667725
0.673492 0.023529 0.667725
0.901794 0.023529 0.667725
0.034698 0.215698 0.667725
0.263611 0.215698 0.667725
0.463806 0.215698 0.667725
0.673492 0.215698 0.667725
0.901794 0.215698 0.667725
0.034698 0.447937 0.667725
0.263611 0.447937 0.667725
0.463806 0.447937 0.667725
0.673492 0.447937 0.667725
0.901794 0.447937 0.667725
0.034698 0.712738 0.667725
0.263611 0.712738 0.667725
0.463806 0.712738 0.667725
0.673492 0.712738 0.667725
0.901794 0.712738 0.667725
0.034698 0.923950 0.667725
0.263611 0.923950 0.667725
0.463806 0.923950 0.667725
0.673492 0.923950 0.667725
0.901794 0.923950 0.667725
0.034698 0.023529 0.897156
0.263611 0.023529 0.897156
0.463806 0.023529 0.897156
0.673492 0.023529 0.897156
0.901794 0.023529 0.897156
0.034698 0.215698 0.897156
0.263611 0.215698 0.897156
0.463806 0.215698 0.897156
0.673492 0.215698 0.897156
0.901794 0.215698 0.897156
0.034698 0.447937 0.897156
0.263611 0.447937 0.897156
0.463806 0.447937 0.897156
0.673492 0.447937 0.897156
0.901794 0.447937 0.897156
0.034698 0.712738 0.897156
0.263611 0.712738 0.897156
0.463806 0.712738 0.897156
0.673492 0.712738 0.897156
0.901794 0.712738 0.897156
0.034698 0.923950 0.897156
0.263611 0.923950 0.897156
0.463806 0.923950 0.897156
0.673492 0.923950 0.897156
0.901794 0.923950 0.897156
