src/LUT/LUTs/FreeLUTs-CaioBraga/crossprocess-greenish.CUBE
#Created by: Adobe Photoshop Export Color Lookup Plugin
#Copyright: (C) Copyright 2017 © Caio Braga
TITLE "Green Crossprocess"
#LUT size
LUT_3D_SIZE 5
#data domain
#LUT data points
DOMAIN_MIN 0.000000 0.000000 0.000000
DOMAIN_MAX 0.903226 0.903226 0.903226
0.000000 0.000000 0.078430
0.090515 0.000000 0.078430
0.340240 0.000000 0.078430
0.717041 0.000000 0.078430
1.000000 0.000000 0.078430
0.000000 0.158691 0.078430
0.090515 0.158691 0.078430
0.340240 0.158691 0.078430
0.717041 0.158691 0.078430
1.000000 0.158691 0.078430
0.000000 0.434418 0.078430
0.090515 0.434418 0.078430
0.340240 0.434418 0.078430
0.717041 0.434418 0.078430
1.000000 0.434418 0.078430
0.000000 0.740845 0.078430
0.090515 0.740845 0.078430
0.340240 0.740845 0.078430
0.717041 0.740845 0.078430
1.000000 0.740845 0.078430
0.000000 0.948059 0.078430
0.090515 0.948059 0.078430
0.340240 0.948059 0.078430
0.717041 0.948059 0.078430
1.000000 0.948059 0.078430
0.000000 0.000000 0.268799
0.090515 0.000000 0.268799
0.340240 0.000000 0.268799
0.717041 0.000000 0.268799
1.000000 0.000000 0.268799
0.000000 0.158691 0.268799
0.090515 0.158691 0.268799
0.340240 0.158691 0.268799
0.717041 0.158691 0.268799
1.000000 0.158691 0.268799
0.000000 0.434418 0.268799
0.090515 0.434418 0.268799
0.340240 0.434418 0.268799
0.717041 0.434418 0.268799
1.000000 0.434418 0.268799
0.000000 0.740845 0.268799
0.090515 0.740845 0.268799
0.340240 0.740845 0.268799
0.717041 0.740845 0.268799
1.000000 0.740845 0.268799
0.000000 0.948059 0.268799
0.090515 0.948059 0.268799
0.340240 0.948059 0.268799
0.717041 0.948059 0.268799
1.000000 0.948059 0.268799
0.000000 0.000000 0.459198
0.090515 0.000000 0.459198
0.340240 0.000000 0.459198
0.717041 0.000000 0.459198
1.000000 0.000000 0.459198
0.000000 0.158691 0.459198
0.090515 0.158691 0.459198
0.340240 0.158691 0.459198
0.717041 0.158691 0.459198
1.000000 0.158691 0.459198
0.000000 0.434418 0.459198
0.090515 0.434418 0.459198
0.340240 0.434418 0.459198
0.717041 0.434418 0.459198
1.000000 0.434418 0.459198
0.000000 0.740845 0.459198
0.090515 0.740845 0.459198
0.340240 0.740845 0.459198
0.717041 0.740845 0.459198
1.000000 0.740845 0.459198
0.000000 0.948059 0.459198
0.090515 0.948059 0.459198
0.340240 0.948059 0.459198
0.717041 0.948059 0.459198
1.000000 0.948059 0.459198
0.000000 0.000000 0.649597
0.090515 0.000000 0.649597
0.340240 0.000000 0.649597
0.717041 0.000000 0.649597
1.000000 0.000000 0.649597
0.000000 0.158691 0.649597
0.090515 0.158691 0.649597
0.340240 0.158691 0.649597
0.717041 0.158691 0.649597
1.000000 0.158691 0.649597
0.000000 0.434418 0.649597
0.090515 0.434418 0.649597
0.340240 0.434418 0.649597
0.717041 0.434418 0.649597
1.000000 0.434418 0.649597
0.000000 0.740845 0.649597
0.090515 0.740845 0.649597
0.340240 0.740845 0.649597
0.717041 0.740845 0.649597
1.000000 0.740845 0.649597
0.000000 0.948059 0.649597
0.090515 0.948059 0.649597
0.340240 0.948059 0.649597
0.717041 0.948059 0.649597
1.000000 0.948059 0.649597
0.000000 0.000000 0.839966
0.090515 0.000000 0.839966
0.340240 0.000000 0.839966
0.717041 0.000000 0.839966
1.000000 0.000000 0.839966
0.000000 0.158691 0.839966
0.090515 0.158691 0.839966
0.340240 0.158691 0.839966
0.717041 0.158691 0.839966
1.000000 0.158691 0.839966
0.000000 0.434418 0.839966
0.090515 0.434418 0.839966
0.340240 0.434418 0.839966
0.717041 0.434418 0.839966
1.000000 0.434418 0.839966
0.000000 0.740845 0.839966
0.090515 0.740845 0.839966
0.340240 0.740845 0.839966
0.717041 0.740845 0.839966
1.000000 0.740845 0.839966
0.000000 0.948059 0.839966
0.090515 0.948059 0.839966
0.340240 0.948059 0.839966
0.717041 0.948059 0.839966
1.000000 0.948059 0.839966
