src/LUT/LUTs/FreeLUTs-CaioBraga/crossprocess-redish.CUBE
#Created by: Adobe Photoshop Export Color Lookup Plugin
#Copyright: (C) Copyright 2017 © Caio Braga
TITLE "Cassiano Crossprocess"
#LUT size
LUT_3D_SIZE 8
#data domain
#LUT data points
DOMAIN_MIN 0.000000 0.000000 0.000000
DOMAIN_MAX 0.903226 0.903226 0.903226
0.034698 0.023529 0.075623
0.168823 0.023529 0.075623
0.293488 0.023529 0.075623
0.407654 0.023529 0.075623
0.521118 0.023529 0.075623
0.641968 0.023529 0.075623
0.770447 0.023529 0.075623
0.901794 0.023529 0.075623
0.034698 0.130402 0.075623
0.168823 0.130402 0.075623
0.293488 0.130402 0.075623
0.407654 0.130402 0.075623
0.521118 0.130402 0.075623
0.641968 0.130402 0.075623
0.770447 0.130402 0.075623
0.901794 0.130402 0.075623
0.034698 0.245850 0.075623
0.168823 0.245850 0.075623
0.293488 0.245850 0.075623
0.407654 0.245850 0.075623
0.521118 0.245850 0.075623
0.641968 0.245850 0.075623
0.770447 0.245850 0.075623
0.901794 0.245850 0.075623
0.034698 0.376709 0.075623
0.168823 0.376709 0.075623
0.293488 0.376709 0.075623
0.407654 0.376709 0.075623
0.521118 0.376709 0.075623
0.641968 0.376709 0.075623
0.770447 0.376709 0.075623
0.901794 0.376709 0.075623
0.034698 0.522766 0.075623
0.168823 0.522766 0.075623
0.293488 0.522766 0.075623
0.407654 0.522766 0.075623
0.521118 0.522766 0.075623
0.641968 0.522766 0.075623
0.770447 0.522766 0.075623
0.901794 0.522766 0.075623
0.034698 0.676147 0.075623
0.168823 0.676147 0.075623
0.293488 0.676147 0.075623
0.407654 0.676147 0.075623
0.521118 0.676147 0.075623
0.641968 0.676147 0.075623
0.770447 0.676147 0.075623
0.901794 0.676147 0.075623
0.034698 0.812439 0.075623
0.168823 0.812439 0.075623
0.293488 0.812439 0.075623
0.407654 0.812439 0.075623
0.521118 0.812439 0.075623
0.641968 0.812439 0.075623
0.770447 0.812439 0.075623
0.901794 0.812439 0.075623
0.034698 0.923950 0.075623
0.168823 0.923950 0.075623
0.293488 0.923950 0.075623
0.407654 0.923950 0.075623
0.521118 0.923950 0.075623
0.641968 0.923950 0.075623
0.770447 0.923950 0.075623
0.901794 0.923950 0.075623
0.034698 0.023529 0.176392
0.168823 0.023529 0.176392
0.293488 0.023529 0.176392
0.407654 0.023529 0.176392
0.521118 0.023529 0.176392
0.641968 0.023529 0.176392
0.770447 0.023529 0.176392
0.901794 0.023529 0.176392
0.034698 0.130402 0.176392
0.168823 0.130402 0.176392
0.293488 0.130402 0.176392
0.407654 0.130402 0.176392
0.521118 0.130402 0.176392
0.641968 0.130402 0.176392
0.770447 0.130402 0.176392
0.901794 0.130402 0.176392
0.034698 0.245850 0.176392
0.168823 0.245850 0.176392
0.293488 0.245850 0.176392
0.407654 0.245850 0.176392
0.521118 0.245850 0.176392
0.641968 0.245850 0.176392
0.770447 0.245850 0.176392
0.901794 0.245850 0.176392
0.034698 0.376709 0.176392
0.168823 0.376709 0.176392
0.293488 0.376709 0.176392
0.407654 0.376709 0.176392
0.521118 0.376709 0.176392
0.641968 0.376709 0.176392
0.770447 0.376709 0.176392
0.901794 0.376709 0.176392
0.034698 0.522766 0.176392
0.168823 0.522766 0.176392
0.293488 0.522766 0.176392
0.407654 0.522766 0.176392
0.521118 0.522766 0.176392
0.641968 0.522766 0.176392
0.770447 0.522766 0.176392
0.901794 0.522766 0.176392
0.034698 0.676147 0.176392
0.168823 0.676147 0.176392
0.293488 0.676147 0.176392
0.407654 0.676147 0.176392
0.521118 0.676147 0.176392
0.641968 0.676147 0.176392
0.770447 0.676147 0.176392
0.901794 0.676147 0.176392
0.034698 0.812439 0.176392
0.168823 0.812439 0.176392
0.293488 0.812439 0.176392
0.407654 0.812439 0.176392
0.521118 0.812439 0.176392
0.641968 0.812439 0.176392
0.770447 0.812439 0.176392
0.901794 0.812439 0.176392
0.034698 0.923950 0.176392
0.168823 0.923950 0.176392
0.293488 0.923950 0.176392
0.407654 0.923950 0.176392
0.521118 0.923950 0.176392
0.641968 0.923950 0.176392
0.770447 0.923950 0.176392
0.901794 0.923950 0.176392
0.034698 0.023529 0.283508
0.168823 0.023529 0.283508
0.293488 0.023529 0.283508
0.407654 0.023529 0.283508
0.521118 0.023529 0.283508
0.641968 0.023529 0.283508
0.770447 0.023529 0.283508
0.901794 0.023529 0.283508
0.034698 0.130402 0.283508
0.168823 0.130402 0.283508
0.293488 0.130402 0.283508
0.407654 0.130402 0.283508
0.521118 0.130402 0.283508
0.641968 0.130402 0.283508
0.770447 0.130402 0.283508
0.901794 0.130402 0.283508
0.034698 0.245850 0.283508
0.168823 0.245850 0.283508
0.293488 0.245850 0.283508
0.407654 0.245850 0.283508
0.521118 0.245850 0.283508
0.641968 0.245850 0.283508
0.770447 0.245850 0.283508
0.901794 0.245850 0.283508
0.034698 0.376709 0.283508
0.168823 0.376709 0.283508
0.293488 0.376709 0.283508
0.407654 0.376709 0.283508
0.521118 0.376709 0.283508
0.641968 0.376709 0.283508
0.770447 0.376709 0.283508
0.901794 0.376709 0.283508
0.034698 0.522766 0.283508
0.168823 0.522766 0.283508
0.293488 0.522766 0.283508
0.407654 0.522766 0.283508
0.521118 0.522766 0.283508
0.641968 0.522766 0.283508
0.770447 0.522766 0.283508
0.901794 0.522766 0.283508
0.034698 0.676147 0.283508
0.168823 0.676147 0.283508
0.293488 0.676147 0.283508
0.407654 0.676147 0.283508
0.521118 0.676147 0.283508
0.641968 0.676147 0.283508
0.770447 0.676147 0.283508
0.901794 0.676147 0.283508
0.034698 0.812439 0.283508
0.168823 0.812439 0.283508
0.293488 0.812439 0.283508
0.407654 0.812439 0.283508
0.521118 0.812439 0.283508
0.641968 0.812439 0.283508
0.770447 0.812439 0.283508
0.901794 0.812439 0.283508
0.034698 0.923950 0.283508
0.168823 0.923950 0.283508
0.293488 0.923950 0.283508
0.407654 0.923950 0.283508
0.521118 0.923950 0.283508
0.641968 0.923950 0.283508
0.770447 0.923950 0.283508
0.901794 0.923950 0.283508
0.034698 0.023529 0.399536
0.168823 0.023529 0.399536
0.293488 0.023529 0.399536
0.407654 0.023529 0.399536
0.521118 0.023529 0.399536
0.641968 0.023529 0.399536
0.770447 0.023529 0.399536
0.901794 0.023529 0.399536
0.034698 0.130402 0.399536
0.168823 0.130402 0.399536
0.293488 0.130402 0.399536
0.407654 0.130402 0.399536
0.521118 0.130402 0.399536
0.641968 0.130402 0.399536
0.770447 0.130402 0.399536
0.901794 0.130402 0.399536
0.034698 0.245850 0.399536
0.168823 0.245850 0.399536
0.293488 0.245850 0.399536
0.407654 0.245850 0.399536
0.521118 0.245850 0.399536
0.641968 0.245850 0.399536
0.770447 0.245850 0.399536
0.901794 0.245850 0.399536
0.034698 0.376709 0.399536
0.168823 0.376709 0.399536
0.293488 0.376709 0.399536
0.407654 0.376709 0.399536
0.521118 0.376709 0.399536
0.641968 0.376709 0.399536
0.770447 0.376709 0.399536
0.901794 0.376709 0.399536
0.034698 0.522766 0.399536
0.168823 0.522766 0.399536
0.293488 0.522766 0.399536
0.407654 0.522766 0.399536
0.521118 0.522766 0.399536
0.641968 0.522766 0.399536
0.770447 0.522766 0.399536
0.901794 0.522766 0.399536
0.034698 0.676147 0.399536
0.168823 0.676147 0.399536
0.293488 0.676147 0.399536
0.407654 0.676147 0.399536
0.521118 0.676147 0.399536
0.641968 0.676147 0.399536
0.770447 0.676147 0.399536
0.901794 0.676147 0.399536
0.034698 0.812439 0.399536
0.168823 0.812439 0.399536
0.293488 0.812439 0.399536
0.407654 0.812439 0.399536
0.521118 0.812439 0.399536
0.641968 0.812439 0.399536
0.770447 0.812439 0.399536
0.901794 0.812439 0.399536
0.034698 0.923950 0.399536
0.168823 0.923950 0.399536
0.293488 0.923950 0.399536
0.407654 0.923950 0.399536
0.521118 0.923950 0.399536
0.641968 0.923950 0.399536
0.770447 0.923950 0.399536
0.901794 0.923950 0.399536
0.034698 0.023529 0.518951
0.168823 0.023529 0.518951
0.293488 0.023529 0.518951
0.407654 0.023529 0.518951
0.521118 0.023529 0.518951
0.641968 0.023529 0.518951
0.770447 0.023529 0.518951
0.901794 0.023529 0.518951
0.034698 0.130402 0.518951
0.168823 0.130402 0.518951
0.293488 0.130402 0.518951
0.407654 0.130402 0.518951
0.521118 0.130402 0.518951
0.641968 0.130402 0.518951
0.770447 0.130402 0.518951
0.901794 0.130402 0.518951
0.034698 0.245850 0.518951
0.168823 0.245850 0.518951
0.293488 0.245850 0.518951
0.407654 0.245850 0.518951
0.521118 0.245850 0.518951
0.641968 0.245850 0.518951
0.770447 0.245850 0.518951
0.901794 0.245850 0.518951
0.034698 0.376709 0.518951
0.168823 0.376709 0.518951
0.293488 0.376709 0.518951
0.407654 0.376709 0.518951
0.521118 0.376709 0.518951
0.641968 0.376709 0.518951
0.770447 0.376709 0.518951
0.901794 0.376709 0.518951
0.034698 0.522766 0.518951
0.168823 0.522766 0.518951
0.293488 0.522766 0.518951
0.407654 0.522766 0.518951
0.521118 0.522766 0.518951
0.641968 0.522766 0.518951
0.770447 0.522766 0.518951
0.901794 0.522766 0.518951
0.034698 0.676147 0.518951
0.168823 0.676147 0.518951
0.293488 0.676147 0.518951
0.407654 0.676147 0.518951
0.521118 0.676147 0.518951
0.641968 0.676147 0.518951
0.770447 0.676147 0.518951
0.901794 0.676147 0.518951
0.034698 0.812439 0.518951
0.168823 0.812439 0.518951
0.293488 0.812439 0.518951
0.407654 0.812439 0.518951
0.521118 0.812439 0.518951
0.641968 0.812439 0.518951
0.770447 0.812439 0.518951
0.901794 0.812439 0.518951
0.034698 0.923950 0.518951
0.168823 0.923950 0.518951
0.293488 0.923950 0.518951
0.407654 0.923950 0.518951
0.521118 0.923950 0.518951
0.641968 0.923950 0.518951
0.770447 0.923950 0.518951
0.901794 0.923950 0.518951
0.034698 0.023529 0.637421
0.168823 0.023529 0.637421
0.293488 0.023529 0.637421
0.407654 0.023529 0.637421
0.521118 0.023529 0.637421
0.641968 0.023529 0.637421
0.770447 0.023529 0.637421
0.901794 0.023529 0.637421
0.034698 0.130402 0.637421
0.168823 0.130402 0.637421
0.293488 0.130402 0.637421
0.407654 0.130402 0.637421
0.521118 0.130402 0.637421
0.641968 0.130402 0.637421
0.770447 0.130402 0.637421
0.901794 0.130402 0.637421
0.034698 0.245850 0.637421
0.168823 0.245850 0.637421
0.293488 0.245850 0.637421
0.407654 0.245850 0.637421
0.521118 0.245850 0.637421
0.641968 0.245850 0.637421
0.770447 0.245850 0.637421
0.901794 0.245850 0.637421
0.034698 0.376709 0.637421
0.168823 0.376709 0.637421
0.293488 0.376709 0.637421
0.407654 0.376709 0.637421
0.521118 0.376709 0.637421
0.641968 0.376709 0.637421
0.770447 0.376709 0.637421
0.901794 0.376709 0.637421
0.034698 0.522766 0.637421
0.168823 0.522766 0.637421
0.293488 0.522766 0.637421
0.407654 0.522766 0.637421
0.521118 0.522766 0.637421
0.641968 0.522766 0.637421
0.770447 0.522766 0.637421
0.901794 0.522766 0.637421
0.034698 0.676147 0.637421
0.168823 0.676147 0.637421
0.293488 0.676147 0.637421
0.407654 0.676147 0.637421
0.521118 0.676147 0.637421
0.641968 0.676147 0.637421
0.770447 0.676147 0.637421
0.901794 0.676147 0.637421
0.034698 0.812439 0.637421
0.168823 0.812439 0.637421
0.293488 0.812439 0.637421
0.407654 0.812439 0.637421
0.521118 0.812439 0.637421
0.641968 0.812439 0.637421
0.770447 0.812439 0.637421
0.901794 0.812439 0.637421
0.034698 0.923950 0.637421
0.168823 0.923950 0.637421
0.293488 0.923950 0.637421
0.407654 0.923950 0.637421
0.521118 0.923950 0.637421
0.641968 0.923950 0.637421
0.770447 0.923950 0.637421
0.901794 0.923950 0.637421
0.034698 0.023529 0.762482
0.168823 0.023529 0.762482
0.293488 0.023529 0.762482
0.407654 0.023529 0.762482
0.521118 0.023529 0.762482
0.641968 0.023529 0.762482
0.770447 0.023529 0.762482
0.901794 0.023529 0.762482
0.034698 0.130402 0.762482
0.168823 0.130402 0.762482
0.293488 0.130402 0.762482
0.407654 0.130402 0.762482
0.521118 0.130402 0.762482
0.641968 0.130402 0.762482
0.770447 0.130402 0.762482
0.901794 0.130402 0.762482
0.034698 0.245850 0.762482
0.168823 0.245850 0.762482
0.293488 0.245850 0.762482
0.407654 0.245850 0.762482
0.521118 0.245850 0.762482
0.641968 0.245850 0.762482
0.770447 0.245850 0.762482
0.901794 0.245850 0.762482
0.034698 0.376709 0.762482
0.168823 0.376709 0.762482
0.293488 0.376709 0.762482
0.407654 0.376709 0.762482
0.521118 0.376709 0.762482
0.641968 0.376709 0.762482
0.770447 0.376709 0.762482
0.901794 0.376709 0.762482
0.034698 0.522766 0.762482
0.168823 0.522766 0.762482
0.293488 0.522766 0.762482
0.407654 0.522766 0.762482
0.521118 0.522766 0.762482
0.641968 0.522766 0.762482
0.770447 0.522766 0.762482
0.901794 0.522766 0.762482
0.034698 0.676147 0.762482
0.168823 0.676147 0.762482
0.293488 0.676147 0.762482
0.407654 0.676147 0.762482
0.521118 0.676147 0.762482
0.641968 0.676147 0.762482
0.770447 0.676147 0.762482
0.901794 0.676147 0.762482
0.034698 0.812439 0.762482
0.168823 0.812439 0.762482
0.293488 0.812439 0.762482
0.407654 0.812439 0.762482
0.521118 0.812439 0.762482
0.641968 0.812439 0.762482
0.770447 0.812439 0.762482
0.901794 0.812439 0.762482
0.034698 0.923950 0.762482
0.168823 0.923950 0.762482
0.293488 0.923950 0.762482
0.407654 0.923950 0.762482
0.521118 0.923950 0.762482
0.641968 0.923950 0.762482
0.770447 0.923950 0.762482
0.901794 0.923950 0.762482
0.034698 0.023529 0.897156
0.168823 0.023529 0.897156
0.293488 0.023529 0.897156
0.407654 0.023529 0.897156
0.521118 0.023529 0.897156
0.641968 0.023529 0.897156
0.770447 0.023529 0.897156
0.901794 0.023529 0.897156
0.034698 0.130402 0.897156
0.168823 0.130402 0.897156
0.293488 0.130402 0.897156
0.407654 0.130402 0.897156
0.521118 0.130402 0.897156
0.641968 0.130402 0.897156
0.770447 0.130402 0.897156
0.901794 0.130402 0.897156
0.034698 0.245850 0.897156
0.168823 0.245850 0.897156
0.293488 0.245850 0.897156
0.407654 0.245850 0.897156
0.521118 0.245850 0.897156
0.641968 0.245850 0.897156
0.770447 0.245850 0.897156
0.901794 0.245850 0.897156
0.034698 0.376709 0.897156
0.168823 0.376709 0.897156
0.293488 0.376709 0.897156
0.407654 0.376709 0.897156
0.521118 0.376709 0.897156
0.641968 0.376709 0.897156
0.770447 0.376709 0.897156
0.901794 0.376709 0.897156
0.034698 0.522766 0.897156
0.168823 0.522766 0.897156
0.293488 0.522766 0.897156
0.407654 0.522766 0.897156
0.521118 0.522766 0.897156
0.641968 0.522766 0.897156
0.770447 0.522766 0.897156
0.901794 0.522766 0.897156
0.034698 0.676147 0.897156
0.168823 0.676147 0.897156
0.293488 0.676147 0.897156
0.407654 0.676147 0.897156
0.521118 0.676147 0.897156
0.641968 0.676147 0.897156
0.770447 0.676147 0.897156
0.901794 0.676147 0.897156
0.034698 0.812439 0.897156
0.168823 0.812439 0.897156
0.293488 0.812439 0.897156
0.407654 0.812439 0.897156
0.521118 0.812439 0.897156
0.641968 0.812439 0.897156
0.770447 0.812439 0.897156
0.901794 0.812439 0.897156
0.034698 0.923950 0.897156
0.168823 0.923950 0.897156
0.293488 0.923950 0.897156
0.407654 0.923950 0.897156
0.521118 0.923950 0.897156
0.641968 0.923950 0.897156
0.770447 0.923950 0.897156
0.901794 0.923950 0.897156
