src/LUT/LUTs/FreeLUTs-CaioBraga/crossprocess-redish.CUBE
#Created by: Adobe Photoshop Export Color Lookup Plugin
#Copyright: (C) Copyright 2017 © Caio Braga
TITLE "Cassiano Crossprocess"
#LUT size
LUT_3D_SIZE 32
#data domain
DOMAIN_MIN 0.0 0.0 0.0
DOMAIN_MAX 1.0 1.0 1.0
#LUT data points
0.034698 0.023529 0.075623
0.068604 0.023529 0.075623
0.102356 0.023529 0.075623
0.135834 0.023529 0.075623
0.168823 0.023529 0.075623
0.201202 0.023529 0.075623
0.232849 0.023529 0.075623
0.263611 0.023529 0.075623
0.293488 0.023529 0.075623
0.322693 0.023529 0.075623
0.351318 0.023529 0.075623
0.379578 0.023529 0.075623
0.407654 0.023529 0.075623
0.435669 0.023529 0.075623
0.463806 0.023529 0.075623
0.492218 0.023529 0.075623
0.521118 0.023529 0.075623
0.550537 0.023529 0.075623
0.580505 0.023529 0.075623
0.610962 0.023529 0.075623
0.641968 0.023529 0.075623
0.673492 0.023529 0.075623
0.705444 0.023529 0.075623
0.737793 0.023529 0.075623
0.770447 0.023529 0.075623
0.803253 0.023529 0.075623
0.836090 0.023529 0.075623
0.868958 0.023529 0.075623
0.901794 0.023529 0.075623
0.934570 0.023529 0.075623
0.967285 0.023529 0.075623
1.000000 0.023529 0.075623
0.034698 0.049927 0.075623
0.068604 0.049927 0.075623
0.102356 0.049927 0.075623
0.135834 0.049927 0.075623
0.168823 0.049927 0.075623
0.201202 0.049927 0.075623
0.232849 0.049927 0.075623
0.263611 0.049927 0.075623
0.293488 0.049927 0.075623
0.322693 0.049927 0.075623
0.351318 0.049927 0.075623
0.379578 0.049927 0.075623
0.407654 0.049927 0.075623
0.435669 0.049927 0.075623
0.463806 0.049927 0.075623
0.492218 0.049927 0.075623
0.521118 0.049927 0.075623
0.550537 0.049927 0.075623
0.580505 0.049927 0.075623
0.610962 0.049927 0.075623
0.641968 0.049927 0.075623
0.673492 0.049927 0.075623
0.705444 0.049927 0.075623
0.737793 0.049927 0.075623
0.770447 0.049927 0.075623
0.803253 0.049927 0.075623
0.836090 0.049927 0.075623
0.868958 0.049927 0.075623
0.901794 0.049927 0.075623
0.934570 0.049927 0.075623
0.967285 0.049927 0.075623
1.000000 0.049927 0.075623
0.034698 0.076416 0.075623
0.068604 0.076416 0.075623
0.102356 0.076416 0.075623
0.135834 0.076416 0.075623
0.168823 0.076416 0.075623
0.201202 0.076416 0.075623
0.232849 0.076416 0.075623
0.263611 0.076416 0.075623
0.293488 0.076416 0.075623
0.322693 0.076416 0.075623
0.351318 0.076416 0.075623
0.379578 0.076416 0.075623
0.407654 0.076416 0.075623
0.435669 0.076416 0.075623
0.463806 0.076416 0.075623
0.492218 0.076416 0.075623
0.521118 0.076416 0.075623
0.550537 0.076416 0.075623
0.580505 0.076416 0.075623
0.610962 0.076416 0.075623
0.641968 0.076416 0.075623
0.673492 0.076416 0.075623
0.705444 0.076416 0.075623
0.737793 0.076416 0.075623
0.770447 0.076416 0.075623
0.803253 0.076416 0.075623
0.836090 0.076416 0.075623
0.868958 0.076416 0.075623
0.901794 0.076416 0.075623
0.934570 0.076416 0.075623
0.967285 0.076416 0.075623
1.000000 0.076416 0.075623
0.034698 0.103210 0.075623
0.068604 0.103210 0.075623
0.102356 0.103210 0.075623
0.135834 0.103210 0.075623
0.168823 0.103210 0.075623
0.201202 0.103210 0.075623
0.232849 0.103210 0.075623
0.263611 0.103210 0.075623
0.293488 0.103210 0.075623
0.322693 0.103210 0.075623
0.351318 0.103210 0.075623
0.379578 0.103210 0.075623
0.407654 0.103210 0.075623
0.435669 0.103210 0.075623
0.463806 0.103210 0.075623
0.492218 0.103210 0.075623
0.521118 0.103210 0.075623
0.550537 0.103210 0.075623
0.580505 0.103210 0.075623
0.610962 0.103210 0.075623
0.641968 0.103210 0.075623
0.673492 0.103210 0.075623
0.705444 0.103210 0.075623
0.737793 0.103210 0.075623
0.770447 0.103210 0.075623
0.803253 0.103210 0.075623
0.836090 0.103210 0.075623
0.868958 0.103210 0.075623
0.901794 0.103210 0.075623
0.934570 0.103210 0.075623
0.967285 0.103210 0.075623
1.000000 0.103210 0.075623
0.034698 0.130402 0.075623
0.068604 0.130402 0.075623
0.102356 0.130402 0.075623
0.135834 0.130402 0.075623
0.168823 0.130402 0.075623
0.201202 0.130402 0.075623
0.232849 0.130402 0.075623
0.263611 0.130402 0.075623
0.293488 0.130402 0.075623
0.322693 0.130402 0.075623
0.351318 0.130402 0.075623
0.379578 0.130402 0.075623
0.407654 0.130402 0.075623
0.435669 0.130402 0.075623
0.463806 0.130402 0.075623
0.492218 0.130402 0.075623
0.521118 0.130402 0.075623
0.550537 0.130402 0.075623
0.580505 0.130402 0.075623
0.610962 0.130402 0.075623
0.641968 0.130402 0.075623
0.673492 0.130402 0.075623
0.705444 0.130402 0.075623
0.737793 0.130402 0.075623
0.770447 0.130402 0.075623
0.803253 0.130402 0.075623
0.836090 0.130402 0.075623
0.868958 0.130402 0.075623
0.901794 0.130402 0.075623
0.934570 0.130402 0.075623
0.967285 0.130402 0.075623
1.000000 0.130402 0.075623
0.034698 0.158112 0.075623
0.068604 0.158112 0.075623
0.102356 0.158112 0.075623
0.135834 0.158112 0.075623
0.168823 0.158112 0.075623
0.201202 0.158112 0.075623
0.232849 0.158112 0.075623
0.263611 0.158112 0.075623
0.293488 0.158112 0.075623
0.322693 0.158112 0.075623
0.351318 0.158112 0.075623
0.379578 0.158112 0.075623
0.407654 0.158112 0.075623
0.435669 0.158112 0.075623
0.463806 0.158112 0.075623
0.492218 0.158112 0.075623
0.521118 0.158112 0.075623
0.550537 0.158112 0.075623
0.580505 0.158112 0.075623
0.610962 0.158112 0.075623
0.641968 0.158112 0.075623
0.673492 0.158112 0.075623
0.705444 0.158112 0.075623
0.737793 0.158112 0.075623
0.770447 0.158112 0.075623
0.803253 0.158112 0.075623
0.836090 0.158112 0.075623
0.868958 0.158112 0.075623
0.901794 0.158112 0.075623
0.934570 0.158112 0.075623
0.967285 0.158112 0.075623
1.000000 0.158112 0.075623
0.034698 0.186493 0.075623
0.068604 0.186493 0.075623
0.102356 0.186493 0.075623
0.135834 0.186493 0.075623
0.168823 0.186493 0.075623
0.201202 0.186493 0.075623
0.232849 0.186493 0.075623
0.263611 0.186493 0.075623
0.293488 0.186493 0.075623
0.322693 0.186493 0.075623
0.351318 0.186493 0.075623
0.379578 0.186493 0.075623
0.407654 0.186493 0.075623
0.435669 0.186493 0.075623
0.463806 0.186493 0.075623
0.492218 0.186493 0.075623
0.521118 0.186493 0.075623
0.550537 0.186493 0.075623
0.580505 0.186493 0.075623
0.610962 0.186493 0.075623
0.641968 0.186493 0.075623
0.673492 0.186493 0.075623
0.705444 0.186493 0.075623
0.737793 0.186493 0.075623
0.770447 0.186493 0.075623
0.803253 0.186493 0.075623
0.836090 0.186493 0.075623
0.868958 0.186493 0.075623
0.901794 0.186493 0.075623
0.934570 0.186493 0.075623
0.967285 0.186493 0.075623
1.000000 0.186493 0.075623
0.034698 0.215698 0.075623
0.068604 0.215698 0.075623
0.102356 0.215698 0.075623
0.135834 0.215698 0.075623
0.168823 0.215698 0.075623
0.201202 0.215698 0.075623
0.232849 0.215698 0.075623
0.263611 0.215698 0.075623
0.293488 0.215698 0.075623
0.322693 0.215698 0.075623
0.351318 0.215698 0.075623
0.379578 0.215698 0.075623
0.407654 0.215698 0.075623
0.435669 0.215698 0.075623
0.463806 0.215698 0.075623
0.492218 0.215698 0.075623
0.521118 0.215698 0.075623
0.550537 0.215698 0.075623
0.580505 0.215698 0.075623
0.610962 0.215698 0.075623
0.641968 0.215698 0.075623
0.673492 0.215698 0.075623
0.705444 0.215698 0.075623
0.737793 0.215698 0.075623
0.770447 0.215698 0.075623
0.803253 0.215698 0.075623
0.836090 0.215698 0.075623
0.868958 0.215698 0.075623
0.901794 0.215698 0.075623
0.934570 0.215698 0.075623
0.967285 0.215698 0.075623
1.000000 0.215698 0.075623
0.034698 0.245850 0.075623
0.068604 0.245850 0.075623
0.102356 0.245850 0.075623
0.135834 0.245850 0.075623
0.168823 0.245850 0.075623
0.201202 0.245850 0.075623
0.232849 0.245850 0.075623
0.263611 0.245850 0.075623
0.293488 0.245850 0.075623
0.322693 0.245850 0.075623
0.351318 0.245850 0.075623
0.379578 0.245850 0.075623
0.407654 0.245850 0.075623
0.435669 0.245850 0.075623
0.463806 0.245850 0.075623
0.492218 0.245850 0.075623
0.521118 0.245850 0.075623
0.550537 0.245850 0.075623
0.580505 0.245850 0.075623
0.610962 0.245850 0.075623
0.641968 0.245850 0.075623
0.673492 0.245850 0.075623
0.705444 0.245850 0.075623
0.737793 0.245850 0.075623
0.770447 0.245850 0.075623
0.803253 0.245850 0.075623
0.836090 0.245850 0.075623
0.868958 0.245850 0.075623
0.901794 0.245850 0.075623
0.934570 0.245850 0.075623
0.967285 0.245850 0.075623
1.000000 0.245850 0.075623
0.034698 0.277039 0.075623
0.068604 0.277039 0.075623
0.102356 0.277039 0.075623
0.135834 0.277039 0.075623
0.168823 0.277039 0.075623
0.201202 0.277039 0.075623
0.232849 0.277039 0.075623
0.263611 0.277039 0.075623
0.293488 0.277039 0.075623
0.322693 0.277039 0.075623
0.351318 0.277039 0.075623
0.379578 0.277039 0.075623
0.407654 0.277039 0.075623
0.435669 0.277039 0.075623
0.463806 0.277039 0.075623
0.492218 0.277039 0.075623
0.521118 0.277039 0.075623
0.550537 0.277039 0.075623
0.580505 0.277039 0.075623
0.610962 0.277039 0.075623
0.641968 0.277039 0.075623
0.673492 0.277039 0.075623
0.705444 0.277039 0.075623
0.737793 0.277039 0.075623
0.770447 0.277039 0.075623
0.803253 0.277039 0.075623
0.836090 0.277039 0.075623
0.868958 0.277039 0.075623
0.901794 0.277039 0.075623
0.934570 0.277039 0.075623
0.967285 0.277039 0.075623
1.000000 0.277039 0.075623
0.034698 0.309265 0.075623
0.068604 0.309265 0.075623
0.102356 0.309265 0.075623
0.135834 0.309265 0.075623
0.168823 0.309265 0.075623
0.201202 0.309265 0.075623
0.232849 0.309265 0.075623
0.263611 0.309265 0.075623
0.293488 0.309265 0.075623
0.322693 0.309265 0.075623
0.351318 0.309265 0.075623
0.379578 0.309265 0.075623
0.407654 0.309265 0.075623
0.435669 0.309265 0.075623
0.463806 0.309265 0.075623
0.492218 0.309265 0.075623
0.521118 0.309265 0.075623
0.550537 0.309265 0.075623
0.580505 0.309265 0.075623
0.610962 0.309265 0.075623
0.641968 0.309265 0.075623
0.673492 0.309265 0.075623
0.705444 0.309265 0.075623
0.737793 0.309265 0.075623
0.770447 0.309265 0.075623
0.803253 0.309265 0.075623
0.836090 0.309265 0.075623
0.868958 0.309265 0.075623
0.901794 0.309265 0.075623
0.934570 0.309265 0.075623
0.967285 0.309265 0.075623
1.000000 0.309265 0.075623
0.034698 0.342499 0.075623
0.068604 0.342499 0.075623
0.102356 0.342499 0.075623
0.135834 0.342499 0.075623
0.168823 0.342499 0.075623
0.201202 0.342499 0.075623
0.232849 0.342499 0.075623
0.263611 0.342499 0.075623
0.293488 0.342499 0.075623
0.322693 0.342499 0.075623
0.351318 0.342499 0.075623
0.379578 0.342499 0.075623
0.407654 0.342499 0.075623
0.435669 0.342499 0.075623
0.463806 0.342499 0.075623
0.492218 0.342499 0.075623
0.521118 0.342499 0.075623
0.550537 0.342499 0.075623
0.580505 0.342499 0.075623
0.610962 0.342499 0.075623
0.641968 0.342499 0.075623
0.673492 0.342499 0.075623
0.705444 0.342499 0.075623
0.737793 0.342499 0.075623
0.770447 0.342499 0.075623
0.803253 0.342499 0.075623
0.836090 0.342499 0.075623
0.868958 0.342499 0.075623
0.901794 0.342499 0.075623
0.934570 0.342499 0.075623
0.967285 0.342499 0.075623
1.000000 0.342499 0.075623
0.034698 0.376709 0.075623
0.068604 0.376709 0.075623
0.102356 0.376709 0.075623
0.135834 0.376709 0.075623
0.168823 0.376709 0.075623
0.201202 0.376709 0.075623
0.232849 0.376709 0.075623
0.263611 0.376709 0.075623
0.293488 0.376709 0.075623
0.322693 0.376709 0.075623
0.351318 0.376709 0.075623
0.379578 0.376709 0.075623
0.407654 0.376709 0.075623
0.435669 0.376709 0.075623
0.463806 0.376709 0.075623
0.492218 0.376709 0.075623
0.521118 0.376709 0.075623
0.550537 0.376709 0.075623
0.580505 0.376709 0.075623
0.610962 0.376709 0.075623
0.641968 0.376709 0.075623
0.673492 0.376709 0.075623
0.705444 0.376709 0.075623
0.737793 0.376709 0.075623
0.770447 0.376709 0.075623
0.803253 0.376709 0.075623
0.836090 0.376709 0.075623
0.868958 0.376709 0.075623
0.901794 0.376709 0.075623
0.934570 0.376709 0.075623
0.967285 0.376709 0.075623
1.000000 0.376709 0.075623
0.034698 0.411865 0.075623
0.068604 0.411865 0.075623
0.102356 0.411865 0.075623
0.135834 0.411865 0.075623
0.168823 0.411865 0.075623
0.201202 0.411865 0.075623
0.232849 0.411865 0.075623
0.263611 0.411865 0.075623
0.293488 0.411865 0.075623
0.322693 0.411865 0.075623
0.351318 0.411865 0.075623
0.379578 0.411865 0.075623
0.407654 0.411865 0.075623
0.435669 0.411865 0.075623
0.463806 0.411865 0.075623
0.492218 0.411865 0.075623
0.521118 0.411865 0.075623
0.550537 0.411865 0.075623
0.580505 0.411865 0.075623
0.610962 0.411865 0.075623
0.641968 0.411865 0.075623
0.673492 0.411865 0.075623
0.705444 0.411865 0.075623
0.737793 0.411865 0.075623
0.770447 0.411865 0.075623
0.803253 0.411865 0.075623
0.836090 0.411865 0.075623
0.868958 0.411865 0.075623
0.901794 0.411865 0.075623
0.934570 0.411865 0.075623
0.967285 0.411865 0.075623
1.000000 0.411865 0.075623
0.034698 0.447937 0.075623
0.068604 0.447937 0.075623
0.102356 0.447937 0.075623
0.135834 0.447937 0.075623
0.168823 0.447937 0.075623
0.201202 0.447937 0.075623
0.232849 0.447937 0.075623
0.263611 0.447937 0.075623
0.293488 0.447937 0.075623
0.322693 0.447937 0.075623
0.351318 0.447937 0.075623
0.379578 0.447937 0.075623
0.407654 0.447937 0.075623
0.435669 0.447937 0.075623
0.463806 0.447937 0.075623
0.492218 0.447937 0.075623
0.521118 0.447937 0.075623
0.550537 0.447937 0.075623
0.580505 0.447937 0.075623
0.610962 0.447937 0.075623
0.641968 0.447937 0.075623
0.673492 0.447937 0.075623
0.705444 0.447937 0.075623
0.737793 0.447937 0.075623
0.770447 0.447937 0.075623
0.803253 0.447937 0.075623
0.836090 0.447937 0.075623
0.868958 0.447937 0.075623
0.901794 0.447937 0.075623
0.934570 0.447937 0.075623
0.967285 0.447937 0.075623
1.000000 0.447937 0.075623
0.034698 0.484894 0.075623
0.068604 0.484894 0.075623
0.102356 0.484894 0.075623
0.135834 0.484894 0.075623
0.168823 0.484894 0.075623
0.201202 0.484894 0.075623
0.232849 0.484894 0.075623
0.263611 0.484894 0.075623
0.293488 0.484894 0.075623
0.322693 0.484894 0.075623
0.351318 0.484894 0.075623
0.379578 0.484894 0.075623
0.407654 0.484894 0.075623
0.435669 0.484894 0.075623
0.463806 0.484894 0.075623
0.492218 0.484894 0.075623
0.521118 0.484894 0.075623
0.550537 0.484894 0.075623
0.580505 0.484894 0.075623
0.610962 0.484894 0.075623
0.641968 0.484894 0.075623
0.673492 0.484894 0.075623
0.705444 0.484894 0.075623
0.737793 0.484894 0.075623
0.770447 0.484894 0.075623
0.803253 0.484894 0.075623
0.836090 0.484894 0.075623
0.868958 0.484894 0.075623
0.901794 0.484894 0.075623
0.934570 0.484894 0.075623
0.967285 0.484894 0.075623
1.000000 0.484894 0.075623
0.034698 0.522766 0.075623
0.068604 0.522766 0.075623
0.102356 0.522766 0.075623
0.135834 0.522766 0.075623
0.168823 0.522766 0.075623
0.201202 0.522766 0.075623
0.232849 0.522766 0.075623
0.263611 0.522766 0.075623
0.293488 0.522766 0.075623
0.322693 0.522766 0.075623
0.351318 0.522766 0.075623
0.379578 0.522766 0.075623
0.407654 0.522766 0.075623
0.435669 0.522766 0.075623
0.463806 0.522766 0.075623
0.492218 0.522766 0.075623
0.521118 0.522766 0.075623
0.550537 0.522766 0.075623
0.580505 0.522766 0.075623
0.610962 0.522766 0.075623
0.641968 0.522766 0.075623
0.673492 0.522766 0.075623
0.705444 0.522766 0.075623
0.737793 0.522766 0.075623
0.770447 0.522766 0.075623
0.803253 0.522766 0.075623
0.836090 0.522766 0.075623
0.868958 0.522766 0.075623
0.901794 0.522766 0.075623
0.934570 0.522766 0.075623
0.967285 0.522766 0.075623
1.000000 0.522766 0.075623
0.034698 0.561279 0.075623
0.068604 0.561279 0.075623
0.102356 0.561279 0.075623
0.135834 0.561279 0.075623
0.168823 0.561279 0.075623
0.201202 0.561279 0.075623
0.232849 0.561279 0.075623
0.263611 0.561279 0.075623
0.293488 0.561279 0.075623
0.322693 0.561279 0.075623
0.351318 0.561279 0.075623
0.379578 0.561279 0.075623
0.407654 0.561279 0.075623
0.435669 0.561279 0.075623
0.463806 0.561279 0.075623
0.492218 0.561279 0.075623
0.521118 0.561279 0.075623
0.550537 0.561279 0.075623
0.580505 0.561279 0.075623
0.610962 0.561279 0.075623
0.641968 0.561279 0.075623
0.673492 0.561279 0.075623
0.705444 0.561279 0.075623
0.737793 0.561279 0.075623
0.770447 0.561279 0.075623
0.803253 0.561279 0.075623
0.836090 0.561279 0.075623
0.868958 0.561279 0.075623
0.901794 0.561279 0.075623
0.934570 0.561279 0.075623
0.967285 0.561279 0.075623
1.000000 0.561279 0.075623
0.034698 0.599976 0.075623
0.068604 0.599976 0.075623
0.102356 0.599976 0.075623
0.135834 0.599976 0.075623
0.168823 0.599976 0.075623
0.201202 0.599976 0.075623
0.232849 0.599976 0.075623
0.263611 0.599976 0.075623
0.293488 0.599976 0.075623
0.322693 0.599976 0.075623
0.351318 0.599976 0.075623
0.379578 0.599976 0.075623
0.407654 0.599976 0.075623
0.435669 0.599976 0.075623
0.463806 0.599976 0.075623
0.492218 0.599976 0.075623
0.521118 0.599976 0.075623
0.550537 0.599976 0.075623
0.580505 0.599976 0.075623
0.610962 0.599976 0.075623
0.641968 0.599976 0.075623
0.673492 0.599976 0.075623
0.705444 0.599976 0.075623
0.737793 0.599976 0.075623
0.770447 0.599976 0.075623
0.803253 0.599976 0.075623
0.836090 0.599976 0.075623
0.868958 0.599976 0.075623
0.901794 0.599976 0.075623
0.934570 0.599976 0.075623
0.967285 0.599976 0.075623
1.000000 0.599976 0.075623
0.034698 0.638428 0.075623
0.068604 0.638428 0.075623
0.102356 0.638428 0.075623
0.135834 0.638428 0.075623
0.168823 0.638428 0.075623
0.201202 0.638428 0.075623
0.232849 0.638428 0.075623
0.263611 0.638428 0.075623
0.293488 0.638428 0.075623
0.322693 0.638428 0.075623
0.351318 0.638428 0.075623
0.379578 0.638428 0.075623
0.407654 0.638428 0.075623
0.435669 0.638428 0.075623
0.463806 0.638428 0.075623
0.492218 0.638428 0.075623
0.521118 0.638428 0.075623
0.550537 0.638428 0.075623
0.580505 0.638428 0.075623
0.610962 0.638428 0.075623
0.641968 0.638428 0.075623
0.673492 0.638428 0.075623
0.705444 0.638428 0.075623
0.737793 0.638428 0.075623
0.770447 0.638428 0.075623
0.803253 0.638428 0.075623
0.836090 0.638428 0.075623
0.868958 0.638428 0.075623
0.901794 0.638428 0.075623
0.934570 0.638428 0.075623
0.967285 0.638428 0.075623
1.000000 0.638428 0.075623
0.034698 0.676147 0.075623
0.068604 0.676147 0.075623
0.102356 0.676147 0.075623
0.135834 0.676147 0.075623
0.168823 0.676147 0.075623
0.201202 0.676147 0.075623
0.232849 0.676147 0.075623
0.263611 0.676147 0.075623
0.293488 0.676147 0.075623
0.322693 0.676147 0.075623
0.351318 0.676147 0.075623
0.379578 0.676147 0.075623
0.407654 0.676147 0.075623
0.435669 0.676147 0.075623
0.463806 0.676147 0.075623
0.492218 0.676147 0.075623
0.521118 0.676147 0.075623
0.550537 0.676147 0.075623
0.580505 0.676147 0.075623
0.610962 0.676147 0.075623
0.641968 0.676147 0.075623
0.673492 0.676147 0.075623
0.705444 0.676147 0.075623
0.737793 0.676147 0.075623
0.770447 0.676147 0.075623
0.803253 0.676147 0.075623
0.836090 0.676147 0.075623
0.868958 0.676147 0.075623
0.901794 0.676147 0.075623
0.934570 0.676147 0.075623
0.967285 0.676147 0.075623
1.000000 0.676147 0.075623
0.034698 0.712738 0.075623
0.068604 0.712738 0.075623
0.102356 0.712738 0.075623
0.135834 0.712738 0.075623
0.168823 0.712738 0.075623
0.201202 0.712738 0.075623
0.232849 0.712738 0.075623
0.263611 0.712738 0.075623
0.293488 0.712738 0.075623
0.322693 0.712738 0.075623
0.351318 0.712738 0.075623
0.379578 0.712738 0.075623
0.407654 0.712738 0.075623
0.435669 0.712738 0.075623
0.463806 0.712738 0.075623
0.492218 0.712738 0.075623
0.521118 0.712738 0.075623
0.550537 0.712738 0.075623
0.580505 0.712738 0.075623
0.610962 0.712738 0.075623
0.641968 0.712738 0.075623
0.673492 0.712738 0.075623
0.705444 0.712738 0.075623
0.737793 0.712738 0.075623
0.770447 0.712738 0.075623
0.803253 0.712738 0.075623
0.836090 0.712738 0.075623
0.868958 0.712738 0.075623
0.901794 0.712738 0.075623
0.934570 0.712738 0.075623
0.967285 0.712738 0.075623
1.000000 0.712738 0.075623
0.034698 0.747833 0.075623
0.068604 0.747833 0.075623
0.102356 0.747833 0.075623
0.135834 0.747833 0.075623
0.168823 0.747833 0.075623
0.201202 0.747833 0.075623
0.232849 0.747833 0.075623
0.263611 0.747833 0.075623
0.293488 0.747833 0.075623
0.322693 0.747833 0.075623
0.351318 0.747833 0.075623
0.379578 0.747833 0.075623
0.407654 0.747833 0.075623
0.435669 0.747833 0.075623
0.463806 0.747833 0.075623
0.492218 0.747833 0.075623
0.521118 0.747833 0.075623
0.550537 0.747833 0.075623
0.580505 0.747833 0.075623
0.610962 0.747833 0.075623
0.641968 0.747833 0.075623
0.673492 0.747833 0.075623
0.705444 0.747833 0.075623
0.737793 0.747833 0.075623
0.770447 0.747833 0.075623
0.803253 0.747833 0.075623
0.836090 0.747833 0.075623
0.868958 0.747833 0.075623
0.901794 0.747833 0.075623
0.934570 0.747833 0.075623
0.967285 0.747833 0.075623
1.000000 0.747833 0.075623
0.034698 0.781097 0.075623
0.068604 0.781097 0.075623
0.102356 0.781097 0.075623
0.135834 0.781097 0.075623
0.168823 0.781097 0.075623
0.201202 0.781097 0.075623
0.232849 0.781097 0.075623
0.263611 0.781097 0.075623
0.293488 0.781097 0.075623
0.322693 0.781097 0.075623
0.351318 0.781097 0.075623
0.379578 0.781097 0.075623
0.407654 0.781097 0.075623
0.435669 0.781097 0.075623
0.463806 0.781097 0.075623
0.492218 0.781097 0.075623
0.521118 0.781097 0.075623
0.550537 0.781097 0.075623
0.580505 0.781097 0.075623
0.610962 0.781097 0.075623
0.641968 0.781097 0.075623
0.673492 0.781097 0.075623
0.705444 0.781097 0.075623
0.737793 0.781097 0.075623
0.770447 0.781097 0.075623
0.803253 0.781097 0.075623
0.836090 0.781097 0.075623
0.868958 0.781097 0.075623
0.901794 0.781097 0.075623
0.934570 0.781097 0.075623
0.967285 0.781097 0.075623
1.000000 0.781097 0.075623
0.034698 0.812439 0.075623
0.068604 0.812439 0.075623
0.102356 0.812439 0.075623
0.135834 0.812439 0.075623
0.168823 0.812439 0.075623
0.201202 0.812439 0.075623
0.232849 0.812439 0.075623
0.263611 0.812439 0.075623
0.293488 0.812439 0.075623
0.322693 0.812439 0.075623
0.351318 0.812439 0.075623
0.379578 0.812439 0.075623
0.407654 0.812439 0.075623
0.435669 0.812439 0.075623
0.463806 0.812439 0.075623
0.492218 0.812439 0.075623
0.521118 0.812439 0.075623
0.550537 0.812439 0.075623
0.580505 0.812439 0.075623
0.610962 0.812439 0.075623
0.641968 0.812439 0.075623
0.673492 0.812439 0.075623
0.705444 0.812439 0.075623
0.737793 0.812439 0.075623
0.770447 0.812439 0.075623
0.803253 0.812439 0.075623
0.836090 0.812439 0.075623
0.868958 0.812439 0.075623
0.901794 0.812439 0.075623
0.934570 0.812439 0.075623
0.967285 0.812439 0.075623
1.000000 0.812439 0.075623
0.034698 0.842133 0.075623
0.068604 0.842133 0.075623
0.102356 0.842133 0.075623
0.135834 0.842133 0.075623
0.168823 0.842133 0.075623
0.201202 0.842133 0.075623
0.232849 0.842133 0.075623
0.263611 0.842133 0.075623
0.293488 0.842133 0.075623
0.322693 0.842133 0.075623
0.351318 0.842133 0.075623
0.379578 0.842133 0.075623
0.407654 0.842133 0.075623
0.435669 0.842133 0.075623
0.463806 0.842133 0.075623
0.492218 0.842133 0.075623
0.521118 0.842133 0.075623
0.550537 0.842133 0.075623
0.580505 0.842133 0.075623
0.610962 0.842133 0.075623
0.641968 0.842133 0.075623
0.673492 0.842133 0.075623
0.705444 0.842133 0.075623
0.737793 0.842133 0.075623
0.770447 0.842133 0.075623
0.803253 0.842133 0.075623
0.836090 0.842133 0.075623
0.868958 0.842133 0.075623
0.901794 0.842133 0.075623
0.934570 0.842133 0.075623
0.967285 0.842133 0.075623
1.000000 0.842133 0.075623
0.034698 0.870422 0.075623
0.068604 0.870422 0.075623
0.102356 0.870422 0.075623
0.135834 0.870422 0.075623
0.168823 0.870422 0.075623
0.201202 0.870422 0.075623
0.232849 0.870422 0.075623
0.263611 0.870422 0.075623
0.293488 0.870422 0.075623
0.322693 0.870422 0.075623
0.351318 0.870422 0.075623
0.379578 0.870422 0.075623
0.407654 0.870422 0.075623
0.435669 0.870422 0.075623
0.463806 0.870422 0.075623
0.492218 0.870422 0.075623
0.521118 0.870422 0.075623
0.550537 0.870422 0.075623
0.580505 0.870422 0.075623
0.610962 0.870422 0.075623
0.641968 0.870422 0.075623
0.673492 0.870422 0.075623
0.705444 0.870422 0.075623
0.737793 0.870422 0.075623
0.770447 0.870422 0.075623
0.803253 0.870422 0.075623
0.836090 0.870422 0.075623
0.868958 0.870422 0.075623
0.901794 0.870422 0.075623
0.934570 0.870422 0.075623
0.967285 0.870422 0.075623
1.000000 0.870422 0.075623
0.034698 0.897614 0.075623
0.068604 0.897614 0.075623
0.102356 0.897614 0.075623
0.135834 0.897614 0.075623
0.168823 0.897614 0.075623
0.201202 0.897614 0.075623
0.232849 0.897614 0.075623
0.263611 0.897614 0.075623
0.293488 0.897614 0.075623
0.322693 0.897614 0.075623
0.351318 0.897614 0.075623
0.379578 0.897614 0.075623
0.407654 0.897614 0.075623
0.435669 0.897614 0.075623
0.463806 0.897614 0.075623
0.492218 0.897614 0.075623
