src/LUT/LUTs/FreeLUTs-CaioBraga/crossprocess-greenish.CUBE
#Created by: Adobe Photoshop Export Color Lookup Plugin
#Copyright: (C) Copyright 2017 © Caio Braga
TITLE "Green Crossprocess"
#LUT size
LUT_3D_SIZE 8
#data domain
#LUT data points
DOMAIN_MIN 0.000000 0.000000 0.000000
DOMAIN_MAX 0.903226 0.903226 0.903226
0.000000 0.000000 0.078430
0.038208 0.000000 0.078430
0.115540 0.000000 0.078430
0.252594 0.000000 0.078430
0.438324 0.000000 0.078430
0.658356 0.000000 0.078430
0.898499 0.000000 0.078430
1.000000 0.000000 0.078430
0.000000 0.079651 0.078430
0.038208 0.079651 0.078430
0.115540 0.079651 0.078430
0.252594 0.079651 0.078430
0.438324 0.079651 0.078430
0.658356 0.079651 0.078430
0.898499 0.079651 0.078430
1.000000 0.079651 0.078430
0.000000 0.191162 0.078430
0.038208 0.191162 0.078430
0.115540 0.191162 0.078430
0.252594 0.191162 0.078430
0.438324 0.191162 0.078430
0.658356 0.191162 0.078430
0.898499 0.191162 0.078430
1.000000 0.191162 0.078430
0.000000 0.346710 0.078430
0.038208 0.346710 0.078430
0.115540 0.346710 0.078430
0.252594 0.346710 0.078430
0.438324 0.346710 0.078430
0.658356 0.346710 0.078430
0.898499 0.346710 0.078430
1.000000 0.346710 0.078430
0.000000 0.524689 0.078430
0.038208 0.524689 0.078430
0.115540 0.524689 0.078430
0.252594 0.524689 0.078430
0.438324 0.524689 0.078430
0.658356 0.524689 0.078430
0.898499 0.524689 0.078430
1.000000 0.524689 0.078430
0.000000 0.700226 0.078430
0.038208 0.700226 0.078430
0.115540 0.700226 0.078430
0.252594 0.700226 0.078430
0.438324 0.700226 0.078430
0.658356 0.700226 0.078430
0.898499 0.700226 0.078430
1.000000 0.700226 0.078430
0.000000 0.848480 0.078430
0.038208 0.848480 0.078430
0.115540 0.848480 0.078430
0.252594 0.848480 0.078430
0.438324 0.848480 0.078430
0.658356 0.848480 0.078430
0.898499 0.848480 0.078430
1.000000 0.848480 0.078430
0.000000 0.948059 0.078430
0.038208 0.948059 0.078430
0.115540 0.948059 0.078430
0.252594 0.948059 0.078430
0.438324 0.948059 0.078430
0.658356 0.948059 0.078430
0.898499 0.948059 0.078430
1.000000 0.948059 0.078430
0.000000 0.000000 0.187225
0.038208 0.000000 0.187225
0.115540 0.000000 0.187225
0.252594 0.000000 0.187225
0.438324 0.000000 0.187225
0.658356 0.000000 0.187225
0.898499 0.000000 0.187225
1.000000 0.000000 0.187225
0.000000 0.079651 0.187225
0.038208 0.079651 0.187225
0.115540 0.079651 0.187225
0.252594 0.079651 0.187225
0.438324 0.079651 0.187225
0.658356 0.079651 0.187225
0.898499 0.079651 0.187225
1.000000 0.079651 0.187225
0.000000 0.191162 0.187225
0.038208 0.191162 0.187225
0.115540 0.191162 0.187225
0.252594 0.191162 0.187225
0.438324 0.191162 0.187225
0.658356 0.191162 0.187225
0.898499 0.191162 0.187225
1.000000 0.191162 0.187225
0.000000 0.346710 0.187225
0.038208 0.346710 0.187225
0.115540 0.346710 0.187225
0.252594 0.346710 0.187225
0.438324 0.346710 0.187225
0.658356 0.346710 0.187225
0.898499 0.346710 0.187225
1.000000 0.346710 0.187225
0.000000 0.524689 0.187225
0.038208 0.524689 0.187225
0.115540 0.524689 0.187225
0.252594 0.524689 0.187225
0.438324 0.524689 0.187225
0.658356 0.524689 0.187225
0.898499 0.524689 0.187225
1.000000 0.524689 0.187225
0.000000 0.700226 0.187225
0.038208 0.700226 0.187225
0.115540 0.700226 0.187225
0.252594 0.700226 0.187225
0.438324 0.700226 0.187225
0.658356 0.700226 0.187225
0.898499 0.700226 0.187225
1.000000 0.700226 0.187225
0.000000 0.848480 0.187225
0.038208 0.848480 0.187225
0.115540 0.848480 0.187225
0.252594 0.848480 0.187225
0.438324 0.848480 0.187225
0.658356 0.848480 0.187225
0.898499 0.848480 0.187225
1.000000 0.848480 0.187225
0.000000 0.948059 0.187225
0.038208 0.948059 0.187225
0.115540 0.948059 0.187225
0.252594 0.948059 0.187225
0.438324 0.948059 0.187225
0.658356 0.948059 0.187225
0.898499 0.948059 0.187225
1.000000 0.948059 0.187225
0.000000 0.000000 0.296021
0.038208 0.000000 0.296021
0.115540 0.000000 0.296021
0.252594 0.000000 0.296021
0.438324 0.000000 0.296021
0.658356 0.000000 0.296021
0.898499 0.000000 0.296021
1.000000 0.000000 0.296021
0.000000 0.079651 0.296021
0.038208 0.079651 0.296021
0.115540 0.079651 0.296021
0.252594 0.079651 0.296021
0.438324 0.079651 0.296021
0.658356 0.079651 0.296021
0.898499 0.079651 0.296021
1.000000 0.079651 0.296021
0.000000 0.191162 0.296021
0.038208 0.191162 0.296021
0.115540 0.191162 0.296021
0.252594 0.191162 0.296021
0.438324 0.191162 0.296021
0.658356 0.191162 0.296021
0.898499 0.191162 0.296021
1.000000 0.191162 0.296021
0.000000 0.346710 0.296021
0.038208 0.346710 0.296021
0.115540 0.346710 0.296021
0.252594 0.346710 0.296021
0.438324 0.346710 0.296021
0.658356 0.346710 0.296021
0.898499 0.346710 0.296021
1.000000 0.346710 0.296021
0.000000 0.524689 0.296021
0.038208 0.524689 0.296021
0.115540 0.524689 0.296021
0.252594 0.524689 0.296021
0.438324 0.524689 0.296021
0.658356 0.524689 0.296021
0.898499 0.524689 0.296021
1.000000 0.524689 0.296021
0.000000 0.700226 0.296021
0.038208 0.700226 0.296021
0.115540 0.700226 0.296021
0.252594 0.700226 0.296021
0.438324 0.700226 0.296021
0.658356 0.700226 0.296021
0.898499 0.700226 0.296021
1.000000 0.700226 0.296021
0.000000 0.848480 0.296021
0.038208 0.848480 0.296021
0.115540 0.848480 0.296021
0.252594 0.848480 0.296021
0.438324 0.848480 0.296021
0.658356 0.848480 0.296021
0.898499 0.848480 0.296021
1.000000 0.848480 0.296021
0.000000 0.948059 0.296021
0.038208 0.948059 0.296021
0.115540 0.948059 0.296021
0.252594 0.948059 0.296021
0.438324 0.948059 0.296021
0.658356 0.948059 0.296021
0.898499 0.948059 0.296021
1.000000 0.948059 0.296021
0.000000 0.000000 0.404816
0.038208 0.000000 0.404816
0.115540 0.000000 0.404816
0.252594 0.000000 0.404816
0.438324 0.000000 0.404816
0.658356 0.000000 0.404816
0.898499 0.000000 0.404816
1.000000 0.000000 0.404816
0.000000 0.079651 0.404816
0.038208 0.079651 0.404816
0.115540 0.079651 0.404816
0.252594 0.079651 0.404816
0.438324 0.079651 0.404816
0.658356 0.079651 0.404816
0.898499 0.079651 0.404816
1.000000 0.079651 0.404816
0.000000 0.191162 0.404816
0.038208 0.191162 0.404816
0.115540 0.191162 0.404816
0.252594 0.191162 0.404816
0.438324 0.191162 0.404816
0.658356 0.191162 0.404816
0.898499 0.191162 0.404816
1.000000 0.191162 0.404816
0.000000 0.346710 0.404816
0.038208 0.346710 0.404816
0.115540 0.346710 0.404816
0.252594 0.346710 0.404816
0.438324 0.346710 0.404816
0.658356 0.346710 0.404816
0.898499 0.346710 0.404816
1.000000 0.346710 0.404816
0.000000 0.524689 0.404816
0.038208 0.524689 0.404816
0.115540 0.524689 0.404816
0.252594 0.524689 0.404816
0.438324 0.524689 0.404816
0.658356 0.524689 0.404816
0.898499 0.524689 0.404816
1.000000 0.524689 0.404816
0.000000 0.700226 0.404816
0.038208 0.700226 0.404816
0.115540 0.700226 0.404816
0.252594 0.700226 0.404816
0.438324 0.700226 0.404816
0.658356 0.700226 0.404816
0.898499 0.700226 0.404816
1.000000 0.700226 0.404816
0.000000 0.848480 0.404816
0.038208 0.848480 0.404816
0.115540 0.848480 0.404816
0.252594 0.848480 0.404816
0.438324 0.848480 0.404816
0.658356 0.848480 0.404816
0.898499 0.848480 0.404816
1.000000 0.848480 0.404816
0.000000 0.948059 0.404816
0.038208 0.948059 0.404816
0.115540 0.948059 0.404816
0.252594 0.948059 0.404816
0.438324 0.948059 0.404816
0.658356 0.948059 0.404816
0.898499 0.948059 0.404816
1.000000 0.948059 0.404816
0.000000 0.000000 0.513611
0.038208 0.000000 0.513611
0.115540 0.000000 0.513611
0.252594 0.000000 0.513611
0.438324 0.000000 0.513611
0.658356 0.000000 0.513611
0.898499 0.000000 0.513611
1.000000 0.000000 0.513611
0.000000 0.079651 0.513611
0.038208 0.079651 0.513611
0.115540 0.079651 0.513611
0.252594 0.079651 0.513611
0.438324 0.079651 0.513611
0.658356 0.079651 0.513611
0.898499 0.079651 0.513611
1.000000 0.079651 0.513611
0.000000 0.191162 0.513611
0.038208 0.191162 0.513611
0.115540 0.191162 0.513611
0.252594 0.191162 0.513611
0.438324 0.191162 0.513611
0.658356 0.191162 0.513611
0.898499 0.191162 0.513611
1.000000 0.191162 0.513611
0.000000 0.346710 0.513611
0.038208 0.346710 0.513611
0.115540 0.346710 0.513611
0.252594 0.346710 0.513611
0.438324 0.346710 0.513611
0.658356 0.346710 0.513611
0.898499 0.346710 0.513611
1.000000 0.346710 0.513611
0.000000 0.524689 0.513611
0.038208 0.524689 0.513611
0.115540 0.524689 0.513611
0.252594 0.524689 0.513611
0.438324 0.524689 0.513611
0.658356 0.524689 0.513611
0.898499 0.524689 0.513611
1.000000 0.524689 0.513611
0.000000 0.700226 0.513611
0.038208 0.700226 0.513611
0.115540 0.700226 0.513611
0.252594 0.700226 0.513611
0.438324 0.700226 0.513611
0.658356 0.700226 0.513611
0.898499 0.700226 0.513611
1.000000 0.700226 0.513611
0.000000 0.848480 0.513611
0.038208 0.848480 0.513611
0.115540 0.848480 0.513611
0.252594 0.848480 0.513611
0.438324 0.848480 0.513611
0.658356 0.848480 0.513611
0.898499 0.848480 0.513611
1.000000 0.848480 0.513611
0.000000 0.948059 0.513611
0.038208 0.948059 0.513611
0.115540 0.948059 0.513611
0.252594 0.948059 0.513611
0.438324 0.948059 0.513611
0.658356 0.948059 0.513611
0.898499 0.948059 0.513611
1.000000 0.948059 0.513611
0.000000 0.000000 0.622406
0.038208 0.000000 0.622406
0.115540 0.000000 0.622406
0.252594 0.000000 0.622406
0.438324 0.000000 0.622406
0.658356 0.000000 0.622406
0.898499 0.000000 0.622406
1.000000 0.000000 0.622406
0.000000 0.079651 0.622406
0.038208 0.079651 0.622406
0.115540 0.079651 0.622406
0.252594 0.079651 0.622406
0.438324 0.079651 0.622406
0.658356 0.079651 0.622406
0.898499 0.079651 0.622406
1.000000 0.079651 0.622406
0.000000 0.191162 0.622406
0.038208 0.191162 0.622406
0.115540 0.191162 0.622406
0.252594 0.191162 0.622406
0.438324 0.191162 0.622406
0.658356 0.191162 0.622406
0.898499 0.191162 0.622406
1.000000 0.191162 0.622406
0.000000 0.346710 0.622406
0.038208 0.346710 0.622406
0.115540 0.346710 0.622406
0.252594 0.346710 0.622406
0.438324 0.346710 0.622406
0.658356 0.346710 0.622406
0.898499 0.346710 0.622406
1.000000 0.346710 0.622406
0.000000 0.524689 0.622406
0.038208 0.524689 0.622406
0.115540 0.524689 0.622406
0.252594 0.524689 0.622406
0.438324 0.524689 0.622406
0.658356 0.524689 0.622406
0.898499 0.524689 0.622406
1.000000 0.524689 0.622406
0.000000 0.700226 0.622406
0.038208 0.700226 0.622406
0.115540 0.700226 0.622406
0.252594 0.700226 0.622406
0.438324 0.700226 0.622406
0.658356 0.700226 0.622406
0.898499 0.700226 0.622406
1.000000 0.700226 0.622406
0.000000 0.848480 0.622406
0.038208 0.848480 0.622406
0.115540 0.848480 0.622406
0.252594 0.848480 0.622406
0.438324 0.848480 0.622406
0.658356 0.848480 0.622406
0.898499 0.848480 0.622406
1.000000 0.848480 0.622406
0.000000 0.948059 0.622406
0.038208 0.948059 0.622406
0.115540 0.948059 0.622406
0.252594 0.948059 0.622406
0.438324 0.948059 0.622406
0.658356 0.948059 0.622406
0.898499 0.948059 0.622406
1.000000 0.948059 0.622406
0.000000 0.000000 0.731201
0.038208 0.000000 0.731201
0.115540 0.000000 0.731201
0.252594 0.000000 0.731201
0.438324 0.000000 0.731201
0.658356 0.000000 0.731201
0.898499 0.000000 0.731201
1.000000 0.000000 0.731201
0.000000 0.079651 0.731201
0.038208 0.079651 0.731201
0.115540 0.079651 0.731201
0.252594 0.079651 0.731201
0.438324 0.079651 0.731201
0.658356 0.079651 0.731201
0.898499 0.079651 0.731201
1.000000 0.079651 0.731201
0.000000 0.191162 0.731201
0.038208 0.191162 0.731201
0.115540 0.191162 0.731201
0.252594 0.191162 0.731201
0.438324 0.191162 0.731201
0.658356 0.191162 0.731201
0.898499 0.191162 0.731201
1.000000 0.191162 0.731201
0.000000 0.346710 0.731201
0.038208 0.346710 0.731201
0.115540 0.346710 0.731201
0.252594 0.346710 0.731201
0.438324 0.346710 0.731201
0.658356 0.346710 0.731201
0.898499 0.346710 0.731201
1.000000 0.346710 0.731201
0.000000 0.524689 0.731201
0.038208 0.524689 0.731201
0.115540 0.524689 0.731201
0.252594 0.524689 0.731201
0.438324 0.524689 0.731201
0.658356 0.524689 0.731201
0.898499 0.524689 0.731201
1.000000 0.524689 0.731201
0.000000 0.700226 0.731201
0.038208 0.700226 0.731201
0.115540 0.700226 0.731201
0.252594 0.700226 0.731201
0.438324 0.700226 0.731201
0.658356 0.700226 0.731201
0.898499 0.700226 0.731201
1.000000 0.700226 0.731201
0.000000 0.848480 0.731201
0.038208 0.848480 0.731201
0.115540 0.848480 0.731201
0.252594 0.848480 0.731201
0.438324 0.848480 0.731201
0.658356 0.848480 0.731201
0.898499 0.848480 0.731201
1.000000 0.848480 0.731201
0.000000 0.948059 0.731201
0.038208 0.948059 0.731201
0.115540 0.948059 0.731201
0.252594 0.948059 0.731201
0.438324 0.948059 0.731201
0.658356 0.948059 0.731201
0.898499 0.948059 0.731201
1.000000 0.948059 0.731201
0.000000 0.000000 0.839966
0.038208 0.000000 0.839966
0.115540 0.000000 0.839966
0.252594 0.000000 0.839966
0.438324 0.000000 0.839966
0.658356 0.000000 0.839966
0.898499 0.000000 0.839966
1.000000 0.000000 0.839966
0.000000 0.079651 0.839966
0.038208 0.079651 0.839966
0.115540 0.079651 0.839966
0.252594 0.079651 0.839966
0.438324 0.079651 0.839966
0.658356 0.079651 0.839966
0.898499 0.079651 0.839966
1.000000 0.079651 0.839966
0.000000 0.191162 0.839966
0.038208 0.191162 0.839966
0.115540 0.191162 0.839966
0.252594 0.191162 0.839966
0.438324 0.191162 0.839966
0.658356 0.191162 0.839966
0.898499 0.191162 0.839966
1.000000 0.191162 0.839966
0.000000 0.346710 0.839966
0.038208 0.346710 0.839966
0.115540 0.346710 0.839966
0.252594 0.346710 0.839966
0.438324 0.346710 0.839966
0.658356 0.346710 0.839966
0.898499 0.346710 0.839966
1.000000 0.346710 0.839966
0.000000 0.524689 0.839966
0.038208 0.524689 0.839966
0.115540 0.524689 0.839966
0.252594 0.524689 0.839966
0.438324 0.524689 0.839966
0.658356 0.524689 0.839966
0.898499 0.524689 0.839966
1.000000 0.524689 0.839966
0.000000 0.700226 0.839966
0.038208 0.700226 0.839966
0.115540 0.700226 0.839966
0.252594 0.700226 0.839966
0.438324 0.700226 0.839966
0.658356 0.700226 0.839966
0.898499 0.700226 0.839966
1.000000 0.700226 0.839966
0.000000 0.848480 0.839966
0.038208 0.848480 0.839966
0.115540 0.848480 0.839966
0.252594 0.848480 0.839966
0.438324 0.848480 0.839966
0.658356 0.848480 0.839966
0.898499 0.848480 0.839966
1.000000 0.848480 0.839966
0.000000 0.948059 0.839966
0.038208 0.948059 0.839966
0.115540 0.948059 0.839966
0.252594 0.948059 0.839966
0.438324 0.948059 0.839966
0.658356 0.948059 0.839966
0.898499 0.948059 0.839966
1.000000 0.948059 0.839966
