src/LUT/LUTs/FreeLUTs-CaioBraga/Teal & Orange Warm.CUBE
#Created by: Adobe Photoshop Export Color Lookup Plugin
#Copyright: (C) Copyright 2017 © Caio Braga
TITLE "Teal & Orange Light"
#LUT size
LUT_3D_SIZE 32
#data domain
DOMAIN_MIN 0.0 0.0 0.0
DOMAIN_MAX 1.0 1.0 1.0
#LUT data points
0.029022 0.045135 0.027008
0.054138 0.045135 0.027008
0.079926 0.045135 0.027008
0.107422 0.045135 0.027008
0.137573 0.045135 0.027008
0.170013 0.045135 0.027008
0.204529 0.045135 0.027008
0.240082 0.045135 0.027008
0.276093 0.045135 0.027008
0.311951 0.045135 0.027008
0.347687 0.045135 0.027008
0.382996 0.045135 0.027008
0.418274 0.045135 0.027008
0.453369 0.045135 0.027008
0.488159 0.045135 0.027008
0.522675 0.045135 0.027008
0.556671 0.045135 0.027008
0.590454 0.045135 0.027008
0.623779 0.045135 0.027008
0.656494 0.045135 0.027008
0.688904 0.045135 0.027008
0.720551 0.045135 0.027008
0.752014 0.045135 0.027008
0.782867 0.045135 0.027008
0.813690 0.045135 0.027008
0.844116 0.045135 0.027008
0.874634 0.045135 0.027008
0.904358 0.045135 0.027008
0.931824 0.045135 0.027008
0.956146 0.045135 0.027008
0.978577 0.045135 0.027008
1.000000 0.045135 0.027008
0.029022 0.066376 0.027008
0.054138 0.066376 0.027008
0.079926 0.066376 0.027008
0.107422 0.066376 0.027008
0.137573 0.066376 0.027008
0.170013 0.066376 0.027008
0.204529 0.066376 0.027008
0.240082 0.066376 0.027008
0.276093 0.066376 0.027008
0.311951 0.066376 0.027008
0.347687 0.066376 0.027008
0.382996 0.066376 0.027008
0.418274 0.066376 0.027008
0.453369 0.066376 0.027008
0.488159 0.066376 0.027008
0.522675 0.066376 0.027008
0.556671 0.066376 0.027008
0.590454 0.066376 0.027008
0.623779 0.066376 0.027008
0.656494 0.066376 0.027008
0.688904 0.066376 0.027008
0.720551 0.066376 0.027008
0.752014 0.066376 0.027008
0.782867 0.066376 0.027008
0.813690 0.066376 0.027008
0.844116 0.066376 0.027008
0.874634 0.066376 0.027008
0.904358 0.066376 0.027008
0.931824 0.066376 0.027008
0.956146 0.066376 0.027008
0.978577 0.066376 0.027008
1.000000 0.066376 0.027008
0.029022 0.088196 0.027008
0.054138 0.088196 0.027008
0.079926 0.088196 0.027008
0.107422 0.088196 0.027008
0.137573 0.088196 0.027008
0.170013 0.088196 0.027008
0.204529 0.088196 0.027008
0.240082 0.088196 0.027008
0.276093 0.088196 0.027008
0.311951 0.088196 0.027008
0.347687 0.088196 0.027008
0.382996 0.088196 0.027008
0.418274 0.088196 0.027008
0.453369 0.088196 0.027008
0.488159 0.088196 0.027008
0.522675 0.088196 0.027008
0.556671 0.088196 0.027008
0.590454 0.088196 0.027008
0.623779 0.088196 0.027008
0.656494 0.088196 0.027008
0.688904 0.088196 0.027008
0.720551 0.088196 0.027008
0.752014 0.088196 0.027008
0.782867 0.088196 0.027008
0.813690 0.088196 0.027008
0.844116 0.088196 0.027008
0.874634 0.088196 0.027008
0.904358 0.088196 0.027008
0.931824 0.088196 0.027008
0.956146 0.088196 0.027008
0.978577 0.088196 0.027008
1.000000 0.088196 0.027008
0.029022 0.111786 0.027008
0.054138 0.111786 0.027008
0.079926 0.111786 0.027008
0.107422 0.111786 0.027008
0.137573 0.111786 0.027008
0.170013 0.111786 0.027008
0.204529 0.111786 0.027008
0.240082 0.111786 0.027008
0.276093 0.111786 0.027008
0.311951 0.111786 0.027008
0.347687 0.111786 0.027008
0.382996 0.111786 0.027008
0.418274 0.111786 0.027008
0.453369 0.111786 0.027008
0.488159 0.111786 0.027008
0.522675 0.111786 0.027008
0.556671 0.111786 0.027008
0.590454 0.111786 0.027008
0.623779 0.111786 0.027008
0.656494 0.111786 0.027008
0.688904 0.111786 0.027008
0.720551 0.111786 0.027008
0.752014 0.111786 0.027008
0.782867 0.111786 0.027008
0.813690 0.111786 0.027008
0.844116 0.111786 0.027008
0.874634 0.111786 0.027008
0.904358 0.111786 0.027008
0.931824 0.111786 0.027008
0.956146 0.111786 0.027008
0.978577 0.111786 0.027008
1.000000 0.111786 0.027008
0.029022 0.137634 0.027008
0.054138 0.137634 0.027008
0.079926 0.137634 0.027008
0.107422 0.137634 0.027008
0.137573 0.137634 0.027008
0.170013 0.137634 0.027008
0.204529 0.137634 0.027008
0.240082 0.137634 0.027008
0.276093 0.137634 0.027008
0.311951 0.137634 0.027008
0.347687 0.137634 0.027008
0.382996 0.137634 0.027008
0.418274 0.137634 0.027008
0.453369 0.137634 0.027008
0.488159 0.137634 0.027008
0.522675 0.137634 0.027008
0.556671 0.137634 0.027008
0.590454 0.137634 0.027008
0.623779 0.137634 0.027008
0.656494 0.137634 0.027008
0.688904 0.137634 0.027008
0.720551 0.137634 0.027008
0.752014 0.137634 0.027008
0.782867 0.137634 0.027008
0.813690 0.137634 0.027008
0.844116 0.137634 0.027008
0.874634 0.137634 0.027008
0.904358 0.137634 0.027008
0.931824 0.137634 0.027008
0.956146 0.137634 0.027008
0.978577 0.137634 0.027008
1.000000 0.137634 0.027008
0.029022 0.166565 0.027008
0.054138 0.166565 0.027008
0.079926 0.166565 0.027008
0.107422 0.166565 0.027008
0.137573 0.166565 0.027008
0.170013 0.166565 0.027008
0.204529 0.166565 0.027008
0.240082 0.166565 0.027008
0.276093 0.166565 0.027008
0.311951 0.166565 0.027008
0.347687 0.166565 0.027008
0.382996 0.166565 0.027008
0.418274 0.166565 0.027008
0.453369 0.166565 0.027008
0.488159 0.166565 0.027008
0.522675 0.166565 0.027008
0.556671 0.166565 0.027008
0.590454 0.166565 0.027008
0.623779 0.166565 0.027008
0.656494 0.166565 0.027008
0.688904 0.166565 0.027008
0.720551 0.166565 0.027008
0.752014 0.166565 0.027008
0.782867 0.166565 0.027008
0.813690 0.166565 0.027008
0.844116 0.166565 0.027008
0.874634 0.166565 0.027008
0.904358 0.166565 0.027008
0.931824 0.166565 0.027008
0.956146 0.166565 0.027008
0.978577 0.166565 0.027008
1.000000 0.166565 0.027008
0.029022 0.197937 0.027008
0.054138 0.197937 0.027008
0.079926 0.197937 0.027008
0.107422 0.197937 0.027008
0.137573 0.197937 0.027008
0.170013 0.197937 0.027008
0.204529 0.197937 0.027008
0.240082 0.197937 0.027008
0.276093 0.197937 0.027008
0.311951 0.197937 0.027008
0.347687 0.197937 0.027008
0.382996 0.197937 0.027008
0.418274 0.197937 0.027008
0.453369 0.197937 0.027008
0.488159 0.197937 0.027008
0.522675 0.197937 0.027008
0.556671 0.197937 0.027008
0.590454 0.197937 0.027008
0.623779 0.197937 0.027008
0.656494 0.197937 0.027008
0.688904 0.197937 0.027008
0.720551 0.197937 0.027008
0.752014 0.197937 0.027008
0.782867 0.197937 0.027008
0.813690 0.197937 0.027008
0.844116 0.197937 0.027008
0.874634 0.197937 0.027008
0.904358 0.197937 0.027008
0.931824 0.197937 0.027008
0.956146 0.197937 0.027008
0.978577 0.197937 0.027008
1.000000 0.197937 0.027008
0.029022 0.231781 0.027008
0.054138 0.231781 0.027008
0.079926 0.231781 0.027008
0.107422 0.231781 0.027008
0.137573 0.231781 0.027008
0.170013 0.231781 0.027008
0.204529 0.231781 0.027008
0.240082 0.231781 0.027008
0.276093 0.231781 0.027008
0.311951 0.231781 0.027008
0.347687 0.231781 0.027008
0.382996 0.231781 0.027008
0.418274 0.231781 0.027008
0.453369 0.231781 0.027008
0.488159 0.231781 0.027008
0.522675 0.231781 0.027008
0.556671 0.231781 0.027008
0.590454 0.231781 0.027008
0.623779 0.231781 0.027008
0.656494 0.231781 0.027008
0.688904 0.231781 0.027008
0.720551 0.231781 0.027008
0.752014 0.231781 0.027008
0.782867 0.231781 0.027008
0.813690 0.231781 0.027008
0.844116 0.231781 0.027008
0.874634 0.231781 0.027008
0.904358 0.231781 0.027008
0.931824 0.231781 0.027008
0.956146 0.231781 0.027008
0.978577 0.231781 0.027008
1.000000 0.231781 0.027008
0.029022 0.267273 0.027008
0.054138 0.267273 0.027008
0.079926 0.267273 0.027008
0.107422 0.267273 0.027008
0.137573 0.267273 0.027008
0.170013 0.267273 0.027008
0.204529 0.267273 0.027008
0.240082 0.267273 0.027008
0.276093 0.267273 0.027008
0.311951 0.267273 0.027008
0.347687 0.267273 0.027008
0.382996 0.267273 0.027008
0.418274 0.267273 0.027008
0.453369 0.267273 0.027008
0.488159 0.267273 0.027008
0.522675 0.267273 0.027008
0.556671 0.267273 0.027008
0.590454 0.267273 0.027008
0.623779 0.267273 0.027008
0.656494 0.267273 0.027008
0.688904 0.267273 0.027008
0.720551 0.267273 0.027008
0.752014 0.267273 0.027008
0.782867 0.267273 0.027008
0.813690 0.267273 0.027008
0.844116 0.267273 0.027008
0.874634 0.267273 0.027008
0.904358 0.267273 0.027008
0.931824 0.267273 0.027008
0.956146 0.267273 0.027008
0.978577 0.267273 0.027008
1.000000 0.267273 0.027008
0.029022 0.303741 0.027008
0.054138 0.303741 0.027008
0.079926 0.303741 0.027008
0.107422 0.303741 0.027008
0.137573 0.303741 0.027008
0.170013 0.303741 0.027008
0.204529 0.303741 0.027008
0.240082 0.303741 0.027008
0.276093 0.303741 0.027008
0.311951 0.303741 0.027008
0.347687 0.303741 0.027008
0.382996 0.303741 0.027008
0.418274 0.303741 0.027008
0.453369 0.303741 0.027008
0.488159 0.303741 0.027008
0.522675 0.303741 0.027008
0.556671 0.303741 0.027008
0.590454 0.303741 0.027008
0.623779 0.303741 0.027008
0.656494 0.303741 0.027008
0.688904 0.303741 0.027008
0.720551 0.303741 0.027008
0.752014 0.303741 0.027008
0.782867 0.303741 0.027008
0.813690 0.303741 0.027008
0.844116 0.303741 0.027008
0.874634 0.303741 0.027008
0.904358 0.303741 0.027008
0.931824 0.303741 0.027008
0.956146 0.303741 0.027008
0.978577 0.303741 0.027008
1.000000 0.303741 0.027008
0.029022 0.340881 0.027008
0.054138 0.340881 0.027008
0.079926 0.340881 0.027008
0.107422 0.340881 0.027008
0.137573 0.340881 0.027008
0.170013 0.340881 0.027008
0.204529 0.340881 0.027008
0.240082 0.340881 0.027008
0.276093 0.340881 0.027008
0.311951 0.340881 0.027008
0.347687 0.340881 0.027008
0.382996 0.340881 0.027008
0.418274 0.340881 0.027008
0.453369 0.340881 0.027008
0.488159 0.340881 0.027008
0.522675 0.340881 0.027008
0.556671 0.340881 0.027008
0.590454 0.340881 0.027008
0.623779 0.340881 0.027008
0.656494 0.340881 0.027008
0.688904 0.340881 0.027008
0.720551 0.340881 0.027008
0.752014 0.340881 0.027008
0.782867 0.340881 0.027008
0.813690 0.340881 0.027008
0.844116 0.340881 0.027008
0.874634 0.340881 0.027008
0.904358 0.340881 0.027008
0.931824 0.340881 0.027008
0.956146 0.340881 0.027008
0.978577 0.340881 0.027008
1.000000 0.340881 0.027008
0.029022 0.378510 0.027008
0.054138 0.378510 0.027008
0.079926 0.378510 0.027008
0.107422 0.378510 0.027008
0.137573 0.378510 0.027008
0.170013 0.378510 0.027008
0.204529 0.378510 0.027008
0.240082 0.378510 0.027008
0.276093 0.378510 0.027008
0.311951 0.378510 0.027008
0.347687 0.378510 0.027008
0.382996 0.378510 0.027008
0.418274 0.378510 0.027008
0.453369 0.378510 0.027008
0.488159 0.378510 0.027008
0.522675 0.378510 0.027008
0.556671 0.378510 0.027008
0.590454 0.378510 0.027008
0.623779 0.378510 0.027008
0.656494 0.378510 0.027008
0.688904 0.378510 0.027008
0.720551 0.378510 0.027008
0.752014 0.378510 0.027008
0.782867 0.378510 0.027008
0.813690 0.378510 0.027008
0.844116 0.378510 0.027008
0.874634 0.378510 0.027008
0.904358 0.378510 0.027008
0.931824 0.378510 0.027008
0.956146 0.378510 0.027008
0.978577 0.378510 0.027008
1.000000 0.378510 0.027008
0.029022 0.416412 0.027008
0.054138 0.416412 0.027008
0.079926 0.416412 0.027008
0.107422 0.416412 0.027008
0.137573 0.416412 0.027008
0.170013 0.416412 0.027008
0.204529 0.416412 0.027008
0.240082 0.416412 0.027008
0.276093 0.416412 0.027008
0.311951 0.416412 0.027008
0.347687 0.416412 0.027008
0.382996 0.416412 0.027008
0.418274 0.416412 0.027008
0.453369 0.416412 0.027008
0.488159 0.416412 0.027008
0.522675 0.416412 0.027008
0.556671 0.416412 0.027008
0.590454 0.416412 0.027008
0.623779 0.416412 0.027008
0.656494 0.416412 0.027008
0.688904 0.416412 0.027008
0.720551 0.416412 0.027008
0.752014 0.416412 0.027008
0.782867 0.416412 0.027008
0.813690 0.416412 0.027008
0.844116 0.416412 0.027008
0.874634 0.416412 0.027008
0.904358 0.416412 0.027008
0.931824 0.416412 0.027008
0.956146 0.416412 0.027008
0.978577 0.416412 0.027008
1.000000 0.416412 0.027008
0.029022 0.454407 0.027008
0.054138 0.454407 0.027008
0.079926 0.454407 0.027008
0.107422 0.454407 0.027008
0.137573 0.454407 0.027008
0.170013 0.454407 0.027008
0.204529 0.454407 0.027008
0.240082 0.454407 0.027008
0.276093 0.454407 0.027008
0.311951 0.454407 0.027008
0.347687 0.454407 0.027008
0.382996 0.454407 0.027008
0.418274 0.454407 0.027008
0.453369 0.454407 0.027008
0.488159 0.454407 0.027008
0.522675 0.454407 0.027008
0.556671 0.454407 0.027008
0.590454 0.454407 0.027008
0.623779 0.454407 0.027008
0.656494 0.454407 0.027008
0.688904 0.454407 0.027008
0.720551 0.454407 0.027008
0.752014 0.454407 0.027008
0.782867 0.454407 0.027008
0.813690 0.454407 0.027008
0.844116 0.454407 0.027008
0.874634 0.454407 0.027008
0.904358 0.454407 0.027008
0.931824 0.454407 0.027008
0.956146 0.454407 0.027008
0.978577 0.454407 0.027008
1.000000 0.454407 0.027008
0.029022 0.492401 0.027008
0.054138 0.492401 0.027008
0.079926 0.492401 0.027008
0.107422 0.492401 0.027008
0.137573 0.492401 0.027008
0.170013 0.492401 0.027008
0.204529 0.492401 0.027008
0.240082 0.492401 0.027008
0.276093 0.492401 0.027008
0.311951 0.492401 0.027008
0.347687 0.492401 0.027008
0.382996 0.492401 0.027008
0.418274 0.492401 0.027008
0.453369 0.492401 0.027008
0.488159 0.492401 0.027008
0.522675 0.492401 0.027008
0.556671 0.492401 0.027008
0.590454 0.492401 0.027008
0.623779 0.492401 0.027008
0.656494 0.492401 0.027008
0.688904 0.492401 0.027008
0.720551 0.492401 0.027008
0.752014 0.492401 0.027008
0.782867 0.492401 0.027008
0.813690 0.492401 0.027008
0.844116 0.492401 0.027008
0.874634 0.492401 0.027008
0.904358 0.492401 0.027008
0.931824 0.492401 0.027008
0.956146 0.492401 0.027008
0.978577 0.492401 0.027008
1.000000 0.492401 0.027008
0.029022 0.530121 0.027008
0.054138 0.530121 0.027008
0.079926 0.530121 0.027008
0.107422 0.530121 0.027008
0.137573 0.530121 0.027008
0.170013 0.530121 0.027008
0.204529 0.530121 0.027008
0.240082 0.530121 0.027008
0.276093 0.530121 0.027008
0.311951 0.530121 0.027008
0.347687 0.530121 0.027008
0.382996 0.530121 0.027008
0.418274 0.530121 0.027008
0.453369 0.530121 0.027008
0.488159 0.530121 0.027008
0.522675 0.530121 0.027008
0.556671 0.530121 0.027008
0.590454 0.530121 0.027008
0.623779 0.530121 0.027008
0.656494 0.530121 0.027008
0.688904 0.530121 0.027008
0.720551 0.530121 0.027008
0.752014 0.530121 0.027008
0.782867 0.530121 0.027008
0.813690 0.530121 0.027008
0.844116 0.530121 0.027008
0.874634 0.530121 0.027008
0.904358 0.530121 0.027008
0.931824 0.530121 0.027008
0.956146 0.530121 0.027008
0.978577 0.530121 0.027008
1.000000 0.530121 0.027008
0.029022 0.567444 0.027008
0.054138 0.567444 0.027008
0.079926 0.567444 0.027008
0.107422 0.567444 0.027008
0.137573 0.567444 0.027008
0.170013 0.567444 0.027008
0.204529 0.567444 0.027008
0.240082 0.567444 0.027008
0.276093 0.567444 0.027008
0.311951 0.567444 0.027008
0.347687 0.567444 0.027008
0.382996 0.567444 0.027008
0.418274 0.567444 0.027008
0.453369 0.567444 0.027008
0.488159 0.567444 0.027008
0.522675 0.567444 0.027008
0.556671 0.567444 0.027008
0.590454 0.567444 0.027008
0.623779 0.567444 0.027008
0.656494 0.567444 0.027008
0.688904 0.567444 0.027008
0.720551 0.567444 0.027008
0.752014 0.567444 0.027008
0.782867 0.567444 0.027008
0.813690 0.567444 0.027008
0.844116 0.567444 0.027008
0.874634 0.567444 0.027008
0.904358 0.567444 0.027008
0.931824 0.567444 0.027008
0.956146 0.567444 0.027008
0.978577 0.567444 0.027008
1.000000 0.567444 0.027008
0.029022 0.604126 0.027008
0.054138 0.604126 0.027008
0.079926 0.604126 0.027008
0.107422 0.604126 0.027008
0.137573 0.604126 0.027008
0.170013 0.604126 0.027008
0.204529 0.604126 0.027008
0.240082 0.604126 0.027008
0.276093 0.604126 0.027008
0.311951 0.604126 0.027008
0.347687 0.604126 0.027008
0.382996 0.604126 0.027008
0.418274 0.604126 0.027008
0.453369 0.604126 0.027008
0.488159 0.604126 0.027008
0.522675 0.604126 0.027008
0.556671 0.604126 0.027008
0.590454 0.604126 0.027008
0.623779 0.604126 0.027008
0.656494 0.604126 0.027008
0.688904 0.604126 0.027008
0.720551 0.604126 0.027008
0.752014 0.604126 0.027008
0.782867 0.604126 0.027008
0.813690 0.604126 0.027008
0.844116 0.604126 0.027008
0.874634 0.604126 0.027008
0.904358 0.604126 0.027008
0.931824 0.604126 0.027008
0.956146 0.604126 0.027008
0.978577 0.604126 0.027008
1.000000 0.604126 0.027008
0.029022 0.640106 0.027008
0.054138 0.640106 0.027008
0.079926 0.640106 0.027008
0.107422 0.640106 0.027008
0.137573 0.640106 0.027008
0.170013 0.640106 0.027008
0.204529 0.640106 0.027008
0.240082 0.640106 0.027008
0.276093 0.640106 0.027008
0.311951 0.640106 0.027008
0.347687 0.640106 0.027008
0.382996 0.640106 0.027008
0.418274 0.640106 0.027008
0.453369 0.640106 0.027008
0.488159 0.640106 0.027008
0.522675 0.640106 0.027008
0.556671 0.640106 0.027008
0.590454 0.640106 0.027008
0.623779 0.640106 0.027008
0.656494 0.640106 0.027008
0.688904 0.640106 0.027008
0.720551 0.640106 0.027008
0.752014 0.640106 0.027008
0.782867 0.640106 0.027008
0.813690 0.640106 0.027008
0.844116 0.640106 0.027008
0.874634 0.640106 0.027008
0.904358 0.640106 0.027008
0.931824 0.640106 0.027008
0.956146 0.640106 0.027008
0.978577 0.640106 0.027008
1.000000 0.640106 0.027008
0.029022 0.674866 0.027008
0.054138 0.674866 0.027008
0.079926 0.674866 0.027008
0.107422 0.674866 0.027008
0.137573 0.674866 0.027008
0.170013 0.674866 0.027008
0.204529 0.674866 0.027008
0.240082 0.674866 0.027008
0.276093 0.674866 0.027008
0.311951 0.674866 0.027008
0.347687 0.674866 0.027008
0.382996 0.674866 0.027008
0.418274 0.674866 0.027008
0.453369 0.674866 0.027008
0.488159 0.674866 0.027008
0.522675 0.674866 0.027008
0.556671 0.674866 0.027008
0.590454 0.674866 0.027008
0.623779 0.674866 0.027008
0.656494 0.674866 0.027008
0.688904 0.674866 0.027008
0.720551 0.674866 0.027008
0.752014 0.674866 0.027008
0.782867 0.674866 0.027008
0.813690 0.674866 0.027008
0.844116 0.674866 0.027008
0.874634 0.674866 0.027008
0.904358 0.674866 0.027008
0.931824 0.674866 0.027008
0.956146 0.674866 0.027008
0.978577 0.674866 0.027008
1.000000 0.674866 0.027008
0.029022 0.708801 0.027008
0.054138 0.708801 0.027008
0.079926 0.708801 0.027008
0.107422 0.708801 0.027008
0.137573 0.708801 0.027008
0.170013 0.708801 0.027008
0.204529 0.708801 0.027008
0.240082 0.708801 0.027008
0.276093 0.708801 0.027008
0.311951 0.708801 0.027008
0.347687 0.708801 0.027008
0.382996 0.708801 0.027008
0.418274 0.708801 0.027008
0.453369 0.708801 0.027008
0.488159 0.708801 0.027008
0.522675 0.708801 0.027008
0.556671 0.708801 0.027008
0.590454 0.708801 0.027008
0.623779 0.708801 0.027008
0.656494 0.708801 0.027008
0.688904 0.708801 0.027008
0.720551 0.708801 0.027008
0.752014 0.708801 0.027008
0.782867 0.708801 0.027008
0.813690 0.708801 0.027008
0.844116 0.708801 0.027008
0.874634 0.708801 0.027008
0.904358 0.708801 0.027008
0.931824 0.708801 0.027008
0.956146 0.708801 0.027008
0.978577 0.708801 0.027008
1.000000 0.708801 0.027008
0.029022 0.741608 0.027008
0.054138 0.741608 0.027008
0.079926 0.741608 0.027008
0.107422 0.741608 0.027008
0.137573 0.741608 0.027008
0.170013 0.741608 0.027008
0.204529 0.741608 0.027008
0.240082 0.741608 0.027008
0.276093 0.741608 0.027008
0.311951 0.741608 0.027008
0.347687 0.741608 0.027008
0.382996 0.741608 0.027008
0.418274 0.741608 0.027008
0.453369 0.741608 0.027008
0.488159 0.741608 0.027008
0.522675 0.741608 0.027008
0.556671 0.741608 0.027008
0.590454 0.741608 0.027008
0.623779 0.741608 0.027008
0.656494 0.741608 0.027008
0.688904 0.741608 0.027008
0.720551 0.741608 0.027008
0.752014 0.741608 0.027008
0.782867 0.741608 0.027008
0.813690 0.741608 0.027008
0.844116 0.741608 0.027008
0.874634 0.741608 0.027008
0.904358 0.741608 0.027008
0.931824 0.741608 0.027008
0.956146 0.741608 0.027008
0.978577 0.741608 0.027008
1.000000 0.741608 0.027008
0.029022 0.773071 0.027008
0.054138 0.773071 0.027008
0.079926 0.773071 0.027008
0.107422 0.773071 0.027008
0.137573 0.773071 0.027008
0.170013 0.773071 0.027008
0.204529 0.773071 0.027008
0.240082 0.773071 0.027008
0.276093 0.773071 0.027008
0.311951 0.773071 0.027008
0.347687 0.773071 0.027008
0.382996 0.773071 0.027008
0.418274 0.773071 0.027008
0.453369 0.773071 0.027008
0.488159 0.773071 0.027008
0.522675 0.773071 0.027008
0.556671 0.773071 0.027008
0.590454 0.773071 0.027008
0.623779 0.773071 0.027008
0.656494 0.773071 0.027008
0.688904 0.773071 0.027008
0.720551 0.773071 0.027008
0.752014 0.773071 0.027008
0.782867 0.773071 0.027008
0.813690 0.773071 0.027008
0.844116 0.773071 0.027008
0.874634 0.773071 0.027008
0.904358 0.773071 0.027008
0.931824 0.773071 0.027008
0.956146 0.773071 0.027008
0.978577 0.773071 0.027008
1.000000 0.773071 0.027008
0.029022 0.803680 0.027008
0.054138 0.803680 0.027008
0.079926 0.803680 0.027008
0.107422 0.803680 0.027008
0.137573 0.803680 0.027008
0.170013 0.803680 0.027008
0.204529 0.803680 0.027008
0.240082 0.803680 0.027008
0.276093 0.803680 0.027008
0.311951 0.803680 0.027008
0.347687 0.803680 0.027008
0.382996 0.803680 0.027008
0.418274 0.803680 0.027008
0.453369 0.803680 0.027008
0.488159 0.803680 0.027008
0.522675 0.803680 0.027008
0.556671 0.803680 0.027008
0.590454 0.803680 0.027008
0.623779 0.803680 0.027008
0.656494 0.803680 0.027008
0.688904 0.803680 0.027008
0.720551 0.803680 0.027008
0.752014 0.803680 0.027008
0.782867 0.803680 0.027008
0.813690 0.803680 0.027008
0.844116 0.803680 0.027008
0.874634 0.803680 0.027008
0.904358 0.803680 0.027008
0.931824 0.803680 0.027008
0.956146 0.803680 0.027008
0.978577 0.803680 0.027008
1.000000 0.803680 0.027008
0.029022 0.833008 0.027008
0.054138 0.833008 0.027008
0.079926 0.833008 0.027008
0.107422 0.833008 0.027008
0.137573 0.833008 0.027008
0.170013 0.833008 0.027008
0.204529 0.833008 0.027008
0.240082 0.833008 0.027008
0.276093 0.833008 0.027008
0.311951 0.833008 0.027008
0.347687 0.833008 0.027008
0.382996 0.833008 0.027008
0.418274 0.833008 0.027008
0.453369 0.833008 0.027008
0.488159 0.833008 0.027008
0.522675 0.833008 0.027008
0.556671 0.833008 0.027008
0.590454 0.833008 0.027008
0.623779 0.833008 0.027008
0.656494 0.833008 0.027008
0.688904 0.833008 0.027008
0.720551 0.833008 0.027008
0.752014 0.833008 0.027008
0.782867 0.833008 0.027008
0.813690 0.833008 0.027008
0.844116 0.833008 0.027008
0.874634 0.833008 0.027008
0.904358 0.833008 0.027008
0.931824 0.833008 0.027008
0.956146 0.833008 0.027008
0.978577 0.833008 0.027008
1.000000 0.833008 0.027008
0.029022 0.861389 0.027008
0.054138 0.861389 0.027008
0.079926 0.861389 0.027008
0.107422 0.861389 0.027008
0.137573 0.861389 0.027008
0.170013 0.861389 0.027008
0.204529 0.861389 0.027008
0.240082 0.861389 0.027008
0.276093 0.861389 0.027008
0.311951 0.861389 0.027008
0.347687 0.861389 0.027008
0.382996 0.861389 0.027008
0.418274 0.861389 0.027008
0.453369 0.861389 0.027008
0.488159 0.861389 0.027008
0.522675 0.861389 0.027008
0.556671 0.861389 0.027008
0.590454 0.861389 0.027008
0.623779 0.861389 0.027008
0.656494 0.861389 0.027008
0.688904 0.861389 0.027008
0.720551 0.861389 0.027008
0.752014 0.861389 0.027008
0.782867 0.861389 0.027008
0.813690 0.861389 0.027008
0.844116 0.861389 0.027008
0.874634 0.861389 0.027008
0.904358 0.861389 0.027008
0.931824 0.861389 0.027008
0.956146 0.861389 0.027008
0.978577 0.861389 0.027008
1.000000 0.861389 0.027008
0.029022 0.888977 0.027008
0.054138 0.888977 0.027008
0.079926 0.888977 0.027008
0.107422 0.888977 0.027008
0.137573 0.888977 0.027008
0.170013 0.888977 0.027008
0.204529 0.888977 0.027008
0.240082 0.888977 0.027008
0.276093 0.888977 0.027008
0.311951 0.888977 0.027008
0.347687 0.888977 0.027008
0.382996 0.888977 0.027008
0.418274 0.888977 0.027008
0.453369 0.888977 0.027008
0.488159 0.888977 0.027008
0.522675 0.888977 0.027008
0.556671 0.888977 0.027008
0.590454 0.888977 0.027008
0.623779 0.888977 0.027008
0.656494 0.888977 0.027008
0.688904 0.888977 0.027008
0.720551 0.888977 0.027008
0.752014 0.888977 0.027008
0.782867 0.888977 0.027008
0.813690 0.888977 0.027008
0.844116 0.888977 0.027008
0.874634 0.888977 0.027008
0.904358 0.888977 0.027008
0.931824 0.888977 0.027008
0.956146 0.888977 0.027008
0.978577 0.888977 0.027008
1.000000 0.888977 0.027008
0.029022 0.915955 0.027008
0.054138 0.915955 0.027008
0.079926 0.915955 0.027008
0.107422 0.915955 0.027008
0.137573 0.915955 0.027008
0.170013 0.915955 0.027008
0.204529 0.915955 0.027008
0.240082 0.915955 0.027008
0.276093 0.915955 0.027008
0.311951 0.915955 0.027008
0.347687 0.915955 0.027008
0.382996 0.915955 0.027008
0.418274 0.915955 0.027008
0.453369 0.915955 0.027008
0.488159 0.915955 0.027008
0.522675 0.915955 0.027008
