src/LUT/LUTs/FreeLUTs-CaioBraga/Teal & Orange Warm.CUBE
#Created by: Adobe Photoshop Export Color Lookup Plugin
#Copyright: (C) Copyright 2017 © Caio Braga
TITLE "Teal & Orange Light"
#LUT size
LUT_3D_SIZE 8
#data domain
#LUT data points
DOMAIN_MIN 0.000000 0.000000 0.000000
DOMAIN_MAX 0.903226 0.903226 0.903226
0.029022 0.045135 0.027008
0.137573 0.045135 0.027008
0.276093 0.045135 0.027008
0.418274 0.045135 0.027008
0.556671 0.045135 0.027008
0.688904 0.045135 0.027008
0.813690 0.045135 0.027008
0.931824 0.045135 0.027008
0.029022 0.137634 0.027008
0.137573 0.137634 0.027008
0.276093 0.137634 0.027008
0.418274 0.137634 0.027008
0.556671 0.137634 0.027008
0.688904 0.137634 0.027008
0.813690 0.137634 0.027008
0.931824 0.137634 0.027008
0.029022 0.267273 0.027008
0.137573 0.267273 0.027008
0.276093 0.267273 0.027008
0.418274 0.267273 0.027008
0.556671 0.267273 0.027008
0.688904 0.267273 0.027008
0.813690 0.267273 0.027008
0.931824 0.267273 0.027008
0.029022 0.416412 0.027008
0.137573 0.416412 0.027008
0.276093 0.416412 0.027008
0.418274 0.416412 0.027008
0.556671 0.416412 0.027008
0.688904 0.416412 0.027008
0.813690 0.416412 0.027008
0.931824 0.416412 0.027008
0.029022 0.567444 0.027008
0.137573 0.567444 0.027008
0.276093 0.567444 0.027008
0.418274 0.567444 0.027008
0.556671 0.567444 0.027008
0.688904 0.567444 0.027008
0.813690 0.567444 0.027008
0.931824 0.567444 0.027008
0.029022 0.708801 0.027008
0.137573 0.708801 0.027008
0.276093 0.708801 0.027008
0.418274 0.708801 0.027008
0.556671 0.708801 0.027008
0.688904 0.708801 0.027008
0.813690 0.708801 0.027008
0.931824 0.708801 0.027008
0.029022 0.833008 0.027008
0.137573 0.833008 0.027008
0.276093 0.833008 0.027008
0.418274 0.833008 0.027008
0.556671 0.833008 0.027008
0.688904 0.833008 0.027008
0.813690 0.833008 0.027008
0.931824 0.833008 0.027008
0.029022 0.942413 0.027008
0.137573 0.942413 0.027008
0.276093 0.942413 0.027008
0.418274 0.942413 0.027008
0.556671 0.942413 0.027008
0.688904 0.942413 0.027008
0.813690 0.942413 0.027008
0.931824 0.942413 0.027008
0.029022 0.045135 0.147491
0.137573 0.045135 0.147491
0.276093 0.045135 0.147491
0.418274 0.045135 0.147491
0.556671 0.045135 0.147491
0.688904 0.045135 0.147491
0.813690 0.045135 0.147491
0.931824 0.045135 0.147491
0.029022 0.137634 0.147491
0.137573 0.137634 0.147491
0.276093 0.137634 0.147491
0.418274 0.137634 0.147491
0.556671 0.137634 0.147491
0.688904 0.137634 0.147491
0.813690 0.137634 0.147491
0.931824 0.137634 0.147491
0.029022 0.267273 0.147491
0.137573 0.267273 0.147491
0.276093 0.267273 0.147491
0.418274 0.267273 0.147491
0.556671 0.267273 0.147491
0.688904 0.267273 0.147491
0.813690 0.267273 0.147491
0.931824 0.267273 0.147491
0.029022 0.416412 0.147491
0.137573 0.416412 0.147491
0.276093 0.416412 0.147491
0.418274 0.416412 0.147491
0.556671 0.416412 0.147491
0.688904 0.416412 0.147491
0.813690 0.416412 0.147491
0.931824 0.416412 0.147491
0.029022 0.567444 0.147491
0.137573 0.567444 0.147491
0.276093 0.567444 0.147491
0.418274 0.567444 0.147491
0.556671 0.567444 0.147491
0.688904 0.567444 0.147491
0.813690 0.567444 0.147491
0.931824 0.567444 0.147491
0.029022 0.708801 0.147491
0.137573 0.708801 0.147491
0.276093 0.708801 0.147491
0.418274 0.708801 0.147491
0.556671 0.708801 0.147491
0.688904 0.708801 0.147491
0.813690 0.708801 0.147491
0.931824 0.708801 0.147491
0.029022 0.833008 0.147491
0.137573 0.833008 0.147491
0.276093 0.833008 0.147491
0.418274 0.833008 0.147491
0.556671 0.833008 0.147491
0.688904 0.833008 0.147491
0.813690 0.833008 0.147491
0.931824 0.833008 0.147491
0.029022 0.942413 0.147491
0.137573 0.942413 0.147491
0.276093 0.942413 0.147491
0.418274 0.942413 0.147491
0.556671 0.942413 0.147491
0.688904 0.942413 0.147491
0.813690 0.942413 0.147491
0.931824 0.942413 0.147491
0.029022 0.045135 0.294067
0.137573 0.045135 0.294067
0.276093 0.045135 0.294067
0.418274 0.045135 0.294067
0.556671 0.045135 0.294067
0.688904 0.045135 0.294067
0.813690 0.045135 0.294067
0.931824 0.045135 0.294067
0.029022 0.137634 0.294067
0.137573 0.137634 0.294067
0.276093 0.137634 0.294067
0.418274 0.137634 0.294067
0.556671 0.137634 0.294067
0.688904 0.137634 0.294067
0.813690 0.137634 0.294067
0.931824 0.137634 0.294067
0.029022 0.267273 0.294067
0.137573 0.267273 0.294067
0.276093 0.267273 0.294067
0.418274 0.267273 0.294067
0.556671 0.267273 0.294067
0.688904 0.267273 0.294067
0.813690 0.267273 0.294067
0.931824 0.267273 0.294067
0.029022 0.416412 0.294067
0.137573 0.416412 0.294067
0.276093 0.416412 0.294067
0.418274 0.416412 0.294067
0.556671 0.416412 0.294067
0.688904 0.416412 0.294067
0.813690 0.416412 0.294067
0.931824 0.416412 0.294067
0.029022 0.567444 0.294067
0.137573 0.567444 0.294067
0.276093 0.567444 0.294067
0.418274 0.567444 0.294067
0.556671 0.567444 0.294067
0.688904 0.567444 0.294067
0.813690 0.567444 0.294067
0.931824 0.567444 0.294067
0.029022 0.708801 0.294067
0.137573 0.708801 0.294067
0.276093 0.708801 0.294067
0.418274 0.708801 0.294067
0.556671 0.708801 0.294067
0.688904 0.708801 0.294067
0.813690 0.708801 0.294067
0.931824 0.708801 0.294067
0.029022 0.833008 0.294067
0.137573 0.833008 0.294067
0.276093 0.833008 0.294067
0.418274 0.833008 0.294067
0.556671 0.833008 0.294067
0.688904 0.833008 0.294067
0.813690 0.833008 0.294067
0.931824 0.833008 0.294067
0.029022 0.942413 0.294067
0.137573 0.942413 0.294067
0.276093 0.942413 0.294067
0.418274 0.942413 0.294067
0.556671 0.942413 0.294067
0.688904 0.942413 0.294067
0.813690 0.942413 0.294067
0.931824 0.942413 0.294067
0.029022 0.045135 0.432709
0.137573 0.045135 0.432709
0.276093 0.045135 0.432709
0.418274 0.045135 0.432709
0.556671 0.045135 0.432709
0.688904 0.045135 0.432709
0.813690 0.045135 0.432709
0.931824 0.045135 0.432709
0.029022 0.137634 0.432709
0.137573 0.137634 0.432709
0.276093 0.137634 0.432709
0.418274 0.137634 0.432709
0.556671 0.137634 0.432709
0.688904 0.137634 0.432709
0.813690 0.137634 0.432709
0.931824 0.137634 0.432709
0.029022 0.267273 0.432709
0.137573 0.267273 0.432709
0.276093 0.267273 0.432709
0.418274 0.267273 0.432709
0.556671 0.267273 0.432709
0.688904 0.267273 0.432709
0.813690 0.267273 0.432709
0.931824 0.267273 0.432709
0.029022 0.416412 0.432709
0.137573 0.416412 0.432709
0.276093 0.416412 0.432709
0.418274 0.416412 0.432709
0.556671 0.416412 0.432709
0.688904 0.416412 0.432709
0.813690 0.416412 0.432709
0.931824 0.416412 0.432709
0.029022 0.567444 0.432709
0.137573 0.567444 0.432709
0.276093 0.567444 0.432709
0.418274 0.567444 0.432709
0.556671 0.567444 0.432709
0.688904 0.567444 0.432709
0.813690 0.567444 0.432709
0.931824 0.567444 0.432709
0.029022 0.708801 0.432709
0.137573 0.708801 0.432709
0.276093 0.708801 0.432709
0.418274 0.708801 0.432709
0.556671 0.708801 0.432709
0.688904 0.708801 0.432709
0.813690 0.708801 0.432709
0.931824 0.708801 0.432709
0.029022 0.833008 0.432709
0.137573 0.833008 0.432709
0.276093 0.833008 0.432709
0.418274 0.833008 0.432709
0.556671 0.833008 0.432709
0.688904 0.833008 0.432709
0.813690 0.833008 0.432709
0.931824 0.833008 0.432709
0.029022 0.942413 0.432709
0.137573 0.942413 0.432709
0.276093 0.942413 0.432709
0.418274 0.942413 0.432709
0.556671 0.942413 0.432709
0.688904 0.942413 0.432709
0.813690 0.942413 0.432709
0.931824 0.942413 0.432709
0.029022 0.045135 0.561188
0.137573 0.045135 0.561188
0.276093 0.045135 0.561188
0.418274 0.045135 0.561188
0.556671 0.045135 0.561188
0.688904 0.045135 0.561188
0.813690 0.045135 0.561188
0.931824 0.045135 0.561188
0.029022 0.137634 0.561188
0.137573 0.137634 0.561188
0.276093 0.137634 0.561188
0.418274 0.137634 0.561188
0.556671 0.137634 0.561188
0.688904 0.137634 0.561188
0.813690 0.137634 0.561188
0.931824 0.137634 0.561188
0.029022 0.267273 0.561188
0.137573 0.267273 0.561188
0.276093 0.267273 0.561188
0.418274 0.267273 0.561188
0.556671 0.267273 0.561188
0.688904 0.267273 0.561188
0.813690 0.267273 0.561188
0.931824 0.267273 0.561188
0.029022 0.416412 0.561188
0.137573 0.416412 0.561188
0.276093 0.416412 0.561188
0.418274 0.416412 0.561188
0.556671 0.416412 0.561188
0.688904 0.416412 0.561188
0.813690 0.416412 0.561188
0.931824 0.416412 0.561188
0.029022 0.567444 0.561188
0.137573 0.567444 0.561188
0.276093 0.567444 0.561188
0.418274 0.567444 0.561188
0.556671 0.567444 0.561188
0.688904 0.567444 0.561188
0.813690 0.567444 0.561188
0.931824 0.567444 0.561188
0.029022 0.708801 0.561188
0.137573 0.708801 0.561188
0.276093 0.708801 0.561188
0.418274 0.708801 0.561188
0.556671 0.708801 0.561188
0.688904 0.708801 0.561188
0.813690 0.708801 0.561188
0.931824 0.708801 0.561188
0.029022 0.833008 0.561188
0.137573 0.833008 0.561188
0.276093 0.833008 0.561188
0.418274 0.833008 0.561188
0.556671 0.833008 0.561188
0.688904 0.833008 0.561188
0.813690 0.833008 0.561188
0.931824 0.833008 0.561188
0.029022 0.942413 0.561188
0.137573 0.942413 0.561188
0.276093 0.942413 0.561188
0.418274 0.942413 0.561188
0.556671 0.942413 0.561188
0.688904 0.942413 0.561188
0.813690 0.942413 0.561188
0.931824 0.942413 0.561188
0.029022 0.045135 0.681580
0.137573 0.045135 0.681580
0.276093 0.045135 0.681580
0.418274 0.045135 0.681580
0.556671 0.045135 0.681580
0.688904 0.045135 0.681580
0.813690 0.045135 0.681580
0.931824 0.045135 0.681580
0.029022 0.137634 0.681580
0.137573 0.137634 0.681580
0.276093 0.137634 0.681580
0.418274 0.137634 0.681580
0.556671 0.137634 0.681580
0.688904 0.137634 0.681580
0.813690 0.137634 0.681580
0.931824 0.137634 0.681580
0.029022 0.267273 0.681580
0.137573 0.267273 0.681580
0.276093 0.267273 0.681580
0.418274 0.267273 0.681580
0.556671 0.267273 0.681580
0.688904 0.267273 0.681580
0.813690 0.267273 0.681580
0.931824 0.267273 0.681580
0.029022 0.416412 0.681580
0.137573 0.416412 0.681580
0.276093 0.416412 0.681580
0.418274 0.416412 0.681580
0.556671 0.416412 0.681580
0.688904 0.416412 0.681580
0.813690 0.416412 0.681580
0.931824 0.416412 0.681580
0.029022 0.567444 0.681580
0.137573 0.567444 0.681580
0.276093 0.567444 0.681580
0.418274 0.567444 0.681580
0.556671 0.567444 0.681580
0.688904 0.567444 0.681580
0.813690 0.567444 0.681580
0.931824 0.567444 0.681580
0.029022 0.708801 0.681580
0.137573 0.708801 0.681580
0.276093 0.708801 0.681580
0.418274 0.708801 0.681580
0.556671 0.708801 0.681580
0.688904 0.708801 0.681580
0.813690 0.708801 0.681580
0.931824 0.708801 0.681580
0.029022 0.833008 0.681580
0.137573 0.833008 0.681580
0.276093 0.833008 0.681580
0.418274 0.833008 0.681580
0.556671 0.833008 0.681580
0.688904 0.833008 0.681580
0.813690 0.833008 0.681580
0.931824 0.833008 0.681580
0.029022 0.942413 0.681580
0.137573 0.942413 0.681580
0.276093 0.942413 0.681580
0.418274 0.942413 0.681580
0.556671 0.942413 0.681580
0.688904 0.942413 0.681580
0.813690 0.942413 0.681580
0.931824 0.942413 0.681580
0.029022 0.045135 0.796082
0.137573 0.045135 0.796082
0.276093 0.045135 0.796082
0.418274 0.045135 0.796082
0.556671 0.045135 0.796082
0.688904 0.045135 0.796082
0.813690 0.045135 0.796082
0.931824 0.045135 0.796082
0.029022 0.137634 0.796082
0.137573 0.137634 0.796082
0.276093 0.137634 0.796082
0.418274 0.137634 0.796082
0.556671 0.137634 0.796082
0.688904 0.137634 0.796082
0.813690 0.137634 0.796082
0.931824 0.137634 0.796082
0.029022 0.267273 0.796082
0.137573 0.267273 0.796082
0.276093 0.267273 0.796082
0.418274 0.267273 0.796082
0.556671 0.267273 0.796082
0.688904 0.267273 0.796082
0.813690 0.267273 0.796082
0.931824 0.267273 0.796082
0.029022 0.416412 0.796082
0.137573 0.416412 0.796082
0.276093 0.416412 0.796082
0.418274 0.416412 0.796082
0.556671 0.416412 0.796082
0.688904 0.416412 0.796082
0.813690 0.416412 0.796082
0.931824 0.416412 0.796082
0.029022 0.567444 0.796082
0.137573 0.567444 0.796082
0.276093 0.567444 0.796082
0.418274 0.567444 0.796082
0.556671 0.567444 0.796082
0.688904 0.567444 0.796082
0.813690 0.567444 0.796082
0.931824 0.567444 0.796082
0.029022 0.708801 0.796082
0.137573 0.708801 0.796082
0.276093 0.708801 0.796082
0.418274 0.708801 0.796082
0.556671 0.708801 0.796082
0.688904 0.708801 0.796082
0.813690 0.708801 0.796082
0.931824 0.708801 0.796082
0.029022 0.833008 0.796082
0.137573 0.833008 0.796082
0.276093 0.833008 0.796082
0.418274 0.833008 0.796082
0.556671 0.833008 0.796082
0.688904 0.833008 0.796082
0.813690 0.833008 0.796082
0.931824 0.833008 0.796082
0.029022 0.942413 0.796082
0.137573 0.942413 0.796082
0.276093 0.942413 0.796082
0.418274 0.942413 0.796082
0.556671 0.942413 0.796082
0.688904 0.942413 0.796082
0.813690 0.942413 0.796082
0.931824 0.942413 0.796082
0.029022 0.045135 0.910858
0.137573 0.045135 0.910858
0.276093 0.045135 0.910858
0.418274 0.045135 0.910858
0.556671 0.045135 0.910858
0.688904 0.045135 0.910858
0.813690 0.045135 0.910858
0.931824 0.045135 0.910858
0.029022 0.137634 0.910858
0.137573 0.137634 0.910858
0.276093 0.137634 0.910858
0.418274 0.137634 0.910858
0.556671 0.137634 0.910858
0.688904 0.137634 0.910858
0.813690 0.137634 0.910858
0.931824 0.137634 0.910858
0.029022 0.267273 0.910858
0.137573 0.267273 0.910858
0.276093 0.267273 0.910858
0.418274 0.267273 0.910858
0.556671 0.267273 0.910858
0.688904 0.267273 0.910858
0.813690 0.267273 0.910858
0.931824 0.267273 0.910858
0.029022 0.416412 0.910858
0.137573 0.416412 0.910858
0.276093 0.416412 0.910858
0.418274 0.416412 0.910858
0.556671 0.416412 0.910858
0.688904 0.416412 0.910858
0.813690 0.416412 0.910858
0.931824 0.416412 0.910858
0.029022 0.567444 0.910858
0.137573 0.567444 0.910858
0.276093 0.567444 0.910858
0.418274 0.567444 0.910858
0.556671 0.567444 0.910858
0.688904 0.567444 0.910858
0.813690 0.567444 0.910858
0.931824 0.567444 0.910858
0.029022 0.708801 0.910858
0.137573 0.708801 0.910858
0.276093 0.708801 0.910858
0.418274 0.708801 0.910858
0.556671 0.708801 0.910858
0.688904 0.708801 0.910858
0.813690 0.708801 0.910858
0.931824 0.708801 0.910858
0.029022 0.833008 0.910858
0.137573 0.833008 0.910858
0.276093 0.833008 0.910858
0.418274 0.833008 0.910858
0.556671 0.833008 0.910858
0.688904 0.833008 0.910858
0.813690 0.833008 0.910858
0.931824 0.833008 0.910858
0.029022 0.942413 0.910858
0.137573 0.942413 0.910858
0.276093 0.942413 0.910858
0.418274 0.942413 0.910858
0.556671 0.942413 0.910858
0.688904 0.942413 0.910858
0.813690 0.942413 0.910858
0.931824 0.942413 0.910858
