src/LUT/LUTs/FreeLUTs-CaioBraga/Teal & Orange Cool.CUBE
#Created by: Adobe Photoshop Export Color Lookup Plugin
#Copyright: (C) Copyright 2017 © Caio Braga
TITLE "Teal & Orange Pushed"
#LUT size
LUT_3D_SIZE 5
#data domain
#LUT data points
DOMAIN_MIN 0.000000 0.000000 0.000000
DOMAIN_MAX 0.903226 0.903226 0.903226
0.000000 0.000000 0.000000
0.188965 0.000000 0.000000
0.462524 0.000000 0.000000
0.698578 0.000000 0.000000
0.911987 0.000000 0.000000
0.000000 0.228882 0.000000
0.188965 0.228882 0.000000
0.462524 0.228882 0.000000
0.698578 0.228882 0.000000
0.911987 0.228882 0.000000
0.000000 0.485931 0.000000
0.188965 0.485931 0.000000
0.462524 0.485931 0.000000
0.698578 0.485931 0.000000
0.911987 0.485931 0.000000
0.000000 0.720764 0.000000
0.188965 0.720764 0.000000
0.462524 0.720764 0.000000
0.698578 0.720764 0.000000
0.911987 0.720764 0.000000
0.000000 0.941010 0.000000
0.188965 0.941010 0.000000
0.462524 0.941010 0.000000
0.698578 0.941010 0.000000
0.911987 0.941010 0.000000
0.000000 0.000000 0.255310
0.188965 0.000000 0.255310
0.462524 0.000000 0.255310
0.698578 0.000000 0.255310
0.911987 0.000000 0.255310
0.000000 0.228882 0.255310
0.188965 0.228882 0.255310
0.462524 0.228882 0.255310
0.698578 0.228882 0.255310
0.911987 0.228882 0.255310
0.000000 0.485931 0.255310
0.188965 0.485931 0.255310
0.462524 0.485931 0.255310
0.698578 0.485931 0.255310
0.911987 0.485931 0.255310
0.000000 0.720764 0.255310
0.188965 0.720764 0.255310
0.462524 0.720764 0.255310
0.698578 0.720764 0.255310
0.911987 0.720764 0.255310
0.000000 0.941010 0.255310
0.188965 0.941010 0.255310
0.462524 0.941010 0.255310
0.698578 0.941010 0.255310
0.911987 0.941010 0.255310
0.000000 0.000000 0.512177
0.188965 0.000000 0.512177
0.462524 0.000000 0.512177
0.698578 0.000000 0.512177
0.911987 0.000000 0.512177
0.000000 0.228882 0.512177
0.188965 0.228882 0.512177
0.462524 0.228882 0.512177
0.698578 0.228882 0.512177
0.911987 0.228882 0.512177
0.000000 0.485931 0.512177
0.188965 0.485931 0.512177
0.462524 0.485931 0.512177
0.698578 0.485931 0.512177
0.911987 0.485931 0.512177
0.000000 0.720764 0.512177
0.188965 0.720764 0.512177
0.462524 0.720764 0.512177
0.698578 0.720764 0.512177
0.911987 0.720764 0.512177
0.000000 0.941010 0.512177
0.188965 0.941010 0.512177
0.462524 0.941010 0.512177
0.698578 0.941010 0.512177
0.911987 0.941010 0.512177
0.000000 0.000000 0.749298
0.188965 0.000000 0.749298
0.462524 0.000000 0.749298
0.698578 0.000000 0.749298
0.911987 0.000000 0.749298
0.000000 0.228882 0.749298
0.188965 0.228882 0.749298
0.462524 0.228882 0.749298
0.698578 0.228882 0.749298
0.911987 0.228882 0.749298
0.000000 0.485931 0.749298
0.188965 0.485931 0.749298
0.462524 0.485931 0.749298
0.698578 0.485931 0.749298
0.911987 0.485931 0.749298
0.000000 0.720764 0.749298
0.188965 0.720764 0.749298
0.462524 0.720764 0.749298
0.698578 0.720764 0.749298
0.911987 0.720764 0.749298
0.000000 0.941010 0.749298
0.188965 0.941010 0.749298
0.462524 0.941010 0.749298
0.698578 0.941010 0.749298
0.911987 0.941010 0.749298
0.000000 0.000000 0.974121
0.188965 0.000000 0.974121
0.462524 0.000000 0.974121
0.698578 0.000000 0.974121
0.911987 0.000000 0.974121
0.000000 0.228882 0.974121
0.188965 0.228882 0.974121
0.462524 0.228882 0.974121
0.698578 0.228882 0.974121
0.911987 0.228882 0.974121
0.000000 0.485931 0.974121
0.188965 0.485931 0.974121
0.462524 0.485931 0.974121
0.698578 0.485931 0.974121
0.911987 0.485931 0.974121
0.000000 0.720764 0.974121
0.188965 0.720764 0.974121
0.462524 0.720764 0.974121
0.698578 0.720764 0.974121
0.911987 0.720764 0.974121
0.000000 0.941010 0.974121
0.188965 0.941010 0.974121
0.462524 0.941010 0.974121
0.698578 0.941010 0.974121
0.911987 0.941010 0.974121
