src/LUT/LUTs/FreeLUTs-CaioBraga/Teal & Orange Cool.CUBE
#Created by: Adobe Photoshop Export Color Lookup Plugin
#Copyright: (C) Copyright 2017 © Caio Braga
TITLE "Teal & Orange Pushed"
#LUT size
LUT_3D_SIZE 32
#data domain
DOMAIN_MIN 0.0 0.0 0.0
DOMAIN_MAX 1.0 1.0 1.0
#LUT data points
0.000000 0.000000 0.000000
0.000000 0.000000 0.000000
0.000000 0.000000 0.000000
0.011200 0.000000 0.000000
0.058563 0.000000 0.000000
0.103271 0.000000 0.000000
0.146606 0.000000 0.000000
0.188965 0.000000 0.000000
0.230408 0.000000 0.000000
0.271088 0.000000 0.000000
0.310913 0.000000 0.000000
0.350006 0.000000 0.000000
0.388275 0.000000 0.000000
0.425842 0.000000 0.000000
0.462524 0.000000 0.000000
0.498260 0.000000 0.000000
0.533295 0.000000 0.000000
0.567566 0.000000 0.000000
0.601166 0.000000 0.000000
0.634186 0.000000 0.000000
0.666626 0.000000 0.000000
0.698578 0.000000 0.000000
0.730072 0.000000 0.000000
0.761108 0.000000 0.000000
0.791870 0.000000 0.000000
0.822266 0.000000 0.000000
0.852509 0.000000 0.000000
0.882355 0.000000 0.000000
0.911987 0.000000 0.000000
0.941437 0.000000 0.000000
0.970795 0.000000 0.000000
1.000000 0.000000 0.000000
0.000000 0.005035 0.000000
0.000000 0.005035 0.000000
0.000000 0.005035 0.000000
0.011200 0.005035 0.000000
0.058563 0.005035 0.000000
0.103271 0.005035 0.000000
0.146606 0.005035 0.000000
0.188965 0.005035 0.000000
0.230408 0.005035 0.000000
0.271088 0.005035 0.000000
0.310913 0.005035 0.000000
0.350006 0.005035 0.000000
0.388275 0.005035 0.000000
0.425842 0.005035 0.000000
0.462524 0.005035 0.000000
0.498260 0.005035 0.000000
0.533295 0.005035 0.000000
0.567566 0.005035 0.000000
0.601166 0.005035 0.000000
0.634186 0.005035 0.000000
0.666626 0.005035 0.000000
0.698578 0.005035 0.000000
0.730072 0.005035 0.000000
0.761108 0.005035 0.000000
0.791870 0.005035 0.000000
0.822266 0.005035 0.000000
0.852509 0.005035 0.000000
0.882355 0.005035 0.000000
0.911987 0.005035 0.000000
0.941437 0.005035 0.000000
0.970795 0.005035 0.000000
1.000000 0.005035 0.000000
0.000000 0.041016 0.000000
0.000000 0.041016 0.000000
0.000000 0.041016 0.000000
0.011200 0.041016 0.000000
0.058563 0.041016 0.000000
0.103271 0.041016 0.000000
0.146606 0.041016 0.000000
0.188965 0.041016 0.000000
0.230408 0.041016 0.000000
0.271088 0.041016 0.000000
0.310913 0.041016 0.000000
0.350006 0.041016 0.000000
0.388275 0.041016 0.000000
0.425842 0.041016 0.000000
0.462524 0.041016 0.000000
0.498260 0.041016 0.000000
0.533295 0.041016 0.000000
0.567566 0.041016 0.000000
0.601166 0.041016 0.000000
0.634186 0.041016 0.000000
0.666626 0.041016 0.000000
0.698578 0.041016 0.000000
0.730072 0.041016 0.000000
0.761108 0.041016 0.000000
0.791870 0.041016 0.000000
0.822266 0.041016 0.000000
0.852509 0.041016 0.000000
0.882355 0.041016 0.000000
0.911987 0.041016 0.000000
0.941437 0.041016 0.000000
0.970795 0.041016 0.000000
1.000000 0.041016 0.000000
0.000000 0.078094 0.000000
0.000000 0.078094 0.000000
0.000000 0.078094 0.000000
0.011200 0.078094 0.000000
0.058563 0.078094 0.000000
0.103271 0.078094 0.000000
0.146606 0.078094 0.000000
0.188965 0.078094 0.000000
0.230408 0.078094 0.000000
0.271088 0.078094 0.000000
0.310913 0.078094 0.000000
0.350006 0.078094 0.000000
0.388275 0.078094 0.000000
0.425842 0.078094 0.000000
0.462524 0.078094 0.000000
0.498260 0.078094 0.000000
0.533295 0.078094 0.000000
0.567566 0.078094 0.000000
0.601166 0.078094 0.000000
0.634186 0.078094 0.000000
0.666626 0.078094 0.000000
0.698578 0.078094 0.000000
0.730072 0.078094 0.000000
0.761108 0.078094 0.000000
0.791870 0.078094 0.000000
0.822266 0.078094 0.000000
0.852509 0.078094 0.000000
0.882355 0.078094 0.000000
0.911987 0.078094 0.000000
0.941437 0.078094 0.000000
0.970795 0.078094 0.000000
1.000000 0.078094 0.000000
0.000000 0.115662 0.000000
0.000000 0.115662 0.000000
0.000000 0.115662 0.000000
0.011200 0.115662 0.000000
0.058563 0.115662 0.000000
0.103271 0.115662 0.000000
0.146606 0.115662 0.000000
0.188965 0.115662 0.000000
0.230408 0.115662 0.000000
0.271088 0.115662 0.000000
0.310913 0.115662 0.000000
0.350006 0.115662 0.000000
0.388275 0.115662 0.000000
0.425842 0.115662 0.000000
0.462524 0.115662 0.000000
0.498260 0.115662 0.000000
0.533295 0.115662 0.000000
0.567566 0.115662 0.000000
0.601166 0.115662 0.000000
0.634186 0.115662 0.000000
0.666626 0.115662 0.000000
0.698578 0.115662 0.000000
0.730072 0.115662 0.000000
0.761108 0.115662 0.000000
0.791870 0.115662 0.000000
0.822266 0.115662 0.000000
0.852509 0.115662 0.000000
0.882355 0.115662 0.000000
0.911987 0.115662 0.000000
0.941437 0.115662 0.000000
0.970795 0.115662 0.000000
1.000000 0.115662 0.000000
0.000000 0.153412 0.000000
0.000000 0.153412 0.000000
0.000000 0.153412 0.000000
0.011200 0.153412 0.000000
0.058563 0.153412 0.000000
0.103271 0.153412 0.000000
0.146606 0.153412 0.000000
0.188965 0.153412 0.000000
0.230408 0.153412 0.000000
0.271088 0.153412 0.000000
0.310913 0.153412 0.000000
0.350006 0.153412 0.000000
0.388275 0.153412 0.000000
0.425842 0.153412 0.000000
0.462524 0.153412 0.000000
0.498260 0.153412 0.000000
0.533295 0.153412 0.000000
0.567566 0.153412 0.000000
0.601166 0.153412 0.000000
0.634186 0.153412 0.000000
0.666626 0.153412 0.000000
0.698578 0.153412 0.000000
0.730072 0.153412 0.000000
0.761108 0.153412 0.000000
0.791870 0.153412 0.000000
0.822266 0.153412 0.000000
0.852509 0.153412 0.000000
0.882355 0.153412 0.000000
0.911987 0.153412 0.000000
0.941437 0.153412 0.000000
0.970795 0.153412 0.000000
1.000000 0.153412 0.000000
0.000000 0.191284 0.000000
0.000000 0.191284 0.000000
0.000000 0.191284 0.000000
0.011200 0.191284 0.000000
0.058563 0.191284 0.000000
0.103271 0.191284 0.000000
0.146606 0.191284 0.000000
0.188965 0.191284 0.000000
0.230408 0.191284 0.000000
0.271088 0.191284 0.000000
0.310913 0.191284 0.000000
0.350006 0.191284 0.000000
0.388275 0.191284 0.000000
0.425842 0.191284 0.000000
0.462524 0.191284 0.000000
0.498260 0.191284 0.000000
0.533295 0.191284 0.000000
0.567566 0.191284 0.000000
0.601166 0.191284 0.000000
0.634186 0.191284 0.000000
0.666626 0.191284 0.000000
0.698578 0.191284 0.000000
0.730072 0.191284 0.000000
0.761108 0.191284 0.000000
0.791870 0.191284 0.000000
0.822266 0.191284 0.000000
0.852509 0.191284 0.000000
0.882355 0.191284 0.000000
0.911987 0.191284 0.000000
0.941437 0.191284 0.000000
0.970795 0.191284 0.000000
1.000000 0.191284 0.000000
0.000000 0.228882 0.000000
0.000000 0.228882 0.000000
0.000000 0.228882 0.000000
0.011200 0.228882 0.000000
0.058563 0.228882 0.000000
0.103271 0.228882 0.000000
0.146606 0.228882 0.000000
0.188965 0.228882 0.000000
0.230408 0.228882 0.000000
0.271088 0.228882 0.000000
0.310913 0.228882 0.000000
0.350006 0.228882 0.000000
0.388275 0.228882 0.000000
0.425842 0.228882 0.000000
0.462524 0.228882 0.000000
0.498260 0.228882 0.000000
0.533295 0.228882 0.000000
0.567566 0.228882 0.000000
0.601166 0.228882 0.000000
0.634186 0.228882 0.000000
0.666626 0.228882 0.000000
0.698578 0.228882 0.000000
0.730072 0.228882 0.000000
0.761108 0.228882 0.000000
0.791870 0.228882 0.000000
0.822266 0.228882 0.000000
0.852509 0.228882 0.000000
0.882355 0.228882 0.000000
0.911987 0.228882 0.000000
0.941437 0.228882 0.000000
0.970795 0.228882 0.000000
1.000000 0.228882 0.000000
0.000000 0.266602 0.000000
0.000000 0.266602 0.000000
0.000000 0.266602 0.000000
0.011200 0.266602 0.000000
0.058563 0.266602 0.000000
0.103271 0.266602 0.000000
0.146606 0.266602 0.000000
0.188965 0.266602 0.000000
0.230408 0.266602 0.000000
0.271088 0.266602 0.000000
0.310913 0.266602 0.000000
0.350006 0.266602 0.000000
0.388275 0.266602 0.000000
0.425842 0.266602 0.000000
0.462524 0.266602 0.000000
0.498260 0.266602 0.000000
0.533295 0.266602 0.000000
0.567566 0.266602 0.000000
0.601166 0.266602 0.000000
0.634186 0.266602 0.000000
0.666626 0.266602 0.000000
0.698578 0.266602 0.000000
0.730072 0.266602 0.000000
0.761108 0.266602 0.000000
0.791870 0.266602 0.000000
0.822266 0.266602 0.000000
0.852509 0.266602 0.000000
0.882355 0.266602 0.000000
0.911987 0.266602 0.000000
0.941437 0.266602 0.000000
0.970795 0.266602 0.000000
1.000000 0.266602 0.000000
0.000000 0.304138 0.000000
0.000000 0.304138 0.000000
0.000000 0.304138 0.000000
0.011200 0.304138 0.000000
0.058563 0.304138 0.000000
0.103271 0.304138 0.000000
0.146606 0.304138 0.000000
0.188965 0.304138 0.000000
0.230408 0.304138 0.000000
0.271088 0.304138 0.000000
0.310913 0.304138 0.000000
0.350006 0.304138 0.000000
0.388275 0.304138 0.000000
0.425842 0.304138 0.000000
0.462524 0.304138 0.000000
0.498260 0.304138 0.000000
0.533295 0.304138 0.000000
0.567566 0.304138 0.000000
0.601166 0.304138 0.000000
0.634186 0.304138 0.000000
0.666626 0.304138 0.000000
0.698578 0.304138 0.000000
0.730072 0.304138 0.000000
0.761108 0.304138 0.000000
0.791870 0.304138 0.000000
0.822266 0.304138 0.000000
0.852509 0.304138 0.000000
0.882355 0.304138 0.000000
0.911987 0.304138 0.000000
0.941437 0.304138 0.000000
0.970795 0.304138 0.000000
1.000000 0.304138 0.000000
0.000000 0.341400 0.000000
0.000000 0.341400 0.000000
0.000000 0.341400 0.000000
0.011200 0.341400 0.000000
0.058563 0.341400 0.000000
0.103271 0.341400 0.000000
0.146606 0.341400 0.000000
0.188965 0.341400 0.000000
0.230408 0.341400 0.000000
0.271088 0.341400 0.000000
0.310913 0.341400 0.000000
0.350006 0.341400 0.000000
0.388275 0.341400 0.000000
0.425842 0.341400 0.000000
0.462524 0.341400 0.000000
0.498260 0.341400 0.000000
0.533295 0.341400 0.000000
0.567566 0.341400 0.000000
0.601166 0.341400 0.000000
0.634186 0.341400 0.000000
0.666626 0.341400 0.000000
0.698578 0.341400 0.000000
0.730072 0.341400 0.000000
0.761108 0.341400 0.000000
0.791870 0.341400 0.000000
0.822266 0.341400 0.000000
0.852509 0.341400 0.000000
0.882355 0.341400 0.000000
0.911987 0.341400 0.000000
0.941437 0.341400 0.000000
0.970795 0.341400 0.000000
1.000000 0.341400 0.000000
0.000000 0.378296 0.000000
0.000000 0.378296 0.000000
0.000000 0.378296 0.000000
0.011200 0.378296 0.000000
0.058563 0.378296 0.000000
0.103271 0.378296 0.000000
0.146606 0.378296 0.000000
0.188965 0.378296 0.000000
0.230408 0.378296 0.000000
0.271088 0.378296 0.000000
0.310913 0.378296 0.000000
0.350006 0.378296 0.000000
0.388275 0.378296 0.000000
0.425842 0.378296 0.000000
0.462524 0.378296 0.000000
0.498260 0.378296 0.000000
0.533295 0.378296 0.000000
0.567566 0.378296 0.000000
0.601166 0.378296 0.000000
0.634186 0.378296 0.000000
0.666626 0.378296 0.000000
0.698578 0.378296 0.000000
0.730072 0.378296 0.000000
0.761108 0.378296 0.000000
0.791870 0.378296 0.000000
0.822266 0.378296 0.000000
0.852509 0.378296 0.000000
0.882355 0.378296 0.000000
0.911987 0.378296 0.000000
0.941437 0.378296 0.000000
0.970795 0.378296 0.000000
1.000000 0.378296 0.000000
0.000000 0.414734 0.000000
0.000000 0.414734 0.000000
0.000000 0.414734 0.000000
0.011200 0.414734 0.000000
0.058563 0.414734 0.000000
0.103271 0.414734 0.000000
0.146606 0.414734 0.000000
0.188965 0.414734 0.000000
0.230408 0.414734 0.000000
0.271088 0.414734 0.000000
0.310913 0.414734 0.000000
0.350006 0.414734 0.000000
0.388275 0.414734 0.000000
0.425842 0.414734 0.000000
0.462524 0.414734 0.000000
0.498260 0.414734 0.000000
0.533295 0.414734 0.000000
0.567566 0.414734 0.000000
0.601166 0.414734 0.000000
0.634186 0.414734 0.000000
0.666626 0.414734 0.000000
0.698578 0.414734 0.000000
0.730072 0.414734 0.000000
0.761108 0.414734 0.000000
0.791870 0.414734 0.000000
0.822266 0.414734 0.000000
0.852509 0.414734 0.000000
0.882355 0.414734 0.000000
0.911987 0.414734 0.000000
0.941437 0.414734 0.000000
0.970795 0.414734 0.000000
1.000000 0.414734 0.000000
0.000000 0.450623 0.000000
0.000000 0.450623 0.000000
0.000000 0.450623 0.000000
0.011200 0.450623 0.000000
0.058563 0.450623 0.000000
0.103271 0.450623 0.000000
0.146606 0.450623 0.000000
0.188965 0.450623 0.000000
0.230408 0.450623 0.000000
0.271088 0.450623 0.000000
0.310913 0.450623 0.000000
0.350006 0.450623 0.000000
0.388275 0.450623 0.000000
0.425842 0.450623 0.000000
0.462524 0.450623 0.000000
0.498260 0.450623 0.000000
0.533295 0.450623 0.000000
0.567566 0.450623 0.000000
0.601166 0.450623 0.000000
0.634186 0.450623 0.000000
0.666626 0.450623 0.000000
0.698578 0.450623 0.000000
0.730072 0.450623 0.000000
0.761108 0.450623 0.000000
0.791870 0.450623 0.000000
0.822266 0.450623 0.000000
0.852509 0.450623 0.000000
0.882355 0.450623 0.000000
0.911987 0.450623 0.000000
0.941437 0.450623 0.000000
0.970795 0.450623 0.000000
1.000000 0.450623 0.000000
0.000000 0.485931 0.000000
0.000000 0.485931 0.000000
0.000000 0.485931 0.000000
0.011200 0.485931 0.000000
0.058563 0.485931 0.000000
0.103271 0.485931 0.000000
0.146606 0.485931 0.000000
0.188965 0.485931 0.000000
0.230408 0.485931 0.000000
0.271088 0.485931 0.000000
0.310913 0.485931 0.000000
0.350006 0.485931 0.000000
0.388275 0.485931 0.000000
0.425842 0.485931 0.000000
0.462524 0.485931 0.000000
0.498260 0.485931 0.000000
0.533295 0.485931 0.000000
0.567566 0.485931 0.000000
0.601166 0.485931 0.000000
0.634186 0.485931 0.000000
0.666626 0.485931 0.000000
0.698578 0.485931 0.000000
0.730072 0.485931 0.000000
0.761108 0.485931 0.000000
0.791870 0.485931 0.000000
0.822266 0.485931 0.000000
0.852509 0.485931 0.000000
0.882355 0.485931 0.000000
0.911987 0.485931 0.000000
0.941437 0.485931 0.000000
0.970795 0.485931 0.000000
1.000000 0.485931 0.000000
0.000000 0.520844 0.000000
0.000000 0.520844 0.000000
0.000000 0.520844 0.000000
0.011200 0.520844 0.000000
0.058563 0.520844 0.000000
0.103271 0.520844 0.000000
0.146606 0.520844 0.000000
0.188965 0.520844 0.000000
0.230408 0.520844 0.000000
0.271088 0.520844 0.000000
0.310913 0.520844 0.000000
0.350006 0.520844 0.000000
0.388275 0.520844 0.000000
0.425842 0.520844 0.000000
0.462524 0.520844 0.000000
0.498260 0.520844 0.000000
0.533295 0.520844 0.000000
0.567566 0.520844 0.000000
0.601166 0.520844 0.000000
0.634186 0.520844 0.000000
0.666626 0.520844 0.000000
0.698578 0.520844 0.000000
0.730072 0.520844 0.000000
0.761108 0.520844 0.000000
0.791870 0.520844 0.000000
0.822266 0.520844 0.000000
0.852509 0.520844 0.000000
0.882355 0.520844 0.000000
0.911987 0.520844 0.000000
0.941437 0.520844 0.000000
0.970795 0.520844 0.000000
1.000000 0.520844 0.000000
0.000000 0.555267 0.000000
0.000000 0.555267 0.000000
0.000000 0.555267 0.000000
0.011200 0.555267 0.000000
0.058563 0.555267 0.000000
0.103271 0.555267 0.000000
0.146606 0.555267 0.000000
0.188965 0.555267 0.000000
0.230408 0.555267 0.000000
0.271088 0.555267 0.000000
0.310913 0.555267 0.000000
0.350006 0.555267 0.000000
0.388275 0.555267 0.000000
0.425842 0.555267 0.000000
0.462524 0.555267 0.000000
0.498260 0.555267 0.000000
0.533295 0.555267 0.000000
0.567566 0.555267 0.000000
0.601166 0.555267 0.000000
0.634186 0.555267 0.000000
0.666626 0.555267 0.000000
0.698578 0.555267 0.000000
0.730072 0.555267 0.000000
0.761108 0.555267 0.000000
0.791870 0.555267 0.000000
0.822266 0.555267 0.000000
0.852509 0.555267 0.000000
0.882355 0.555267 0.000000
0.911987 0.555267 0.000000
0.941437 0.555267 0.000000
0.970795 0.555267 0.000000
1.000000 0.555267 0.000000
0.000000 0.589233 0.000000
0.000000 0.589233 0.000000
0.000000 0.589233 0.000000
0.011200 0.589233 0.000000
0.058563 0.589233 0.000000
0.103271 0.589233 0.000000
0.146606 0.589233 0.000000
0.188965 0.589233 0.000000
0.230408 0.589233 0.000000
0.271088 0.589233 0.000000
0.310913 0.589233 0.000000
0.350006 0.589233 0.000000
0.388275 0.589233 0.000000
0.425842 0.589233 0.000000
0.462524 0.589233 0.000000
0.498260 0.589233 0.000000
0.533295 0.589233 0.000000
0.567566 0.589233 0.000000
0.601166 0.589233 0.000000
0.634186 0.589233 0.000000
0.666626 0.589233 0.000000
0.698578 0.589233 0.000000
0.730072 0.589233 0.000000
0.761108 0.589233 0.000000
0.791870 0.589233 0.000000
0.822266 0.589233 0.000000
0.852509 0.589233 0.000000
0.882355 0.589233 0.000000
0.911987 0.589233 0.000000
0.941437 0.589233 0.000000
0.970795 0.589233 0.000000
1.000000 0.589233 0.000000
0.000000 0.622742 0.000000
0.000000 0.622742 0.000000
0.000000 0.622742 0.000000
0.011200 0.622742 0.000000
0.058563 0.622742 0.000000
0.103271 0.622742 0.000000
0.146606 0.622742 0.000000
0.188965 0.622742 0.000000
0.230408 0.622742 0.000000
0.271088 0.622742 0.000000
0.310913 0.622742 0.000000
0.350006 0.622742 0.000000
0.388275 0.622742 0.000000
0.425842 0.622742 0.000000
0.462524 0.622742 0.000000
0.498260 0.622742 0.000000
0.533295 0.622742 0.000000
0.567566 0.622742 0.000000
0.601166 0.622742 0.000000
0.634186 0.622742 0.000000
0.666626 0.622742 0.000000
0.698578 0.622742 0.000000
0.730072 0.622742 0.000000
0.761108 0.622742 0.000000
0.791870 0.622742 0.000000
0.822266 0.622742 0.000000
0.852509 0.622742 0.000000
0.882355 0.622742 0.000000
0.911987 0.622742 0.000000
0.941437 0.622742 0.000000
0.970795 0.622742 0.000000
1.000000 0.622742 0.000000
0.000000 0.655853 0.000000
0.000000 0.655853 0.000000
0.000000 0.655853 0.000000
0.011200 0.655853 0.000000
0.058563 0.655853 0.000000
0.103271 0.655853 0.000000
0.146606 0.655853 0.000000
0.188965 0.655853 0.000000
0.230408 0.655853 0.000000
0.271088 0.655853 0.000000
0.310913 0.655853 0.000000
0.350006 0.655853 0.000000
0.388275 0.655853 0.000000
0.425842 0.655853 0.000000
0.462524 0.655853 0.000000
0.498260 0.655853 0.000000
0.533295 0.655853 0.000000
0.567566 0.655853 0.000000
0.601166 0.655853 0.000000
0.634186 0.655853 0.000000
0.666626 0.655853 0.000000
0.698578 0.655853 0.000000
0.730072 0.655853 0.000000
0.761108 0.655853 0.000000
0.791870 0.655853 0.000000
0.822266 0.655853 0.000000
0.852509 0.655853 0.000000
0.882355 0.655853 0.000000
0.911987 0.655853 0.000000
0.941437 0.655853 0.000000
0.970795 0.655853 0.000000
1.000000 0.655853 0.000000
0.000000 0.688354 0.000000
0.000000 0.688354 0.000000
0.000000 0.688354 0.000000
0.011200 0.688354 0.000000
0.058563 0.688354 0.000000
0.103271 0.688354 0.000000
0.146606 0.688354 0.000000
0.188965 0.688354 0.000000
0.230408 0.688354 0.000000
0.271088 0.688354 0.000000
0.310913 0.688354 0.000000
0.350006 0.688354 0.000000
0.388275 0.688354 0.000000
0.425842 0.688354 0.000000
0.462524 0.688354 0.000000
0.498260 0.688354 0.000000
0.533295 0.688354 0.000000
0.567566 0.688354 0.000000
0.601166 0.688354 0.000000
0.634186 0.688354 0.000000
0.666626 0.688354 0.000000
0.698578 0.688354 0.000000
0.730072 0.688354 0.000000
0.761108 0.688354 0.000000
0.791870 0.688354 0.000000
0.822266 0.688354 0.000000
0.852509 0.688354 0.000000
0.882355 0.688354 0.000000
0.911987 0.688354 0.000000
0.941437 0.688354 0.000000
0.970795 0.688354 0.000000
1.000000 0.688354 0.000000
0.000000 0.720764 0.000000
0.000000 0.720764 0.000000
0.000000 0.720764 0.000000
0.011200 0.720764 0.000000
0.058563 0.720764 0.000000
0.103271 0.720764 0.000000
0.146606 0.720764 0.000000
0.188965 0.720764 0.000000
0.230408 0.720764 0.000000
0.271088 0.720764 0.000000
0.310913 0.720764 0.000000
0.350006 0.720764 0.000000
0.388275 0.720764 0.000000
0.425842 0.720764 0.000000
0.462524 0.720764 0.000000
0.498260 0.720764 0.000000
0.533295 0.720764 0.000000
0.567566 0.720764 0.000000
0.601166 0.720764 0.000000
0.634186 0.720764 0.000000
0.666626 0.720764 0.000000
0.698578 0.720764 0.000000
0.730072 0.720764 0.000000
0.761108 0.720764 0.000000
0.791870 0.720764 0.000000
0.822266 0.720764 0.000000
0.852509 0.720764 0.000000
0.882355 0.720764 0.000000
0.911987 0.720764 0.000000
0.941437 0.720764 0.000000
0.970795 0.720764 0.000000
1.000000 0.720764 0.000000
0.000000 0.752899 0.000000
0.000000 0.752899 0.000000
0.000000 0.752899 0.000000
0.011200 0.752899 0.000000
0.058563 0.752899 0.000000
0.103271 0.752899 0.000000
0.146606 0.752899 0.000000
0.188965 0.752899 0.000000
0.230408 0.752899 0.000000
0.271088 0.752899 0.000000
0.310913 0.752899 0.000000
0.350006 0.752899 0.000000
0.388275 0.752899 0.000000
0.425842 0.752899 0.000000
0.462524 0.752899 0.000000
0.498260 0.752899 0.000000
0.533295 0.752899 0.000000
0.567566 0.752899 0.000000
0.601166 0.752899 0.000000
0.634186 0.752899 0.000000
0.666626 0.752899 0.000000
0.698578 0.752899 0.000000
0.730072 0.752899 0.000000
0.761108 0.752899 0.000000
0.791870 0.752899 0.000000
0.822266 0.752899 0.000000
0.852509 0.752899 0.000000
0.882355 0.752899 0.000000
0.911987 0.752899 0.000000
0.941437 0.752899 0.000000
0.970795 0.752899 0.000000
1.000000 0.752899 0.000000
0.000000 0.784729 0.000000
0.000000 0.784729 0.000000
0.000000 0.784729 0.000000
0.011200 0.784729 0.000000
0.058563 0.784729 0.000000
0.103271 0.784729 0.000000
0.146606 0.784729 0.000000
0.188965 0.784729 0.000000
0.230408 0.784729 0.000000
0.271088 0.784729 0.000000
0.310913 0.784729 0.000000
0.350006 0.784729 0.000000
0.388275 0.784729 0.000000
0.425842 0.784729 0.000000
0.462524 0.784729 0.000000
0.498260 0.784729 0.000000
0.533295 0.784729 0.000000
0.567566 0.784729 0.000000
0.601166 0.784729 0.000000
0.634186 0.784729 0.000000
0.666626 0.784729 0.000000
0.698578 0.784729 0.000000
0.730072 0.784729 0.000000
0.761108 0.784729 0.000000
0.791870 0.784729 0.000000
0.822266 0.784729 0.000000
0.852509 0.784729 0.000000
0.882355 0.784729 0.000000
0.911987 0.784729 0.000000
0.941437 0.784729 0.000000
0.970795 0.784729 0.000000
1.000000 0.784729 0.000000
0.000000 0.816345 0.000000
0.000000 0.816345 0.000000
0.000000 0.816345 0.000000
0.011200 0.816345 0.000000
0.058563 0.816345 0.000000
0.103271 0.816345 0.000000
0.146606 0.816345 0.000000
0.188965 0.816345 0.000000
0.230408 0.816345 0.000000
0.271088 0.816345 0.000000
0.310913 0.816345 0.000000
0.350006 0.816345 0.000000
0.388275 0.816345 0.000000
0.425842 0.816345 0.000000
0.462524 0.816345 0.000000
0.498260 0.816345 0.000000
0.533295 0.816345 0.000000
0.567566 0.816345 0.000000
0.601166 0.816345 0.000000
0.634186 0.816345 0.000000
0.666626 0.816345 0.000000
0.698578 0.816345 0.000000
0.730072 0.816345 0.000000
0.761108 0.816345 0.000000
0.791870 0.816345 0.000000
0.822266 0.816345 0.000000
0.852509 0.816345 0.000000
0.882355 0.816345 0.000000
0.911987 0.816345 0.000000
0.941437 0.816345 0.000000
0.970795 0.816345 0.000000
1.000000 0.816345 0.000000
0.000000 0.847748 0.000000
0.000000 0.847748 0.000000
0.000000 0.847748 0.000000
0.011200 0.847748 0.000000
0.058563 0.847748 0.000000
0.103271 0.847748 0.000000
0.146606 0.847748 0.000000
0.188965 0.847748 0.000000
0.230408 0.847748 0.000000
0.271088 0.847748 0.000000
0.310913 0.847748 0.000000
0.350006 0.847748 0.000000
0.388275 0.847748 0.000000
0.425842 0.847748 0.000000
0.462524 0.847748 0.000000
0.498260 0.847748 0.000000
0.533295 0.847748 0.000000
0.567566 0.847748 0.000000
0.601166 0.847748 0.000000
0.634186 0.847748 0.000000
0.666626 0.847748 0.000000
0.698578 0.847748 0.000000
0.730072 0.847748 0.000000
0.761108 0.847748 0.000000
0.791870 0.847748 0.000000
0.822266 0.847748 0.000000
0.852509 0.847748 0.000000
0.882355 0.847748 0.000000
0.911987 0.847748 0.000000
0.941437 0.847748 0.000000
0.970795 0.847748 0.000000
1.000000 0.847748 0.000000
0.000000 0.878906 0.000000
0.000000 0.878906 0.000000
0.000000 0.878906 0.000000
0.011200 0.878906 0.000000
0.058563 0.878906 0.000000
0.103271 0.878906 0.000000
0.146606 0.878906 0.000000
0.188965 0.878906 0.000000
0.230408 0.878906 0.000000
0.271088 0.878906 0.000000
0.310913 0.878906 0.000000
0.350006 0.878906 0.000000
0.388275 0.878906 0.000000
0.425842 0.878906 0.000000
0.462524 0.878906 0.000000
0.498260 0.878906 0.000000
0.533295 0.878906 0.000000
0.567566 0.878906 0.000000
0.601166 0.878906 0.000000
0.634186 0.878906 0.000000
0.666626 0.878906 0.000000
0.698578 0.878906 0.000000
0.730072 0.878906 0.000000
0.761108 0.878906 0.000000
0.791870 0.878906 0.000000
0.822266 0.878906 0.000000
0.852509 0.878906 0.000000
0.882355 0.878906 0.000000
0.911987 0.878906 0.000000
0.941437 0.878906 0.000000
0.970795 0.878906 0.000000
1.000000 0.878906 0.000000
0.000000 0.909943 0.000000
0.000000 0.909943 0.000000
0.000000 0.909943 0.000000
0.011200 0.909943 0.000000
0.058563 0.909943 0.000000
0.103271 0.909943 0.000000
0.146606 0.909943 0.000000
0.188965 0.909943 0.000000
0.230408 0.909943 0.000000
0.271088 0.909943 0.000000
0.310913 0.909943 0.000000
0.350006 0.909943 0.000000
0.388275 0.909943 0.000000
0.425842 0.909943 0.000000
0.462524 0.909943 0.000000
0.498260 0.909943 0.000000
