src/LUT/LUTs/FreeLUTs-CaioBraga/Teal & Orange Warm.CUBE
#Created by: Adobe Photoshop Export Color Lookup Plugin
#Copyright: (C) Copyright 2017 © Caio Braga
TITLE "Teal & Orange Light"
#LUT size
LUT_3D_SIZE 5
#data domain
#LUT data points
DOMAIN_MIN 0.000000 0.000000 0.000000
DOMAIN_MAX 0.903226 0.903226 0.903226
0.029022 0.045135 0.027008
0.240082 0.045135 0.027008
0.488159 0.045135 0.027008
0.720551 0.045135 0.027008
0.931824 0.045135 0.027008
0.029022 0.231781 0.027008
0.240082 0.231781 0.027008
0.488159 0.231781 0.027008
0.720551 0.231781 0.027008
0.931824 0.231781 0.027008
0.029022 0.492401 0.027008
0.240082 0.492401 0.027008
0.488159 0.492401 0.027008
0.720551 0.492401 0.027008
0.931824 0.492401 0.027008
0.029022 0.741608 0.027008
0.240082 0.741608 0.027008
0.488159 0.741608 0.027008
0.720551 0.741608 0.027008
0.931824 0.741608 0.027008
0.029022 0.942413 0.027008
0.240082 0.942413 0.027008
0.488159 0.942413 0.027008
0.720551 0.942413 0.027008
0.931824 0.942413 0.027008
0.029022 0.045135 0.257629
0.240082 0.045135 0.257629
0.488159 0.045135 0.257629
0.720551 0.045135 0.257629
0.931824 0.045135 0.257629
0.029022 0.231781 0.257629
0.240082 0.231781 0.257629
0.488159 0.231781 0.257629
0.720551 0.231781 0.257629
0.931824 0.231781 0.257629
0.029022 0.492401 0.257629
0.240082 0.492401 0.257629
0.488159 0.492401 0.257629
0.720551 0.492401 0.257629
0.931824 0.492401 0.257629
0.029022 0.741608 0.257629
0.240082 0.741608 0.257629
0.488159 0.741608 0.257629
0.720551 0.741608 0.257629
0.931824 0.741608 0.257629
0.029022 0.942413 0.257629
0.240082 0.942413 0.257629
0.488159 0.942413 0.257629
0.720551 0.942413 0.257629
0.931824 0.942413 0.257629
0.029022 0.045135 0.498047
0.240082 0.045135 0.498047
0.488159 0.045135 0.498047
0.720551 0.045135 0.498047
0.931824 0.045135 0.498047
0.029022 0.231781 0.498047
0.240082 0.231781 0.498047
0.488159 0.231781 0.498047
0.720551 0.231781 0.498047
0.931824 0.231781 0.498047
0.029022 0.492401 0.498047
0.240082 0.492401 0.498047
0.488159 0.492401 0.498047
0.720551 0.492401 0.498047
0.931824 0.492401 0.498047
0.029022 0.741608 0.498047
0.240082 0.741608 0.498047
0.488159 0.741608 0.498047
0.720551 0.741608 0.498047
0.931824 0.741608 0.498047
0.029022 0.942413 0.498047
0.240082 0.942413 0.498047
0.488159 0.942413 0.498047
0.720551 0.942413 0.498047
0.931824 0.942413 0.498047
0.029022 0.045135 0.710480
0.240082 0.045135 0.710480
0.488159 0.045135 0.710480
0.720551 0.045135 0.710480
0.931824 0.045135 0.710480
0.029022 0.231781 0.710480
0.240082 0.231781 0.710480
0.488159 0.231781 0.710480
0.720551 0.231781 0.710480
0.931824 0.231781 0.710480
0.029022 0.492401 0.710480
0.240082 0.492401 0.710480
0.488159 0.492401 0.710480
0.720551 0.492401 0.710480
0.931824 0.492401 0.710480
0.029022 0.741608 0.710480
0.240082 0.741608 0.710480
0.488159 0.741608 0.710480
0.720551 0.741608 0.710480
0.931824 0.741608 0.710480
0.029022 0.942413 0.710480
0.240082 0.942413 0.710480
0.488159 0.942413 0.710480
0.720551 0.942413 0.710480
0.931824 0.942413 0.710480
0.029022 0.045135 0.910858
0.240082 0.045135 0.910858
0.488159 0.045135 0.910858
0.720551 0.045135 0.910858
0.931824 0.045135 0.910858
0.029022 0.231781 0.910858
0.240082 0.231781 0.910858
0.488159 0.231781 0.910858
0.720551 0.231781 0.910858
0.931824 0.231781 0.910858
0.029022 0.492401 0.910858
0.240082 0.492401 0.910858
0.488159 0.492401 0.910858
0.720551 0.492401 0.910858
0.931824 0.492401 0.910858
0.029022 0.741608 0.910858
0.240082 0.741608 0.910858
0.488159 0.741608 0.910858
0.720551 0.741608 0.910858
0.931824 0.741608 0.910858
0.029022 0.942413 0.910858
0.240082 0.942413 0.910858
0.488159 0.942413 0.910858
0.720551 0.942413 0.910858
0.931824 0.942413 0.910858
