src/LUT/LUTs/FreeLUTs-CaioBraga/Teal & Orange Cool.CUBE
#Created by: Adobe Photoshop Export Color Lookup Plugin
#Copyright: (C) Copyright 2017 © Caio Braga
TITLE "Teal & Orange Pushed"
#LUT size
LUT_3D_SIZE 8
#data domain
#LUT data points
DOMAIN_MIN 0.000000 0.000000 0.000000
DOMAIN_MAX 0.903226 0.903226 0.903226
0.000000 0.000000 0.000000
0.058563 0.000000 0.000000
0.230408 0.000000 0.000000
0.388275 0.000000 0.000000
0.533295 0.000000 0.000000
0.666626 0.000000 0.000000
0.791870 0.000000 0.000000
0.911987 0.000000 0.000000
0.000000 0.115662 0.000000
0.058563 0.115662 0.000000
0.230408 0.115662 0.000000
0.388275 0.115662 0.000000
0.533295 0.115662 0.000000
0.666626 0.115662 0.000000
0.791870 0.115662 0.000000
0.911987 0.115662 0.000000
0.000000 0.266602 0.000000
0.058563 0.266602 0.000000
0.230408 0.266602 0.000000
0.388275 0.266602 0.000000
0.533295 0.266602 0.000000
0.666626 0.266602 0.000000
0.791870 0.266602 0.000000
0.911987 0.266602 0.000000
0.000000 0.414734 0.000000
0.058563 0.414734 0.000000
0.230408 0.414734 0.000000
0.388275 0.414734 0.000000
0.533295 0.414734 0.000000
0.666626 0.414734 0.000000
0.791870 0.414734 0.000000
0.911987 0.414734 0.000000
0.000000 0.555267 0.000000
0.058563 0.555267 0.000000
0.230408 0.555267 0.000000
0.388275 0.555267 0.000000
0.533295 0.555267 0.000000
0.666626 0.555267 0.000000
0.791870 0.555267 0.000000
0.911987 0.555267 0.000000
0.000000 0.688354 0.000000
0.058563 0.688354 0.000000
0.230408 0.688354 0.000000
0.388275 0.688354 0.000000
0.533295 0.688354 0.000000
0.666626 0.688354 0.000000
0.791870 0.688354 0.000000
0.911987 0.688354 0.000000
0.000000 0.816345 0.000000
0.058563 0.816345 0.000000
0.230408 0.816345 0.000000
0.388275 0.816345 0.000000
0.533295 0.816345 0.000000
0.666626 0.816345 0.000000
0.791870 0.816345 0.000000
0.911987 0.816345 0.000000
0.000000 0.941010 0.000000
0.058563 0.941010 0.000000
0.230408 0.941010 0.000000
0.388275 0.941010 0.000000
0.533295 0.941010 0.000000
0.666626 0.941010 0.000000
0.791870 0.941010 0.000000
0.911987 0.941010 0.000000
0.000000 0.000000 0.142639
0.058563 0.000000 0.142639
0.230408 0.000000 0.142639
0.388275 0.000000 0.142639
0.533295 0.000000 0.142639
0.666626 0.000000 0.142639
0.791870 0.000000 0.142639
0.911987 0.000000 0.142639
0.000000 0.115662 0.142639
0.058563 0.115662 0.142639
0.230408 0.115662 0.142639
0.388275 0.115662 0.142639
0.533295 0.115662 0.142639
0.666626 0.115662 0.142639
0.791870 0.115662 0.142639
0.911987 0.115662 0.142639
0.000000 0.266602 0.142639
0.058563 0.266602 0.142639
0.230408 0.266602 0.142639
0.388275 0.266602 0.142639
0.533295 0.266602 0.142639
0.666626 0.266602 0.142639
0.791870 0.266602 0.142639
0.911987 0.266602 0.142639
0.000000 0.414734 0.142639
0.058563 0.414734 0.142639
0.230408 0.414734 0.142639
0.388275 0.414734 0.142639
0.533295 0.414734 0.142639
0.666626 0.414734 0.142639
0.791870 0.414734 0.142639
0.911987 0.414734 0.142639
0.000000 0.555267 0.142639
0.058563 0.555267 0.142639
0.230408 0.555267 0.142639
0.388275 0.555267 0.142639
0.533295 0.555267 0.142639
0.666626 0.555267 0.142639
0.791870 0.555267 0.142639
0.911987 0.555267 0.142639
0.000000 0.688354 0.142639
0.058563 0.688354 0.142639
0.230408 0.688354 0.142639
0.388275 0.688354 0.142639
0.533295 0.688354 0.142639
0.666626 0.688354 0.142639
0.791870 0.688354 0.142639
0.911987 0.688354 0.142639
0.000000 0.816345 0.142639
0.058563 0.816345 0.142639
0.230408 0.816345 0.142639
0.388275 0.816345 0.142639
0.533295 0.816345 0.142639
0.666626 0.816345 0.142639
0.791870 0.816345 0.142639
0.911987 0.816345 0.142639
0.000000 0.941010 0.142639
0.058563 0.941010 0.142639
0.230408 0.941010 0.142639
0.388275 0.941010 0.142639
0.533295 0.941010 0.142639
0.666626 0.941010 0.142639
0.791870 0.941010 0.142639
0.911987 0.941010 0.142639
0.000000 0.000000 0.292908
0.058563 0.000000 0.292908
0.230408 0.000000 0.292908
0.388275 0.000000 0.292908
0.533295 0.000000 0.292908
0.666626 0.000000 0.292908
0.791870 0.000000 0.292908
0.911987 0.000000 0.292908
0.000000 0.115662 0.292908
0.058563 0.115662 0.292908
0.230408 0.115662 0.292908
0.388275 0.115662 0.292908
0.533295 0.115662 0.292908
0.666626 0.115662 0.292908
0.791870 0.115662 0.292908
0.911987 0.115662 0.292908
0.000000 0.266602 0.292908
0.058563 0.266602 0.292908
0.230408 0.266602 0.292908
0.388275 0.266602 0.292908
0.533295 0.266602 0.292908
0.666626 0.266602 0.292908
0.791870 0.266602 0.292908
0.911987 0.266602 0.292908
0.000000 0.414734 0.292908
0.058563 0.414734 0.292908
0.230408 0.414734 0.292908
0.388275 0.414734 0.292908
0.533295 0.414734 0.292908
0.666626 0.414734 0.292908
0.791870 0.414734 0.292908
0.911987 0.414734 0.292908
0.000000 0.555267 0.292908
0.058563 0.555267 0.292908
0.230408 0.555267 0.292908
0.388275 0.555267 0.292908
0.533295 0.555267 0.292908
0.666626 0.555267 0.292908
0.791870 0.555267 0.292908
0.911987 0.555267 0.292908
0.000000 0.688354 0.292908
0.058563 0.688354 0.292908
0.230408 0.688354 0.292908
0.388275 0.688354 0.292908
0.533295 0.688354 0.292908
0.666626 0.688354 0.292908
0.791870 0.688354 0.292908
0.911987 0.688354 0.292908
0.000000 0.816345 0.292908
0.058563 0.816345 0.292908
0.230408 0.816345 0.292908
0.388275 0.816345 0.292908
0.533295 0.816345 0.292908
0.666626 0.816345 0.292908
0.791870 0.816345 0.292908
0.911987 0.816345 0.292908
0.000000 0.941010 0.292908
0.058563 0.941010 0.292908
0.230408 0.941010 0.292908
0.388275 0.941010 0.292908
0.533295 0.941010 0.292908
0.666626 0.941010 0.292908
0.791870 0.941010 0.292908
0.911987 0.941010 0.292908
0.000000 0.000000 0.440765
0.058563 0.000000 0.440765
0.230408 0.000000 0.440765
0.388275 0.000000 0.440765
0.533295 0.000000 0.440765
0.666626 0.000000 0.440765
0.791870 0.000000 0.440765
0.911987 0.000000 0.440765
0.000000 0.115662 0.440765
0.058563 0.115662 0.440765
0.230408 0.115662 0.440765
0.388275 0.115662 0.440765
0.533295 0.115662 0.440765
0.666626 0.115662 0.440765
0.791870 0.115662 0.440765
0.911987 0.115662 0.440765
0.000000 0.266602 0.440765
0.058563 0.266602 0.440765
0.230408 0.266602 0.440765
0.388275 0.266602 0.440765
0.533295 0.266602 0.440765
0.666626 0.266602 0.440765
0.791870 0.266602 0.440765
0.911987 0.266602 0.440765
0.000000 0.414734 0.440765
0.058563 0.414734 0.440765
0.230408 0.414734 0.440765
0.388275 0.414734 0.440765
0.533295 0.414734 0.440765
0.666626 0.414734 0.440765
0.791870 0.414734 0.440765
0.911987 0.414734 0.440765
0.000000 0.555267 0.440765
0.058563 0.555267 0.440765
0.230408 0.555267 0.440765
0.388275 0.555267 0.440765
0.533295 0.555267 0.440765
0.666626 0.555267 0.440765
0.791870 0.555267 0.440765
0.911987 0.555267 0.440765
0.000000 0.688354 0.440765
0.058563 0.688354 0.440765
0.230408 0.688354 0.440765
0.388275 0.688354 0.440765
0.533295 0.688354 0.440765
0.666626 0.688354 0.440765
0.791870 0.688354 0.440765
0.911987 0.688354 0.440765
0.000000 0.816345 0.440765
0.058563 0.816345 0.440765
0.230408 0.816345 0.440765
0.388275 0.816345 0.440765
0.533295 0.816345 0.440765
0.666626 0.816345 0.440765
0.791870 0.816345 0.440765
0.911987 0.816345 0.440765
0.000000 0.941010 0.440765
0.058563 0.941010 0.440765
0.230408 0.941010 0.440765
0.388275 0.941010 0.440765
0.533295 0.941010 0.440765
0.666626 0.941010 0.440765
0.791870 0.941010 0.440765
0.911987 0.941010 0.440765
0.000000 0.000000 0.581818
0.058563 0.000000 0.581818
0.230408 0.000000 0.581818
0.388275 0.000000 0.581818
0.533295 0.000000 0.581818
0.666626 0.000000 0.581818
0.791870 0.000000 0.581818
0.911987 0.000000 0.581818
0.000000 0.115662 0.581818
0.058563 0.115662 0.581818
0.230408 0.115662 0.581818
0.388275 0.115662 0.581818
0.533295 0.115662 0.581818
0.666626 0.115662 0.581818
0.791870 0.115662 0.581818
0.911987 0.115662 0.581818
0.000000 0.266602 0.581818
0.058563 0.266602 0.581818
0.230408 0.266602 0.581818
0.388275 0.266602 0.581818
0.533295 0.266602 0.581818
0.666626 0.266602 0.581818
0.791870 0.266602 0.581818
0.911987 0.266602 0.581818
0.000000 0.414734 0.581818
0.058563 0.414734 0.581818
0.230408 0.414734 0.581818
0.388275 0.414734 0.581818
0.533295 0.414734 0.581818
0.666626 0.414734 0.581818
0.791870 0.414734 0.581818
0.911987 0.414734 0.581818
0.000000 0.555267 0.581818
0.058563 0.555267 0.581818
0.230408 0.555267 0.581818
0.388275 0.555267 0.581818
0.533295 0.555267 0.581818
0.666626 0.555267 0.581818
0.791870 0.555267 0.581818
0.911987 0.555267 0.581818
0.000000 0.688354 0.581818
0.058563 0.688354 0.581818
0.230408 0.688354 0.581818
0.388275 0.688354 0.581818
0.533295 0.688354 0.581818
0.666626 0.688354 0.581818
0.791870 0.688354 0.581818
0.911987 0.688354 0.581818
0.000000 0.816345 0.581818
0.058563 0.816345 0.581818
0.230408 0.816345 0.581818
0.388275 0.816345 0.581818
0.533295 0.816345 0.581818
0.666626 0.816345 0.581818
0.791870 0.816345 0.581818
0.911987 0.816345 0.581818
0.000000 0.941010 0.581818
0.058563 0.941010 0.581818
0.230408 0.941010 0.581818
0.388275 0.941010 0.581818
0.533295 0.941010 0.581818
0.666626 0.941010 0.581818
0.791870 0.941010 0.581818
0.911987 0.941010 0.581818
0.000000 0.000000 0.716461
0.058563 0.000000 0.716461
0.230408 0.000000 0.716461
0.388275 0.000000 0.716461
0.533295 0.000000 0.716461
0.666626 0.000000 0.716461
0.791870 0.000000 0.716461
0.911987 0.000000 0.716461
0.000000 0.115662 0.716461
0.058563 0.115662 0.716461
0.230408 0.115662 0.716461
0.388275 0.115662 0.716461
0.533295 0.115662 0.716461
0.666626 0.115662 0.716461
0.791870 0.115662 0.716461
0.911987 0.115662 0.716461
0.000000 0.266602 0.716461
0.058563 0.266602 0.716461
0.230408 0.266602 0.716461
0.388275 0.266602 0.716461
0.533295 0.266602 0.716461
0.666626 0.266602 0.716461
0.791870 0.266602 0.716461
0.911987 0.266602 0.716461
0.000000 0.414734 0.716461
0.058563 0.414734 0.716461
0.230408 0.414734 0.716461
0.388275 0.414734 0.716461
0.533295 0.414734 0.716461
0.666626 0.414734 0.716461
0.791870 0.414734 0.716461
0.911987 0.414734 0.716461
0.000000 0.555267 0.716461
0.058563 0.555267 0.716461
0.230408 0.555267 0.716461
0.388275 0.555267 0.716461
0.533295 0.555267 0.716461
0.666626 0.555267 0.716461
0.791870 0.555267 0.716461
0.911987 0.555267 0.716461
0.000000 0.688354 0.716461
0.058563 0.688354 0.716461
0.230408 0.688354 0.716461
0.388275 0.688354 0.716461
0.533295 0.688354 0.716461
0.666626 0.688354 0.716461
0.791870 0.688354 0.716461
0.911987 0.688354 0.716461
0.000000 0.816345 0.716461
0.058563 0.816345 0.716461
0.230408 0.816345 0.716461
0.388275 0.816345 0.716461
0.533295 0.816345 0.716461
0.666626 0.816345 0.716461
0.791870 0.816345 0.716461
0.911987 0.816345 0.716461
0.000000 0.941010 0.716461
0.058563 0.941010 0.716461
0.230408 0.941010 0.716461
0.388275 0.941010 0.716461
0.533295 0.941010 0.716461
0.666626 0.941010 0.716461
0.791870 0.941010 0.716461
0.911987 0.941010 0.716461
0.000000 0.000000 0.846375
0.058563 0.000000 0.846375
0.230408 0.000000 0.846375
0.388275 0.000000 0.846375
0.533295 0.000000 0.846375
0.666626 0.000000 0.846375
0.791870 0.000000 0.846375
0.911987 0.000000 0.846375
0.000000 0.115662 0.846375
0.058563 0.115662 0.846375
0.230408 0.115662 0.846375
0.388275 0.115662 0.846375
0.533295 0.115662 0.846375
0.666626 0.115662 0.846375
0.791870 0.115662 0.846375
0.911987 0.115662 0.846375
0.000000 0.266602 0.846375
0.058563 0.266602 0.846375
0.230408 0.266602 0.846375
0.388275 0.266602 0.846375
0.533295 0.266602 0.846375
0.666626 0.266602 0.846375
0.791870 0.266602 0.846375
0.911987 0.266602 0.846375
0.000000 0.414734 0.846375
0.058563 0.414734 0.846375
0.230408 0.414734 0.846375
0.388275 0.414734 0.846375
0.533295 0.414734 0.846375
0.666626 0.414734 0.846375
0.791870 0.414734 0.846375
0.911987 0.414734 0.846375
0.000000 0.555267 0.846375
0.058563 0.555267 0.846375
0.230408 0.555267 0.846375
0.388275 0.555267 0.846375
0.533295 0.555267 0.846375
0.666626 0.555267 0.846375
0.791870 0.555267 0.846375
0.911987 0.555267 0.846375
0.000000 0.688354 0.846375
0.058563 0.688354 0.846375
0.230408 0.688354 0.846375
0.388275 0.688354 0.846375
0.533295 0.688354 0.846375
0.666626 0.688354 0.846375
0.791870 0.688354 0.846375
0.911987 0.688354 0.846375
0.000000 0.816345 0.846375
0.058563 0.816345 0.846375
0.230408 0.816345 0.846375
0.388275 0.816345 0.846375
0.533295 0.816345 0.846375
0.666626 0.816345 0.846375
0.791870 0.816345 0.846375
0.911987 0.816345 0.846375
0.000000 0.941010 0.846375
0.058563 0.941010 0.846375
0.230408 0.941010 0.846375
0.388275 0.941010 0.846375
0.533295 0.941010 0.846375
0.666626 0.941010 0.846375
0.791870 0.941010 0.846375
0.911987 0.941010 0.846375
0.000000 0.000000 0.974121
0.058563 0.000000 0.974121
0.230408 0.000000 0.974121
0.388275 0.000000 0.974121
0.533295 0.000000 0.974121
0.666626 0.000000 0.974121
0.791870 0.000000 0.974121
0.911987 0.000000 0.974121
0.000000 0.115662 0.974121
0.058563 0.115662 0.974121
0.230408 0.115662 0.974121
0.388275 0.115662 0.974121
0.533295 0.115662 0.974121
0.666626 0.115662 0.974121
0.791870 0.115662 0.974121
0.911987 0.115662 0.974121
0.000000 0.266602 0.974121
0.058563 0.266602 0.974121
0.230408 0.266602 0.974121
0.388275 0.266602 0.974121
0.533295 0.266602 0.974121
0.666626 0.266602 0.974121
0.791870 0.266602 0.974121
0.911987 0.266602 0.974121
0.000000 0.414734 0.974121
0.058563 0.414734 0.974121
0.230408 0.414734 0.974121
0.388275 0.414734 0.974121
0.533295 0.414734 0.974121
0.666626 0.414734 0.974121
0.791870 0.414734 0.974121
0.911987 0.414734 0.974121
0.000000 0.555267 0.974121
0.058563 0.555267 0.974121
0.230408 0.555267 0.974121
0.388275 0.555267 0.974121
0.533295 0.555267 0.974121
0.666626 0.555267 0.974121
0.791870 0.555267 0.974121
0.911987 0.555267 0.974121
0.000000 0.688354 0.974121
0.058563 0.688354 0.974121
0.230408 0.688354 0.974121
0.388275 0.688354 0.974121
0.533295 0.688354 0.974121
0.666626 0.688354 0.974121
0.791870 0.688354 0.974121
0.911987 0.688354 0.974121
0.000000 0.816345 0.974121
0.058563 0.816345 0.974121
0.230408 0.816345 0.974121
0.388275 0.816345 0.974121
0.533295 0.816345 0.974121
0.666626 0.816345 0.974121
0.791870 0.816345 0.974121
0.911987 0.816345 0.974121
0.000000 0.941010 0.974121
0.058563 0.941010 0.974121
0.230408 0.941010 0.974121
0.388275 0.941010 0.974121
0.533295 0.941010 0.974121
0.666626 0.941010 0.974121
0.791870 0.941010 0.974121
0.911987 0.941010 0.974121
