src/LUT/LUTs/FreeLUTs-CaioBraga/Vintage Crossprocess.CUBE
#Created by: Adobe Photoshop Export Color Lookup Plugin
#Copyright: (C) Copyright 2017 ©Caio Braga
TITLE "Vintage Crossprocess"
#LUT size
LUT_3D_SIZE 32
#data domain
DOMAIN_MIN 0.0 0.0 0.0
DOMAIN_MAX 1.0 1.0 1.0
#LUT data points
0.109802 0.109802 0.191406
0.109802 0.109802 0.191406
0.122894 0.109802 0.191406
0.156860 0.109802 0.191406
0.190369 0.109802 0.191406
0.223236 0.109802 0.191406
0.255310 0.109802 0.191406
0.286469 0.109802 0.191406
0.316589 0.109802 0.191406
0.345856 0.109802 0.191406
0.374359 0.109802 0.191406
0.402222 0.109802 0.191406
0.429596 0.109802 0.191406
0.456573 0.109802 0.191406
0.483337 0.109802 0.191406
0.509918 0.109802 0.191406
0.536560 0.109802 0.191406
0.563293 0.109802 0.191406
0.590332 0.109802 0.191406
0.617706 0.109802 0.191406
0.645599 0.109802 0.191406
0.674133 0.109802 0.191406
0.703430 0.109802 0.191406
0.733612 0.109802 0.191406
0.764771 0.109802 0.191406
0.796753 0.109802 0.191406
0.829529 0.109802 0.191406
0.862885 0.109802 0.191406
0.896759 0.109802 0.191406
0.930969 0.109802 0.191406
0.965424 0.109802 0.191406
1.000000 0.109802 0.191406
0.109802 0.109802 0.191406
0.109802 0.109802 0.191406
0.122894 0.109802 0.191406
0.156860 0.109802 0.191406
0.190369 0.109802 0.191406
0.223236 0.109802 0.191406
0.255310 0.109802 0.191406
0.286469 0.109802 0.191406
0.316589 0.109802 0.191406
0.345856 0.109802 0.191406
0.374359 0.109802 0.191406
0.402222 0.109802 0.191406
0.429596 0.109802 0.191406
0.456573 0.109802 0.191406
0.483337 0.109802 0.191406
0.509918 0.109802 0.191406
0.536560 0.109802 0.191406
0.563293 0.109802 0.191406
0.590332 0.109802 0.191406
0.617706 0.109802 0.191406
0.645599 0.109802 0.191406
0.674133 0.109802 0.191406
0.703430 0.109802 0.191406
0.733612 0.109802 0.191406
0.764771 0.109802 0.191406
0.796753 0.109802 0.191406
0.829529 0.109802 0.191406
0.862885 0.109802 0.191406
0.896759 0.109802 0.191406
0.930969 0.109802 0.191406
0.965424 0.109802 0.191406
1.000000 0.109802 0.191406
0.109802 0.118378 0.191406
0.109802 0.118378 0.191406
0.122894 0.118378 0.191406
0.156860 0.118378 0.191406
0.190369 0.118378 0.191406
0.223236 0.118378 0.191406
0.255310 0.118378 0.191406
0.286469 0.118378 0.191406
0.316589 0.118378 0.191406
0.345856 0.118378 0.191406
0.374359 0.118378 0.191406
0.402222 0.118378 0.191406
0.429596 0.118378 0.191406
0.456573 0.118378 0.191406
0.483337 0.118378 0.191406
0.509918 0.118378 0.191406
0.536560 0.118378 0.191406
0.563293 0.118378 0.191406
0.590332 0.118378 0.191406
0.617706 0.118378 0.191406
0.645599 0.118378 0.191406
0.674133 0.118378 0.191406
0.703430 0.118378 0.191406
0.733612 0.118378 0.191406
0.764771 0.118378 0.191406
0.796753 0.118378 0.191406
0.829529 0.118378 0.191406
0.862885 0.118378 0.191406
0.896759 0.118378 0.191406
0.930969 0.118378 0.191406
0.965424 0.118378 0.191406
1.000000 0.118378 0.191406
0.109802 0.150299 0.191406
0.109802 0.150299 0.191406
0.122894 0.150299 0.191406
0.156860 0.150299 0.191406
0.190369 0.150299 0.191406
0.223236 0.150299 0.191406
0.255310 0.150299 0.191406
0.286469 0.150299 0.191406
0.316589 0.150299 0.191406
0.345856 0.150299 0.191406
0.374359 0.150299 0.191406
0.402222 0.150299 0.191406
0.429596 0.150299 0.191406
0.456573 0.150299 0.191406
0.483337 0.150299 0.191406
0.509918 0.150299 0.191406
0.536560 0.150299 0.191406
0.563293 0.150299 0.191406
0.590332 0.150299 0.191406
0.617706 0.150299 0.191406
0.645599 0.150299 0.191406
0.674133 0.150299 0.191406
0.703430 0.150299 0.191406
0.733612 0.150299 0.191406
0.764771 0.150299 0.191406
0.796753 0.150299 0.191406
0.829529 0.150299 0.191406
0.862885 0.150299 0.191406
0.896759 0.150299 0.191406
0.930969 0.150299 0.191406
0.965424 0.150299 0.191406
1.000000 0.150299 0.191406
0.109802 0.182007 0.191406
0.109802 0.182007 0.191406
0.122894 0.182007 0.191406
0.156860 0.182007 0.191406
0.190369 0.182007 0.191406
0.223236 0.182007 0.191406
0.255310 0.182007 0.191406
0.286469 0.182007 0.191406
0.316589 0.182007 0.191406
0.345856 0.182007 0.191406
0.374359 0.182007 0.191406
0.402222 0.182007 0.191406
0.429596 0.182007 0.191406
0.456573 0.182007 0.191406
0.483337 0.182007 0.191406
0.509918 0.182007 0.191406
0.536560 0.182007 0.191406
0.563293 0.182007 0.191406
0.590332 0.182007 0.191406
0.617706 0.182007 0.191406
0.645599 0.182007 0.191406
0.674133 0.182007 0.191406
0.703430 0.182007 0.191406
0.733612 0.182007 0.191406
0.764771 0.182007 0.191406
0.796753 0.182007 0.191406
0.829529 0.182007 0.191406
0.862885 0.182007 0.191406
0.896759 0.182007 0.191406
0.930969 0.182007 0.191406
0.965424 0.182007 0.191406
1.000000 0.182007 0.191406
0.109802 0.213379 0.191406
0.109802 0.213379 0.191406
0.122894 0.213379 0.191406
0.156860 0.213379 0.191406
0.190369 0.213379 0.191406
0.223236 0.213379 0.191406
0.255310 0.213379 0.191406
0.286469 0.213379 0.191406
0.316589 0.213379 0.191406
0.345856 0.213379 0.191406
0.374359 0.213379 0.191406
0.402222 0.213379 0.191406
0.429596 0.213379 0.191406
0.456573 0.213379 0.191406
0.483337 0.213379 0.191406
0.509918 0.213379 0.191406
0.536560 0.213379 0.191406
0.563293 0.213379 0.191406
0.590332 0.213379 0.191406
0.617706 0.213379 0.191406
0.645599 0.213379 0.191406
0.674133 0.213379 0.191406
0.703430 0.213379 0.191406
0.733612 0.213379 0.191406
0.764771 0.213379 0.191406
0.796753 0.213379 0.191406
0.829529 0.213379 0.191406
0.862885 0.213379 0.191406
0.896759 0.213379 0.191406
0.930969 0.213379 0.191406
0.965424 0.213379 0.191406
1.000000 0.213379 0.191406
0.109802 0.244415 0.191406
0.109802 0.244415 0.191406
0.122894 0.244415 0.191406
0.156860 0.244415 0.191406
0.190369 0.244415 0.191406
0.223236 0.244415 0.191406
0.255310 0.244415 0.191406
0.286469 0.244415 0.191406
0.316589 0.244415 0.191406
0.345856 0.244415 0.191406
0.374359 0.244415 0.191406
0.402222 0.244415 0.191406
0.429596 0.244415 0.191406
0.456573 0.244415 0.191406
0.483337 0.244415 0.191406
0.509918 0.244415 0.191406
0.536560 0.244415 0.191406
0.563293 0.244415 0.191406
0.590332 0.244415 0.191406
0.617706 0.244415 0.191406
0.645599 0.244415 0.191406
0.674133 0.244415 0.191406
0.703430 0.244415 0.191406
0.733612 0.244415 0.191406
0.764771 0.244415 0.191406
0.796753 0.244415 0.191406
0.829529 0.244415 0.191406
0.862885 0.244415 0.191406
0.896759 0.244415 0.191406
0.930969 0.244415 0.191406
0.965424 0.244415 0.191406
1.000000 0.244415 0.191406
0.109802 0.274994 0.191406
0.109802 0.274994 0.191406
0.122894 0.274994 0.191406
0.156860 0.274994 0.191406
0.190369 0.274994 0.191406
0.223236 0.274994 0.191406
0.255310 0.274994 0.191406
0.286469 0.274994 0.191406
0.316589 0.274994 0.191406
0.345856 0.274994 0.191406
0.374359 0.274994 0.191406
0.402222 0.274994 0.191406
0.429596 0.274994 0.191406
0.456573 0.274994 0.191406
0.483337 0.274994 0.191406
0.509918 0.274994 0.191406
0.536560 0.274994 0.191406
0.563293 0.274994 0.191406
0.590332 0.274994 0.191406
0.617706 0.274994 0.191406
0.645599 0.274994 0.191406
0.674133 0.274994 0.191406
0.703430 0.274994 0.191406
0.733612 0.274994 0.191406
0.764771 0.274994 0.191406
0.796753 0.274994 0.191406
0.829529 0.274994 0.191406
0.862885 0.274994 0.191406
0.896759 0.274994 0.191406
0.930969 0.274994 0.191406
0.965424 0.274994 0.191406
1.000000 0.274994 0.191406
0.109802 0.305084 0.191406
0.109802 0.305084 0.191406
0.122894 0.305084 0.191406
0.156860 0.305084 0.191406
0.190369 0.305084 0.191406
0.223236 0.305084 0.191406
0.255310 0.305084 0.191406
0.286469 0.305084 0.191406
0.316589 0.305084 0.191406
0.345856 0.305084 0.191406
0.374359 0.305084 0.191406
0.402222 0.305084 0.191406
0.429596 0.305084 0.191406
0.456573 0.305084 0.191406
0.483337 0.305084 0.191406
0.509918 0.305084 0.191406
0.536560 0.305084 0.191406
0.563293 0.305084 0.191406
0.590332 0.305084 0.191406
0.617706 0.305084 0.191406
0.645599 0.305084 0.191406
0.674133 0.305084 0.191406
0.703430 0.305084 0.191406
0.733612 0.305084 0.191406
0.764771 0.305084 0.191406
0.796753 0.305084 0.191406
0.829529 0.305084 0.191406
0.862885 0.305084 0.191406
0.896759 0.305084 0.191406
0.930969 0.305084 0.191406
0.965424 0.305084 0.191406
1.000000 0.305084 0.191406
0.109802 0.334717 0.191406
0.109802 0.334717 0.191406
0.122894 0.334717 0.191406
0.156860 0.334717 0.191406
0.190369 0.334717 0.191406
0.223236 0.334717 0.191406
0.255310 0.334717 0.191406
0.286469 0.334717 0.191406
0.316589 0.334717 0.191406
0.345856 0.334717 0.191406
0.374359 0.334717 0.191406
0.402222 0.334717 0.191406
0.429596 0.334717 0.191406
0.456573 0.334717 0.191406
0.483337 0.334717 0.191406
0.509918 0.334717 0.191406
0.536560 0.334717 0.191406
0.563293 0.334717 0.191406
0.590332 0.334717 0.191406
0.617706 0.334717 0.191406
0.645599 0.334717 0.191406
0.674133 0.334717 0.191406
0.703430 0.334717 0.191406
0.733612 0.334717 0.191406
0.764771 0.334717 0.191406
0.796753 0.334717 0.191406
0.829529 0.334717 0.191406
0.862885 0.334717 0.191406
0.896759 0.334717 0.191406
0.930969 0.334717 0.191406
0.965424 0.334717 0.191406
1.000000 0.334717 0.191406
0.109802 0.364014 0.191406
0.109802 0.364014 0.191406
0.122894 0.364014 0.191406
0.156860 0.364014 0.191406
0.190369 0.364014 0.191406
0.223236 0.364014 0.191406
0.255310 0.364014 0.191406
0.286469 0.364014 0.191406
0.316589 0.364014 0.191406
0.345856 0.364014 0.191406
0.374359 0.364014 0.191406
0.402222 0.364014 0.191406
0.429596 0.364014 0.191406
0.456573 0.364014 0.191406
0.483337 0.364014 0.191406
0.509918 0.364014 0.191406
0.536560 0.364014 0.191406
0.563293 0.364014 0.191406
0.590332 0.364014 0.191406
0.617706 0.364014 0.191406
0.645599 0.364014 0.191406
0.674133 0.364014 0.191406
0.703430 0.364014 0.191406
0.733612 0.364014 0.191406
0.764771 0.364014 0.191406
0.796753 0.364014 0.191406
0.829529 0.364014 0.191406
0.862885 0.364014 0.191406
0.896759 0.364014 0.191406
0.930969 0.364014 0.191406
0.965424 0.364014 0.191406
1.000000 0.364014 0.191406
0.109802 0.392975 0.191406
0.109802 0.392975 0.191406
0.122894 0.392975 0.191406
0.156860 0.392975 0.191406
0.190369 0.392975 0.191406
0.223236 0.392975 0.191406
0.255310 0.392975 0.191406
0.286469 0.392975 0.191406
0.316589 0.392975 0.191406
0.345856 0.392975 0.191406
0.374359 0.392975 0.191406
0.402222 0.392975 0.191406
0.429596 0.392975 0.191406
0.456573 0.392975 0.191406
0.483337 0.392975 0.191406
0.509918 0.392975 0.191406
0.536560 0.392975 0.191406
0.563293 0.392975 0.191406
0.590332 0.392975 0.191406
0.617706 0.392975 0.191406
0.645599 0.392975 0.191406
0.674133 0.392975 0.191406
0.703430 0.392975 0.191406
0.733612 0.392975 0.191406
0.764771 0.392975 0.191406
0.796753 0.392975 0.191406
0.829529 0.392975 0.191406
0.862885 0.392975 0.191406
0.896759 0.392975 0.191406
0.930969 0.392975 0.191406
0.965424 0.392975 0.191406
1.000000 0.392975 0.191406
0.109802 0.421722 0.191406
0.109802 0.421722 0.191406
0.122894 0.421722 0.191406
0.156860 0.421722 0.191406
0.190369 0.421722 0.191406
0.223236 0.421722 0.191406
0.255310 0.421722 0.191406
0.286469 0.421722 0.191406
0.316589 0.421722 0.191406
0.345856 0.421722 0.191406
0.374359 0.421722 0.191406
0.402222 0.421722 0.191406
0.429596 0.421722 0.191406
0.456573 0.421722 0.191406
0.483337 0.421722 0.191406
0.509918 0.421722 0.191406
0.536560 0.421722 0.191406
0.563293 0.421722 0.191406
0.590332 0.421722 0.191406
0.617706 0.421722 0.191406
0.645599 0.421722 0.191406
0.674133 0.421722 0.191406
0.703430 0.421722 0.191406
0.733612 0.421722 0.191406
0.764771 0.421722 0.191406
0.796753 0.421722 0.191406
0.829529 0.421722 0.191406
0.862885 0.421722 0.191406
0.896759 0.421722 0.191406
0.930969 0.421722 0.191406
0.965424 0.421722 0.191406
1.000000 0.421722 0.191406
0.109802 0.450256 0.191406
0.109802 0.450256 0.191406
0.122894 0.450256 0.191406
0.156860 0.450256 0.191406
0.190369 0.450256 0.191406
0.223236 0.450256 0.191406
0.255310 0.450256 0.191406
0.286469 0.450256 0.191406
0.316589 0.450256 0.191406
0.345856 0.450256 0.191406
0.374359 0.450256 0.191406
0.402222 0.450256 0.191406
0.429596 0.450256 0.191406
0.456573 0.450256 0.191406
0.483337 0.450256 0.191406
0.509918 0.450256 0.191406
0.536560 0.450256 0.191406
0.563293 0.450256 0.191406
0.590332 0.450256 0.191406
0.617706 0.450256 0.191406
0.645599 0.450256 0.191406
0.674133 0.450256 0.191406
0.703430 0.450256 0.191406
0.733612 0.450256 0.191406
0.764771 0.450256 0.191406
0.796753 0.450256 0.191406
0.829529 0.450256 0.191406
0.862885 0.450256 0.191406
0.896759 0.450256 0.191406
0.930969 0.450256 0.191406
0.965424 0.450256 0.191406
1.000000 0.450256 0.191406
0.109802 0.478729 0.191406
0.109802 0.478729 0.191406
0.122894 0.478729 0.191406
0.156860 0.478729 0.191406
0.190369 0.478729 0.191406
0.223236 0.478729 0.191406
0.255310 0.478729 0.191406
0.286469 0.478729 0.191406
0.316589 0.478729 0.191406
0.345856 0.478729 0.191406
0.374359 0.478729 0.191406
0.402222 0.478729 0.191406
0.429596 0.478729 0.191406
0.456573 0.478729 0.191406
0.483337 0.478729 0.191406
0.509918 0.478729 0.191406
0.536560 0.478729 0.191406
0.563293 0.478729 0.191406
0.590332 0.478729 0.191406
0.617706 0.478729 0.191406
0.645599 0.478729 0.191406
0.674133 0.478729 0.191406
0.703430 0.478729 0.191406
0.733612 0.478729 0.191406
0.764771 0.478729 0.191406
0.796753 0.478729 0.191406
0.829529 0.478729 0.191406
0.862885 0.478729 0.191406
0.896759 0.478729 0.191406
0.930969 0.478729 0.191406
0.965424 0.478729 0.191406
1.000000 0.478729 0.191406
0.109802 0.507111 0.191406
0.109802 0.507111 0.191406
0.122894 0.507111 0.191406
0.156860 0.507111 0.191406
0.190369 0.507111 0.191406
0.223236 0.507111 0.191406
0.255310 0.507111 0.191406
0.286469 0.507111 0.191406
0.316589 0.507111 0.191406
0.345856 0.507111 0.191406
0.374359 0.507111 0.191406
0.402222 0.507111 0.191406
0.429596 0.507111 0.191406
0.456573 0.507111 0.191406
0.483337 0.507111 0.191406
0.509918 0.507111 0.191406
0.536560 0.507111 0.191406
0.563293 0.507111 0.191406
0.590332 0.507111 0.191406
0.617706 0.507111 0.191406
0.645599 0.507111 0.191406
0.674133 0.507111 0.191406
0.703430 0.507111 0.191406
0.733612 0.507111 0.191406
0.764771 0.507111 0.191406
0.796753 0.507111 0.191406
0.829529 0.507111 0.191406
0.862885 0.507111 0.191406
0.896759 0.507111 0.191406
0.930969 0.507111 0.191406
0.965424 0.507111 0.191406
1.000000 0.507111 0.191406
0.109802 0.535614 0.191406
0.109802 0.535614 0.191406
0.122894 0.535614 0.191406
0.156860 0.535614 0.191406
0.190369 0.535614 0.191406
0.223236 0.535614 0.191406
0.255310 0.535614 0.191406
0.286469 0.535614 0.191406
0.316589 0.535614 0.191406
0.345856 0.535614 0.191406
0.374359 0.535614 0.191406
0.402222 0.535614 0.191406
0.429596 0.535614 0.191406
0.456573 0.535614 0.191406
0.483337 0.535614 0.191406
0.509918 0.535614 0.191406
0.536560 0.535614 0.191406
0.563293 0.535614 0.191406
0.590332 0.535614 0.191406
0.617706 0.535614 0.191406
0.645599 0.535614 0.191406
0.674133 0.535614 0.191406
0.703430 0.535614 0.191406
0.733612 0.535614 0.191406
0.764771 0.535614 0.191406
0.796753 0.535614 0.191406
0.829529 0.535614 0.191406
0.862885 0.535614 0.191406
0.896759 0.535614 0.191406
0.930969 0.535614 0.191406
0.965424 0.535614 0.191406
1.000000 0.535614 0.191406
0.109802 0.564148 0.191406
0.109802 0.564148 0.191406
0.122894 0.564148 0.191406
0.156860 0.564148 0.191406
0.190369 0.564148 0.191406
0.223236 0.564148 0.191406
0.255310 0.564148 0.191406
0.286469 0.564148 0.191406
0.316589 0.564148 0.191406
0.345856 0.564148 0.191406
0.374359 0.564148 0.191406
0.402222 0.564148 0.191406
0.429596 0.564148 0.191406
0.456573 0.564148 0.191406
0.483337 0.564148 0.191406
0.509918 0.564148 0.191406
0.536560 0.564148 0.191406
0.563293 0.564148 0.191406
0.590332 0.564148 0.191406
0.617706 0.564148 0.191406
0.645599 0.564148 0.191406
0.674133 0.564148 0.191406
0.703430 0.564148 0.191406
0.733612 0.564148 0.191406
0.764771 0.564148 0.191406
0.796753 0.564148 0.191406
0.829529 0.564148 0.191406
0.862885 0.564148 0.191406
0.896759 0.564148 0.191406
0.930969 0.564148 0.191406
0.965424 0.564148 0.191406
1.000000 0.564148 0.191406
0.109802 0.592834 0.191406
0.109802 0.592834 0.191406
0.122894 0.592834 0.191406
0.156860 0.592834 0.191406
0.190369 0.592834 0.191406
0.223236 0.592834 0.191406
0.255310 0.592834 0.191406
0.286469 0.592834 0.191406
0.316589 0.592834 0.191406
0.345856 0.592834 0.191406
0.374359 0.592834 0.191406
0.402222 0.592834 0.191406
0.429596 0.592834 0.191406
0.456573 0.592834 0.191406
0.483337 0.592834 0.191406
0.509918 0.592834 0.191406
0.536560 0.592834 0.191406
0.563293 0.592834 0.191406
0.590332 0.592834 0.191406
0.617706 0.592834 0.191406
0.645599 0.592834 0.191406
0.674133 0.592834 0.191406
0.703430 0.592834 0.191406
0.733612 0.592834 0.191406
0.764771 0.592834 0.191406
0.796753 0.592834 0.191406
0.829529 0.592834 0.191406
0.862885 0.592834 0.191406
0.896759 0.592834 0.191406
0.930969 0.592834 0.191406
0.965424 0.592834 0.191406
1.000000 0.592834 0.191406
0.109802 0.621735 0.191406
0.109802 0.621735 0.191406
0.122894 0.621735 0.191406
0.156860 0.621735 0.191406
0.190369 0.621735 0.191406
0.223236 0.621735 0.191406
0.255310 0.621735 0.191406
0.286469 0.621735 0.191406
0.316589 0.621735 0.191406
0.345856 0.621735 0.191406
0.374359 0.621735 0.191406
0.402222 0.621735 0.191406
0.429596 0.621735 0.191406
0.456573 0.621735 0.191406
0.483337 0.621735 0.191406
0.509918 0.621735 0.191406
0.536560 0.621735 0.191406
0.563293 0.621735 0.191406
0.590332 0.621735 0.191406
0.617706 0.621735 0.191406
0.645599 0.621735 0.191406
0.674133 0.621735 0.191406
0.703430 0.621735 0.191406
0.733612 0.621735 0.191406
0.764771 0.621735 0.191406
0.796753 0.621735 0.191406
0.829529 0.621735 0.191406
0.862885 0.621735 0.191406
0.896759 0.621735 0.191406
0.930969 0.621735 0.191406
0.965424 0.621735 0.191406
1.000000 0.621735 0.191406
0.109802 0.650909 0.191406
0.109802 0.650909 0.191406
0.122894 0.650909 0.191406
0.156860 0.650909 0.191406
0.190369 0.650909 0.191406
0.223236 0.650909 0.191406
0.255310 0.650909 0.191406
0.286469 0.650909 0.191406
0.316589 0.650909 0.191406
0.345856 0.650909 0.191406
0.374359 0.650909 0.191406
0.402222 0.650909 0.191406
0.429596 0.650909 0.191406
0.456573 0.650909 0.191406
0.483337 0.650909 0.191406
0.509918 0.650909 0.191406
0.536560 0.650909 0.191406
0.563293 0.650909 0.191406
0.590332 0.650909 0.191406
0.617706 0.650909 0.191406
0.645599 0.650909 0.191406
0.674133 0.650909 0.191406
0.703430 0.650909 0.191406
0.733612 0.650909 0.191406
0.764771 0.650909 0.191406
0.796753 0.650909 0.191406
0.829529 0.650909 0.191406
0.862885 0.650909 0.191406
0.896759 0.650909 0.191406
0.930969 0.650909 0.191406
0.965424 0.650909 0.191406
1.000000 0.650909 0.191406
0.109802 0.680481 0.191406
0.109802 0.680481 0.191406
0.122894 0.680481 0.191406
0.156860 0.680481 0.191406
0.190369 0.680481 0.191406
0.223236 0.680481 0.191406
0.255310 0.680481 0.191406
0.286469 0.680481 0.191406
0.316589 0.680481 0.191406
0.345856 0.680481 0.191406
0.374359 0.680481 0.191406
0.402222 0.680481 0.191406
0.429596 0.680481 0.191406
0.456573 0.680481 0.191406
0.483337 0.680481 0.191406
0.509918 0.680481 0.191406
0.536560 0.680481 0.191406
0.563293 0.680481 0.191406
0.590332 0.680481 0.191406
0.617706 0.680481 0.191406
0.645599 0.680481 0.191406
0.674133 0.680481 0.191406
0.703430 0.680481 0.191406
0.733612 0.680481 0.191406
0.764771 0.680481 0.191406
0.796753 0.680481 0.191406
0.829529 0.680481 0.191406
0.862885 0.680481 0.191406
0.896759 0.680481 0.191406
0.930969 0.680481 0.191406
0.965424 0.680481 0.191406
1.000000 0.680481 0.191406
0.109802 0.710419 0.191406
0.109802 0.710419 0.191406
0.122894 0.710419 0.191406
0.156860 0.710419 0.191406
0.190369 0.710419 0.191406
0.223236 0.710419 0.191406
0.255310 0.710419 0.191406
0.286469 0.710419 0.191406
0.316589 0.710419 0.191406
0.345856 0.710419 0.191406
0.374359 0.710419 0.191406
0.402222 0.710419 0.191406
0.429596 0.710419 0.191406
0.456573 0.710419 0.191406
0.483337 0.710419 0.191406
0.509918 0.710419 0.191406
0.536560 0.710419 0.191406
0.563293 0.710419 0.191406
0.590332 0.710419 0.191406
0.617706 0.710419 0.191406
0.645599 0.710419 0.191406
0.674133 0.710419 0.191406
0.703430 0.710419 0.191406
0.733612 0.710419 0.191406
0.764771 0.710419 0.191406
0.796753 0.710419 0.191406
0.829529 0.710419 0.191406
0.862885 0.710419 0.191406
0.896759 0.710419 0.191406
0.930969 0.710419 0.191406
0.965424 0.710419 0.191406
1.000000 0.710419 0.191406
0.109802 0.740875 0.191406
0.109802 0.740875 0.191406
0.122894 0.740875 0.191406
0.156860 0.740875 0.191406
0.190369 0.740875 0.191406
0.223236 0.740875 0.191406
0.255310 0.740875 0.191406
0.286469 0.740875 0.191406
0.316589 0.740875 0.191406
0.345856 0.740875 0.191406
0.374359 0.740875 0.191406
0.402222 0.740875 0.191406
0.429596 0.740875 0.191406
0.456573 0.740875 0.191406
0.483337 0.740875 0.191406
0.509918 0.740875 0.191406
0.536560 0.740875 0.191406
0.563293 0.740875 0.191406
0.590332 0.740875 0.191406
0.617706 0.740875 0.191406
0.645599 0.740875 0.191406
0.674133 0.740875 0.191406
0.703430 0.740875 0.191406
0.733612 0.740875 0.191406
0.764771 0.740875 0.191406
0.796753 0.740875 0.191406
0.829529 0.740875 0.191406
0.862885 0.740875 0.191406
0.896759 0.740875 0.191406
0.930969 0.740875 0.191406
0.965424 0.740875 0.191406
1.000000 0.740875 0.191406
0.109802 0.771912 0.191406
0.109802 0.771912 0.191406
0.122894 0.771912 0.191406
0.156860 0.771912 0.191406
0.190369 0.771912 0.191406
0.223236 0.771912 0.191406
0.255310 0.771912 0.191406
0.286469 0.771912 0.191406
0.316589 0.771912 0.191406
0.345856 0.771912 0.191406
0.374359 0.771912 0.191406
0.402222 0.771912 0.191406
0.429596 0.771912 0.191406
0.456573 0.771912 0.191406
0.483337 0.771912 0.191406
0.509918 0.771912 0.191406
0.536560 0.771912 0.191406
0.563293 0.771912 0.191406
0.590332 0.771912 0.191406
0.617706 0.771912 0.191406
0.645599 0.771912 0.191406
0.674133 0.771912 0.191406
0.703430 0.771912 0.191406
0.733612 0.771912 0.191406
0.764771 0.771912 0.191406
0.796753 0.771912 0.191406
0.829529 0.771912 0.191406
0.862885 0.771912 0.191406
0.896759 0.771912 0.191406
0.930969 0.771912 0.191406
0.965424 0.771912 0.191406
1.000000 0.771912 0.191406
0.109802 0.803467 0.191406
0.109802 0.803467 0.191406
0.122894 0.803467 0.191406
0.156860 0.803467 0.191406
0.190369 0.803467 0.191406
0.223236 0.803467 0.191406
0.255310 0.803467 0.191406
0.286469 0.803467 0.191406
0.316589 0.803467 0.191406
0.345856 0.803467 0.191406
0.374359 0.803467 0.191406
0.402222 0.803467 0.191406
0.429596 0.803467 0.191406
0.456573 0.803467 0.191406
0.483337 0.803467 0.191406
0.509918 0.803467 0.191406
0.536560 0.803467 0.191406
0.563293 0.803467 0.191406
0.590332 0.803467 0.191406
0.617706 0.803467 0.191406
0.645599 0.803467 0.191406
0.674133 0.803467 0.191406
0.703430 0.803467 0.191406
0.733612 0.803467 0.191406
0.764771 0.803467 0.191406
0.796753 0.803467 0.191406
0.829529 0.803467 0.191406
0.862885 0.803467 0.191406
0.896759 0.803467 0.191406
0.930969 0.803467 0.191406
0.965424 0.803467 0.191406
1.000000 0.803467 0.191406
0.109802 0.835480 0.191406
0.109802 0.835480 0.191406
0.122894 0.835480 0.191406
0.156860 0.835480 0.191406
0.190369 0.835480 0.191406
0.223236 0.835480 0.191406
0.255310 0.835480 0.191406
0.286469 0.835480 0.191406
0.316589 0.835480 0.191406
0.345856 0.835480 0.191406
0.374359 0.835480 0.191406
0.402222 0.835480 0.191406
0.429596 0.835480 0.191406
0.456573 0.835480 0.191406
0.483337 0.835480 0.191406
0.509918 0.835480 0.191406
0.536560 0.835480 0.191406
0.563293 0.835480 0.191406
0.590332 0.835480 0.191406
0.617706 0.835480 0.191406
0.645599 0.835480 0.191406
0.674133 0.835480 0.191406
0.703430 0.835480 0.191406
0.733612 0.835480 0.191406
0.764771 0.835480 0.191406
0.796753 0.835480 0.191406
0.829529 0.835480 0.191406
0.862885 0.835480 0.191406
0.896759 0.835480 0.191406
0.930969 0.835480 0.191406
0.965424 0.835480 0.191406
1.000000 0.835480 0.191406
0.109802 0.867920 0.191406
0.109802 0.867920 0.191406
0.122894 0.867920 0.191406
0.156860 0.867920 0.191406
0.190369 0.867920 0.191406
0.223236 0.867920 0.191406
0.255310 0.867920 0.191406
0.286469 0.867920 0.191406
0.316589 0.867920 0.191406
0.345856 0.867920 0.191406
0.374359 0.867920 0.191406
0.402222 0.867920 0.191406
0.429596 0.867920 0.191406
0.456573 0.867920 0.191406
0.483337 0.867920 0.191406
0.509918 0.867920 0.191406
