src/LUT/LUTs/FreeLUTs-CaioBraga/Vintage Crossprocess.CUBE
#Created by: Adobe Photoshop Export Color Lookup Plugin
#Copyright: (C) Copyright 2017 ©Caio Braga
TITLE "Vintage Crossprocess"
#LUT size
LUT_3D_SIZE 5
#data domain
#LUT data points
DOMAIN_MIN 0.000000 0.000000 0.000000
DOMAIN_MAX 0.903226 0.903226 0.903226
0.109802 0.109802 0.191406
0.286469 0.109802 0.191406
0.483337 0.109802 0.191406
0.674133 0.109802 0.191406
0.896759 0.109802 0.191406
0.109802 0.274994 0.191406
0.286469 0.274994 0.191406
0.483337 0.274994 0.191406
0.674133 0.274994 0.191406
0.896759 0.274994 0.191406
0.109802 0.478729 0.191406
0.286469 0.478729 0.191406
0.483337 0.478729 0.191406
0.674133 0.478729 0.191406
0.896759 0.478729 0.191406
0.109802 0.680481 0.191406
0.286469 0.680481 0.191406
0.483337 0.680481 0.191406
0.674133 0.680481 0.191406
0.896759 0.680481 0.191406
0.109802 0.900635 0.191406
0.286469 0.900635 0.191406
0.483337 0.900635 0.191406
0.674133 0.900635 0.191406
0.896759 0.900635 0.191406
0.109802 0.109802 0.284271
0.286469 0.109802 0.284271
0.483337 0.109802 0.284271
0.674133 0.109802 0.284271
0.896759 0.109802 0.284271
0.109802 0.274994 0.284271
0.286469 0.274994 0.284271
0.483337 0.274994 0.284271
0.674133 0.274994 0.284271
0.896759 0.274994 0.284271
0.109802 0.478729 0.284271
0.286469 0.478729 0.284271
0.483337 0.478729 0.284271
0.674133 0.478729 0.284271
0.896759 0.478729 0.284271
0.109802 0.680481 0.284271
0.286469 0.680481 0.284271
0.483337 0.680481 0.284271
0.674133 0.680481 0.284271
0.896759 0.680481 0.284271
0.109802 0.900635 0.284271
0.286469 0.900635 0.284271
0.483337 0.900635 0.284271
0.674133 0.900635 0.284271
0.896759 0.900635 0.284271
0.109802 0.109802 0.430817
0.286469 0.109802 0.430817
0.483337 0.109802 0.430817
0.674133 0.109802 0.430817
0.896759 0.109802 0.430817
0.109802 0.274994 0.430817
0.286469 0.274994 0.430817
0.483337 0.274994 0.430817
0.674133 0.274994 0.430817
0.896759 0.274994 0.430817
0.109802 0.478729 0.430817
0.286469 0.478729 0.430817
0.483337 0.478729 0.430817
0.674133 0.478729 0.430817
0.896759 0.478729 0.430817
0.109802 0.680481 0.430817
0.286469 0.680481 0.430817
0.483337 0.680481 0.430817
0.674133 0.680481 0.430817
0.896759 0.680481 0.430817
0.109802 0.900635 0.430817
0.286469 0.900635 0.430817
0.483337 0.900635 0.430817
0.674133 0.900635 0.430817
0.896759 0.900635 0.430817
0.109802 0.109802 0.635345
0.286469 0.109802 0.635345
0.483337 0.109802 0.635345
0.674133 0.109802 0.635345
0.896759 0.109802 0.635345
0.109802 0.274994 0.635345
0.286469 0.274994 0.635345
0.483337 0.274994 0.635345
0.674133 0.274994 0.635345
0.896759 0.274994 0.635345
0.109802 0.478729 0.635345
0.286469 0.478729 0.635345
0.483337 0.478729 0.635345
0.674133 0.478729 0.635345
0.896759 0.478729 0.635345
0.109802 0.680481 0.635345
0.286469 0.680481 0.635345
0.483337 0.680481 0.635345
0.674133 0.680481 0.635345
0.896759 0.680481 0.635345
0.109802 0.900635 0.635345
0.286469 0.900635 0.635345
0.483337 0.900635 0.635345
0.674133 0.900635 0.635345
0.896759 0.900635 0.635345
0.109802 0.109802 0.885010
0.286469 0.109802 0.885010
0.483337 0.109802 0.885010
0.674133 0.109802 0.885010
0.896759 0.109802 0.885010
0.109802 0.274994 0.885010
0.286469 0.274994 0.885010
0.483337 0.274994 0.885010
0.674133 0.274994 0.885010
0.896759 0.274994 0.885010
0.109802 0.478729 0.885010
0.286469 0.478729 0.885010
0.483337 0.478729 0.885010
0.674133 0.478729 0.885010
0.896759 0.478729 0.885010
0.109802 0.680481 0.885010
0.286469 0.680481 0.885010
0.483337 0.680481 0.885010
0.674133 0.680481 0.885010
0.896759 0.680481 0.885010
0.109802 0.900635 0.885010
0.286469 0.900635 0.885010
0.483337 0.900635 0.885010
0.674133 0.900635 0.885010
0.896759 0.900635 0.885010
