src/LUT/LUTs/FreeLUTs-CaioBraga/Vintage Crossprocess.CUBE
#Created by: Adobe Photoshop Export Color Lookup Plugin
#Copyright: (C) Copyright 2017 ©Caio Braga
TITLE "Vintage Crossprocess"
#LUT size
LUT_3D_SIZE 8
#data domain
#LUT data points
DOMAIN_MIN 0.000000 0.000000 0.000000
DOMAIN_MAX 0.903226 0.903226 0.903226
0.109802 0.109802 0.191406
0.190369 0.109802 0.191406
0.316589 0.109802 0.191406
0.429596 0.109802 0.191406
0.536560 0.109802 0.191406
0.645599 0.109802 0.191406
0.764771 0.109802 0.191406
0.896759 0.109802 0.191406
0.109802 0.182007 0.191406
0.190369 0.182007 0.191406
0.316589 0.182007 0.191406
0.429596 0.182007 0.191406
0.536560 0.182007 0.191406
0.645599 0.182007 0.191406
0.764771 0.182007 0.191406
0.896759 0.182007 0.191406
0.109802 0.305084 0.191406
0.190369 0.305084 0.191406
0.316589 0.305084 0.191406
0.429596 0.305084 0.191406
0.536560 0.305084 0.191406
0.645599 0.305084 0.191406
0.764771 0.305084 0.191406
0.896759 0.305084 0.191406
0.109802 0.421722 0.191406
0.190369 0.421722 0.191406
0.316589 0.421722 0.191406
0.429596 0.421722 0.191406
0.536560 0.421722 0.191406
0.645599 0.421722 0.191406
0.764771 0.421722 0.191406
0.896759 0.421722 0.191406
0.109802 0.535614 0.191406
0.190369 0.535614 0.191406
0.316589 0.535614 0.191406
0.429596 0.535614 0.191406
0.536560 0.535614 0.191406
0.645599 0.535614 0.191406
0.764771 0.535614 0.191406
0.896759 0.535614 0.191406
0.109802 0.650909 0.191406
0.190369 0.650909 0.191406
0.316589 0.650909 0.191406
0.429596 0.650909 0.191406
0.536560 0.650909 0.191406
0.645599 0.650909 0.191406
0.764771 0.650909 0.191406
0.896759 0.650909 0.191406
0.109802 0.771912 0.191406
0.190369 0.771912 0.191406
0.316589 0.771912 0.191406
0.429596 0.771912 0.191406
0.536560 0.771912 0.191406
0.645599 0.771912 0.191406
0.764771 0.771912 0.191406
0.896759 0.771912 0.191406
0.109802 0.900635 0.191406
0.190369 0.900635 0.191406
0.316589 0.900635 0.191406
0.429596 0.900635 0.191406
0.536560 0.900635 0.191406
0.645599 0.900635 0.191406
0.764771 0.900635 0.191406
0.896759 0.900635 0.191406
0.109802 0.109802 0.240417
0.190369 0.109802 0.240417
0.316589 0.109802 0.240417
0.429596 0.109802 0.240417
0.536560 0.109802 0.240417
0.645599 0.109802 0.240417
0.764771 0.109802 0.240417
0.896759 0.109802 0.240417
0.109802 0.182007 0.240417
0.190369 0.182007 0.240417
0.316589 0.182007 0.240417
0.429596 0.182007 0.240417
0.536560 0.182007 0.240417
0.645599 0.182007 0.240417
0.764771 0.182007 0.240417
0.896759 0.182007 0.240417
0.109802 0.305084 0.240417
0.190369 0.305084 0.240417
0.316589 0.305084 0.240417
0.429596 0.305084 0.240417
0.536560 0.305084 0.240417
0.645599 0.305084 0.240417
0.764771 0.305084 0.240417
0.896759 0.305084 0.240417
0.109802 0.421722 0.240417
0.190369 0.421722 0.240417
0.316589 0.421722 0.240417
0.429596 0.421722 0.240417
0.536560 0.421722 0.240417
0.645599 0.421722 0.240417
0.764771 0.421722 0.240417
0.896759 0.421722 0.240417
0.109802 0.535614 0.240417
0.190369 0.535614 0.240417
0.316589 0.535614 0.240417
0.429596 0.535614 0.240417
0.536560 0.535614 0.240417
0.645599 0.535614 0.240417
0.764771 0.535614 0.240417
0.896759 0.535614 0.240417
0.109802 0.650909 0.240417
0.190369 0.650909 0.240417
0.316589 0.650909 0.240417
0.429596 0.650909 0.240417
0.536560 0.650909 0.240417
0.645599 0.650909 0.240417
0.764771 0.650909 0.240417
0.896759 0.650909 0.240417
0.109802 0.771912 0.240417
0.190369 0.771912 0.240417
0.316589 0.771912 0.240417
0.429596 0.771912 0.240417
0.536560 0.771912 0.240417
0.645599 0.771912 0.240417
0.764771 0.771912 0.240417
0.896759 0.771912 0.240417
0.109802 0.900635 0.240417
0.190369 0.900635 0.240417
0.316589 0.900635 0.240417
0.429596 0.900635 0.240417
0.536560 0.900635 0.240417
0.645599 0.900635 0.240417
0.764771 0.900635 0.240417
0.896759 0.900635 0.240417
0.109802 0.109802 0.301178
0.190369 0.109802 0.301178
0.316589 0.109802 0.301178
0.429596 0.109802 0.301178
0.536560 0.109802 0.301178
0.645599 0.109802 0.301178
0.764771 0.109802 0.301178
0.896759 0.109802 0.301178
0.109802 0.182007 0.301178
0.190369 0.182007 0.301178
0.316589 0.182007 0.301178
0.429596 0.182007 0.301178
0.536560 0.182007 0.301178
0.645599 0.182007 0.301178
0.764771 0.182007 0.301178
0.896759 0.182007 0.301178
0.109802 0.305084 0.301178
0.190369 0.305084 0.301178
0.316589 0.305084 0.301178
0.429596 0.305084 0.301178
0.536560 0.305084 0.301178
0.645599 0.305084 0.301178
0.764771 0.305084 0.301178
0.896759 0.305084 0.301178
0.109802 0.421722 0.301178
0.190369 0.421722 0.301178
0.316589 0.421722 0.301178
0.429596 0.421722 0.301178
0.536560 0.421722 0.301178
0.645599 0.421722 0.301178
0.764771 0.421722 0.301178
0.896759 0.421722 0.301178
0.109802 0.535614 0.301178
0.190369 0.535614 0.301178
0.316589 0.535614 0.301178
0.429596 0.535614 0.301178
0.536560 0.535614 0.301178
0.645599 0.535614 0.301178
0.764771 0.535614 0.301178
0.896759 0.535614 0.301178
0.109802 0.650909 0.301178
0.190369 0.650909 0.301178
0.316589 0.650909 0.301178
0.429596 0.650909 0.301178
0.536560 0.650909 0.301178
0.645599 0.650909 0.301178
0.764771 0.650909 0.301178
0.896759 0.650909 0.301178
0.109802 0.771912 0.301178
0.190369 0.771912 0.301178
0.316589 0.771912 0.301178
0.429596 0.771912 0.301178
0.536560 0.771912 0.301178
0.645599 0.771912 0.301178
0.764771 0.771912 0.301178
0.896759 0.771912 0.301178
0.109802 0.900635 0.301178
0.190369 0.900635 0.301178
0.316589 0.900635 0.301178
0.429596 0.900635 0.301178
0.536560 0.900635 0.301178
0.645599 0.900635 0.301178
0.764771 0.900635 0.301178
0.896759 0.900635 0.301178
0.109802 0.109802 0.382507
0.190369 0.109802 0.382507
0.316589 0.109802 0.382507
0.429596 0.109802 0.382507
0.536560 0.109802 0.382507
0.645599 0.109802 0.382507
0.764771 0.109802 0.382507
0.896759 0.109802 0.382507
0.109802 0.182007 0.382507
0.190369 0.182007 0.382507
0.316589 0.182007 0.382507
0.429596 0.182007 0.382507
0.536560 0.182007 0.382507
0.645599 0.182007 0.382507
0.764771 0.182007 0.382507
0.896759 0.182007 0.382507
0.109802 0.305084 0.382507
0.190369 0.305084 0.382507
0.316589 0.305084 0.382507
0.429596 0.305084 0.382507
0.536560 0.305084 0.382507
0.645599 0.305084 0.382507
0.764771 0.305084 0.382507
0.896759 0.305084 0.382507
0.109802 0.421722 0.382507
0.190369 0.421722 0.382507
0.316589 0.421722 0.382507
0.429596 0.421722 0.382507
0.536560 0.421722 0.382507
0.645599 0.421722 0.382507
0.764771 0.421722 0.382507
0.896759 0.421722 0.382507
0.109802 0.535614 0.382507
0.190369 0.535614 0.382507
0.316589 0.535614 0.382507
0.429596 0.535614 0.382507
0.536560 0.535614 0.382507
0.645599 0.535614 0.382507
0.764771 0.535614 0.382507
0.896759 0.535614 0.382507
0.109802 0.650909 0.382507
0.190369 0.650909 0.382507
0.316589 0.650909 0.382507
0.429596 0.650909 0.382507
0.536560 0.650909 0.382507
0.645599 0.650909 0.382507
0.764771 0.650909 0.382507
0.896759 0.650909 0.382507
0.109802 0.771912 0.382507
0.190369 0.771912 0.382507
0.316589 0.771912 0.382507
0.429596 0.771912 0.382507
0.536560 0.771912 0.382507
0.645599 0.771912 0.382507
0.764771 0.771912 0.382507
0.896759 0.771912 0.382507
0.109802 0.900635 0.382507
0.190369 0.900635 0.382507
0.316589 0.900635 0.382507
0.429596 0.900635 0.382507
0.536560 0.900635 0.382507
0.645599 0.900635 0.382507
0.764771 0.900635 0.382507
0.896759 0.900635 0.382507
0.109802 0.109802 0.483887
0.190369 0.109802 0.483887
0.316589 0.109802 0.483887
0.429596 0.109802 0.483887
0.536560 0.109802 0.483887
0.645599 0.109802 0.483887
0.764771 0.109802 0.483887
0.896759 0.109802 0.483887
0.109802 0.182007 0.483887
0.190369 0.182007 0.483887
0.316589 0.182007 0.483887
0.429596 0.182007 0.483887
0.536560 0.182007 0.483887
0.645599 0.182007 0.483887
0.764771 0.182007 0.483887
0.896759 0.182007 0.483887
0.109802 0.305084 0.483887
0.190369 0.305084 0.483887
0.316589 0.305084 0.483887
0.429596 0.305084 0.483887
0.536560 0.305084 0.483887
0.645599 0.305084 0.483887
0.764771 0.305084 0.483887
0.896759 0.305084 0.483887
0.109802 0.421722 0.483887
0.190369 0.421722 0.483887
0.316589 0.421722 0.483887
0.429596 0.421722 0.483887
0.536560 0.421722 0.483887
0.645599 0.421722 0.483887
0.764771 0.421722 0.483887
0.896759 0.421722 0.483887
0.109802 0.535614 0.483887
0.190369 0.535614 0.483887
0.316589 0.535614 0.483887
0.429596 0.535614 0.483887
0.536560 0.535614 0.483887
0.645599 0.535614 0.483887
0.764771 0.535614 0.483887
0.896759 0.535614 0.483887
0.109802 0.650909 0.483887
0.190369 0.650909 0.483887
0.316589 0.650909 0.483887
0.429596 0.650909 0.483887
0.536560 0.650909 0.483887
0.645599 0.650909 0.483887
0.764771 0.650909 0.483887
0.896759 0.650909 0.483887
0.109802 0.771912 0.483887
0.190369 0.771912 0.483887
0.316589 0.771912 0.483887
0.429596 0.771912 0.483887
0.536560 0.771912 0.483887
0.645599 0.771912 0.483887
0.764771 0.771912 0.483887
0.896759 0.771912 0.483887
0.109802 0.900635 0.483887
0.190369 0.900635 0.483887
0.316589 0.900635 0.483887
0.429596 0.900635 0.483887
0.536560 0.900635 0.483887
0.645599 0.900635 0.483887
0.764771 0.900635 0.483887
0.896759 0.900635 0.483887
0.109802 0.109802 0.603058
0.190369 0.109802 0.603058
0.316589 0.109802 0.603058
0.429596 0.109802 0.603058
0.536560 0.109802 0.603058
0.645599 0.109802 0.603058
0.764771 0.109802 0.603058
0.896759 0.109802 0.603058
0.109802 0.182007 0.603058
0.190369 0.182007 0.603058
0.316589 0.182007 0.603058
0.429596 0.182007 0.603058
0.536560 0.182007 0.603058
0.645599 0.182007 0.603058
0.764771 0.182007 0.603058
0.896759 0.182007 0.603058
0.109802 0.305084 0.603058
0.190369 0.305084 0.603058
0.316589 0.305084 0.603058
0.429596 0.305084 0.603058
0.536560 0.305084 0.603058
0.645599 0.305084 0.603058
0.764771 0.305084 0.603058
0.896759 0.305084 0.603058
0.109802 0.421722 0.603058
0.190369 0.421722 0.603058
0.316589 0.421722 0.603058
0.429596 0.421722 0.603058
0.536560 0.421722 0.603058
0.645599 0.421722 0.603058
0.764771 0.421722 0.603058
0.896759 0.421722 0.603058
0.109802 0.535614 0.603058
0.190369 0.535614 0.603058
0.316589 0.535614 0.603058
0.429596 0.535614 0.603058
0.536560 0.535614 0.603058
0.645599 0.535614 0.603058
0.764771 0.535614 0.603058
0.896759 0.535614 0.603058
0.109802 0.650909 0.603058
0.190369 0.650909 0.603058
0.316589 0.650909 0.603058
0.429596 0.650909 0.603058
0.536560 0.650909 0.603058
0.645599 0.650909 0.603058
0.764771 0.650909 0.603058
0.896759 0.650909 0.603058
0.109802 0.771912 0.603058
0.190369 0.771912 0.603058
0.316589 0.771912 0.603058
0.429596 0.771912 0.603058
0.536560 0.771912 0.603058
0.645599 0.771912 0.603058
0.764771 0.771912 0.603058
0.896759 0.771912 0.603058
0.109802 0.900635 0.603058
0.190369 0.900635 0.603058
0.316589 0.900635 0.603058
0.429596 0.900635 0.603058
0.536560 0.900635 0.603058
0.645599 0.900635 0.603058
0.764771 0.900635 0.603058
0.896759 0.900635 0.603058
0.109802 0.109802 0.737671
0.190369 0.109802 0.737671
0.316589 0.109802 0.737671
0.429596 0.109802 0.737671
0.536560 0.109802 0.737671
0.645599 0.109802 0.737671
0.764771 0.109802 0.737671
0.896759 0.109802 0.737671
0.109802 0.182007 0.737671
0.190369 0.182007 0.737671
0.316589 0.182007 0.737671
0.429596 0.182007 0.737671
0.536560 0.182007 0.737671
0.645599 0.182007 0.737671
0.764771 0.182007 0.737671
0.896759 0.182007 0.737671
0.109802 0.305084 0.737671
0.190369 0.305084 0.737671
0.316589 0.305084 0.737671
0.429596 0.305084 0.737671
0.536560 0.305084 0.737671
0.645599 0.305084 0.737671
0.764771 0.305084 0.737671
0.896759 0.305084 0.737671
0.109802 0.421722 0.737671
0.190369 0.421722 0.737671
0.316589 0.421722 0.737671
0.429596 0.421722 0.737671
0.536560 0.421722 0.737671
0.645599 0.421722 0.737671
0.764771 0.421722 0.737671
0.896759 0.421722 0.737671
0.109802 0.535614 0.737671
0.190369 0.535614 0.737671
0.316589 0.535614 0.737671
0.429596 0.535614 0.737671
0.536560 0.535614 0.737671
0.645599 0.535614 0.737671
0.764771 0.535614 0.737671
0.896759 0.535614 0.737671
0.109802 0.650909 0.737671
0.190369 0.650909 0.737671
0.316589 0.650909 0.737671
0.429596 0.650909 0.737671
0.536560 0.650909 0.737671
0.645599 0.650909 0.737671
0.764771 0.650909 0.737671
0.896759 0.650909 0.737671
0.109802 0.771912 0.737671
0.190369 0.771912 0.737671
0.316589 0.771912 0.737671
0.429596 0.771912 0.737671
0.536560 0.771912 0.737671
0.645599 0.771912 0.737671
0.764771 0.771912 0.737671
0.896759 0.771912 0.737671
0.109802 0.900635 0.737671
0.190369 0.900635 0.737671
0.316589 0.900635 0.737671
0.429596 0.900635 0.737671
0.536560 0.900635 0.737671
0.645599 0.900635 0.737671
0.764771 0.900635 0.737671
0.896759 0.900635 0.737671
0.109802 0.109802 0.885010
0.190369 0.109802 0.885010
0.316589 0.109802 0.885010
0.429596 0.109802 0.885010
0.536560 0.109802 0.885010
0.645599 0.109802 0.885010
0.764771 0.109802 0.885010
0.896759 0.109802 0.885010
0.109802 0.182007 0.885010
0.190369 0.182007 0.885010
0.316589 0.182007 0.885010
0.429596 0.182007 0.885010
0.536560 0.182007 0.885010
0.645599 0.182007 0.885010
0.764771 0.182007 0.885010
0.896759 0.182007 0.885010
0.109802 0.305084 0.885010
0.190369 0.305084 0.885010
0.316589 0.305084 0.885010
0.429596 0.305084 0.885010
0.536560 0.305084 0.885010
0.645599 0.305084 0.885010
0.764771 0.305084 0.885010
0.896759 0.305084 0.885010
0.109802 0.421722 0.885010
0.190369 0.421722 0.885010
0.316589 0.421722 0.885010
0.429596 0.421722 0.885010
0.536560 0.421722 0.885010
0.645599 0.421722 0.885010
0.764771 0.421722 0.885010
0.896759 0.421722 0.885010
0.109802 0.535614 0.885010
0.190369 0.535614 0.885010
0.316589 0.535614 0.885010
0.429596 0.535614 0.885010
0.536560 0.535614 0.885010
0.645599 0.535614 0.885010
0.764771 0.535614 0.885010
0.896759 0.535614 0.885010
0.109802 0.650909 0.885010
0.190369 0.650909 0.885010
0.316589 0.650909 0.885010
0.429596 0.650909 0.885010
0.536560 0.650909 0.885010
0.645599 0.650909 0.885010
0.764771 0.650909 0.885010
0.896759 0.650909 0.885010
0.109802 0.771912 0.885010
0.190369 0.771912 0.885010
0.316589 0.771912 0.885010
0.429596 0.771912 0.885010
0.536560 0.771912 0.885010
0.645599 0.771912 0.885010
0.764771 0.771912 0.885010
0.896759 0.771912 0.885010
0.109802 0.900635 0.885010
0.190369 0.900635 0.885010
0.316589 0.900635 0.885010
0.429596 0.900635 0.885010
0.536560 0.900635 0.885010
0.645599 0.900635 0.885010
0.764771 0.900635 0.885010
0.896759 0.900635 0.885010
